%
(Header)
(Generated by gcodetools from Inkscape.)
(Using default header. To add your own header create file "header" in the output dir.)
M3
(Header end.)
G21 (All units in mm)

(Start cutting path id: text1)
(Change tool to Default tool)

G00 Z5.000000
G00 X15.714219 Y34.650670

G01 Z-1.000000 F100.0(Penetrate)
G01 X21.090219 Y34.650670 Z-1.000000 F400.000000
G02 X23.402763 Y38.732843 Z-1.000000 I5.897999 J-0.645094
G02 X28.962219 Y40.602670 Z-1.000000 I5.559456 J-7.329902
G02 X34.709947 Y38.862398 Z-1.000000 I0.000000 J-10.361864
G02 X36.450219 Y35.610670 Z-1.000000 I-2.167819 J-3.251728
G01 X36.450219 Y34.202670 Z-1.000000
G02 X35.374983 Y32.173622 Z-1.000000 I-2.452098 J0.000000
G02 X30.882219 Y30.490670 Z-1.000000 I-5.718182 J8.426750
G03 X19.288501 Y27.237934 Z-1.000000 I5.455143 J-41.731842
G03 X14.242219 Y19.482670 Z-1.000000 I3.436109 J-7.755264
G03 X17.282747 Y12.631855 Z-1.000000 I9.238277 J0.000000
G03 X25.250219 Y9.562670 Z-1.000000 I7.967472 J8.807016
G03 X30.817993 Y10.716656 Z-1.000000 I-0.000000 J14.008742
G03 X36.642219 Y14.490670 Z-1.000000 I-8.335503 J19.244829
G03 X38.438367 Y10.990674 Z-1.000000 I5.527495 J0.625754
G03 X42.146220 Y9.562670 Z-1.000000 I3.707853 J4.099773
G03 X43.541606 Y9.671341 Z-1.000000 I-0.000000 J9.013038
G03 X45.794220 Y10.138670 Z-1.000000 I-3.627352 J23.147199
G01 X45.794220 Y14.170670 Z-1.000000
G02 X45.050453 Y14.058924 Z-1.000000 I-1.174048 J5.283214
G02 X44.642220 Y14.042670 Z-1.000000 I-0.408233 J5.118522
G02 X42.555135 Y14.857694 Z-1.000000 I0.000000 J3.079778
G02 X41.762220 Y16.666670 Z-1.000000 I1.667063 J1.808976
G01 X41.762220 Y36.378670 Z-1.000000
G03 X38.690110 Y42.422236 Z-1.000000 I-7.480616 J0.000000
G03 X29.154219 Y45.530670 Z-1.000000 I-9.535891 J-13.072636
G03 X21.428180 Y43.658632 Z-1.000000 I-0.000000 J-16.878988
G03 X15.714219 Y34.650670 Z-1.000000 I4.828691 J-9.379182
G01 X15.714219 Y34.650670 Z-1.000000
G00 Z5.000000

(End cutting path id: text1)


(Start cutting path id: text1)
(Change tool to Default tool)

G00 Z5.000000
G00 X15.714219 Y34.650670

G01 Z-2.000000 F100.0(Penetrate)
G01 X21.090219 Y34.650670 Z-2.000000 F400.000000
G02 X23.402763 Y38.732843 Z-2.000000 I5.897999 J-0.645094
G02 X28.962219 Y40.602670 Z-2.000000 I5.559456 J-7.329902
G02 X34.709947 Y38.862398 Z-2.000000 I0.000000 J-10.361864
G02 X36.450219 Y35.610670 Z-2.000000 I-2.167819 J-3.251728
G01 X36.450219 Y34.202670 Z-2.000000
G02 X35.374983 Y32.173622 Z-2.000000 I-2.452098 J0.000000
G02 X30.882219 Y30.490670 Z-2.000000 I-5.718182 J8.426750
G03 X19.288501 Y27.237934 Z-2.000000 I5.455143 J-41.731842
G03 X14.242219 Y19.482670 Z-2.000000 I3.436109 J-7.755264
G03 X17.282747 Y12.631855 Z-2.000000 I9.238277 J0.000000
G03 X25.250219 Y9.562670 Z-2.000000 I7.967472 J8.807016
G03 X30.817993 Y10.716656 Z-2.000000 I-0.000000 J14.008742
G03 X36.642219 Y14.490670 Z-2.000000 I-8.335503 J19.244829
G03 X38.438367 Y10.990674 Z-2.000000 I5.527495 J0.625754
G03 X42.146220 Y9.562670 Z-2.000000 I3.707853 J4.099773
G03 X43.541606 Y9.671341 Z-2.000000 I-0.000000 J9.013038
G03 X45.794220 Y10.138670 Z-2.000000 I-3.627352 J23.147199
G01 X45.794220 Y14.170670 Z-2.000000
G02 X45.050453 Y14.058924 Z-2.000000 I-1.174048 J5.283214
G02 X44.642220 Y14.042670 Z-2.000000 I-0.408233 J5.118522
G02 X42.555135 Y14.857694 Z-2.000000 I0.000000 J3.079778
G02 X41.762220 Y16.666670 Z-2.000000 I1.667063 J1.808976
G01 X41.762220 Y36.378670 Z-2.000000
G03 X38.690110 Y42.422236 Z-2.000000 I-7.480616 J0.000000
G03 X29.154219 Y45.530670 Z-2.000000 I-9.535891 J-13.072636
G03 X21.428180 Y43.658632 Z-2.000000 I-0.000000 J-16.878988
G03 X15.714219 Y34.650670 Z-2.000000 I4.828691 J-9.379182
G01 X15.714219 Y34.650670 Z-2.000000
G00 Z5.000000

(End cutting path id: text1)


(Start cutting path id: text1)
(Change tool to Default tool)

G00 Z5.000000
G00 X15.714219 Y34.650670

G01 Z-3.000000 F100.0(Penetrate)
G01 X21.090219 Y34.650670 Z-3.000000 F400.000000
G02 X23.402763 Y38.732843 Z-3.000000 I5.897999 J-0.645094
G02 X28.962219 Y40.602670 Z-3.000000 I5.559456 J-7.329902
G02 X34.709947 Y38.862398 Z-3.000000 I0.000000 J-10.361864
G02 X36.450219 Y35.610670 Z-3.000000 I-2.167819 J-3.251728
G01 X36.450219 Y34.202670 Z-3.000000
G02 X35.374983 Y32.173622 Z-3.000000 I-2.452098 J0.000000
G02 X30.882219 Y30.490670 Z-3.000000 I-5.718182 J8.426750
G03 X19.288501 Y27.237934 Z-3.000000 I5.455143 J-41.731842
G03 X14.242219 Y19.482670 Z-3.000000 I3.436109 J-7.755264
G03 X17.282747 Y12.631855 Z-3.000000 I9.238277 J0.000000
G03 X25.250219 Y9.562670 Z-3.000000 I7.967472 J8.807016
G03 X30.817993 Y10.716656 Z-3.000000 I-0.000000 J14.008742
G03 X36.642219 Y14.490670 Z-3.000000 I-8.335503 J19.244829
G03 X38.438367 Y10.990674 Z-3.000000 I5.527495 J0.625754
G03 X42.146220 Y9.562670 Z-3.000000 I3.707853 J4.099773
G03 X43.541606 Y9.671341 Z-3.000000 I-0.000000 J9.013038
G03 X45.794220 Y10.138670 Z-3.000000 I-3.627352 J23.147199
G01 X45.794220 Y14.170670 Z-3.000000
G02 X45.050453 Y14.058924 Z-3.000000 I-1.174048 J5.283214
G02 X44.642220 Y14.042670 Z-3.000000 I-0.408233 J5.118522
G02 X42.555135 Y14.857694 Z-3.000000 I0.000000 J3.079778
G02 X41.762220 Y16.666670 Z-3.000000 I1.667063 J1.808976
G01 X41.762220 Y36.378670 Z-3.000000
G03 X38.690110 Y42.422236 Z-3.000000 I-7.480616 J0.000000
G03 X29.154219 Y45.530670 Z-3.000000 I-9.535891 J-13.072636
G03 X21.428180 Y43.658632 Z-3.000000 I-0.000000 J-16.878988
G03 X15.714219 Y34.650670 Z-3.000000 I4.828691 J-9.379182
G01 X15.714219 Y34.650670 Z-3.000000
G00 Z5.000000

(End cutting path id: text1)


(Start cutting path id: text1)
(Change tool to Default tool)

G00 Z5.000000
G00 X26.402219 Y14.234670

G01 Z-1.000000 F100.0(Penetrate)
G02 X21.540836 Y15.965829 Z-1.000000 I0.000000 J7.691365 F400.000000
G02 X19.810219 Y19.610670 Z-1.000000 I2.972878 J3.644841
G02 X26.325981 Y25.729702 Z-1.000000 I6.131110 J0.000000
G03 X36.450219 Y27.610670 Z-1.000000 I1.323935 J21.061115
G01 X36.450219 Y21.594670 Z-1.000000
G02 X34.686562 Y17.516716 Z-1.000000 I-5.596382 J0.000000
G02 X26.402219 Y14.234670 Z-1.000000 I-8.284343 J8.814398
G01 X26.402219 Y14.234670 Z-1.000000
G00 Z5.000000

(End cutting path id: text1)


(Start cutting path id: text1)
(Change tool to Default tool)

G00 Z5.000000
G00 X26.402219 Y14.234670

G01 Z-2.000000 F100.0(Penetrate)
G02 X21.540836 Y15.965829 Z-2.000000 I0.000000 J7.691365 F400.000000
G02 X19.810219 Y19.610670 Z-2.000000 I2.972878 J3.644841
G02 X26.325981 Y25.729702 Z-2.000000 I6.131110 J0.000000
G03 X36.450219 Y27.610670 Z-2.000000 I1.323935 J21.061115
G01 X36.450219 Y21.594670 Z-2.000000
G02 X34.686562 Y17.516716 Z-2.000000 I-5.596382 J0.000000
G02 X26.402219 Y14.234670 Z-2.000000 I-8.284343 J8.814398
G01 X26.402219 Y14.234670 Z-2.000000
G00 Z5.000000

(End cutting path id: text1)


(Start cutting path id: text1)
(Change tool to Default tool)

G00 Z5.000000
G00 X26.402219 Y14.234670

G01 Z-3.000000 F100.0(Penetrate)
G02 X21.540836 Y15.965829 Z-3.000000 I0.000000 J7.691365 F400.000000
G02 X19.810219 Y19.610670 Z-3.000000 I2.972878 J3.644841
G02 X26.325981 Y25.729702 Z-3.000000 I6.131110 J0.000000
G03 X36.450219 Y27.610670 Z-3.000000 I1.323935 J21.061115
G01 X36.450219 Y21.594670 Z-3.000000
G02 X34.686562 Y17.516716 Z-3.000000 I-5.596382 J0.000000
G02 X26.402219 Y14.234670 Z-3.000000 I-8.284343 J8.814398
G01 X26.402219 Y14.234670 Z-3.000000
G00 Z5.000000

(End cutting path id: text1)


(Start cutting path id: text1)
(Change tool to Default tool)

G00 Z5.000000
G00 X63.714170 Y44.570670

G01 Z-1.000000 F100.0(Penetrate)
G01 X58.146170 Y44.570670 Z-1.000000 F400.000000
G01 X58.146170 Y49.818670 Z-1.000000
G02 X59.191003 Y52.179864 Z-1.000000 I3.190420 J0.000000
G02 X61.858170 Y53.210670 Z-1.000000 I2.667167 J-2.935187
G02 X62.357610 Y53.203054 Z-1.000000 I-0.000000 J-16.379390
G02 X63.714170 Y53.146670 Z-1.000000 I-1.874493 J-61.446392
G01 X63.714170 Y57.562670 Z-1.000000
G03 X62.118466 Y57.811050 Z-1.000000 I-3.135338 J-14.892854
G03 X60.706170 Y57.882670 Z-1.000000 I-1.412296 J-13.888956
G03 X55.114655 Y55.628290 Z-1.000000 I-0.000000 J-8.061477
G03 X52.834170 Y50.266670 Z-1.000000 I5.162576 J-5.361620
G01 X52.834170 Y44.570670 Z-1.000000
G01 X48.354170 Y44.570670 Z-1.000000
G01 X48.354170 Y40.218670 Z-1.000000
G01 X52.834170 Y40.218670 Z-1.000000
G01 X52.834170 Y11.034670 Z-1.000000
G01 X58.146170 Y11.034670 Z-1.000000
G01 X58.146170 Y40.218670 Z-1.000000
G01 X63.714170 Y40.218670 Z-1.000000
G01 X63.714170 Y44.570670 Z-1.000000
G00 Z5.000000

(End cutting path id: text1)


(Start cutting path id: text1)
(Change tool to Default tool)

G00 Z5.000000
G00 X63.714170 Y44.570670

G01 Z-2.000000 F100.0(Penetrate)
G01 X58.146170 Y44.570670 Z-2.000000 F400.000000
G01 X58.146170 Y49.818670 Z-2.000000
G02 X59.191003 Y52.179864 Z-2.000000 I3.190420 J0.000000
G02 X61.858170 Y53.210670 Z-2.000000 I2.667167 J-2.935187
G02 X62.357610 Y53.203054 Z-2.000000 I-0.000000 J-16.379390
G02 X63.714170 Y53.146670 Z-2.000000 I-1.874493 J-61.446392
G01 X63.714170 Y57.562670 Z-2.000000
G03 X62.118466 Y57.811050 Z-2.000000 I-3.135338 J-14.892854
G03 X60.706170 Y57.882670 Z-2.000000 I-1.412296 J-13.888956
G03 X55.114655 Y55.628290 Z-2.000000 I-0.000000 J-8.061477
G03 X52.834170 Y50.266670 Z-2.000000 I5.162576 J-5.361620
G01 X52.834170 Y44.570670 Z-2.000000
G01 X48.354170 Y44.570670 Z-2.000000
G01 X48.354170 Y40.218670 Z-2.000000
G01 X52.834170 Y40.218670 Z-2.000000
G01 X52.834170 Y11.034670 Z-2.000000
G01 X58.146170 Y11.034670 Z-2.000000
G01 X58.146170 Y40.218670 Z-2.000000
G01 X63.714170 Y40.218670 Z-2.000000
G01 X63.714170 Y44.570670 Z-2.000000
G00 Z5.000000

(End cutting path id: text1)


(Start cutting path id: text1)
(Change tool to Default tool)

G00 Z5.000000
G00 X63.714170 Y44.570670

G01 Z-3.000000 F100.0(Penetrate)
G01 X58.146170 Y44.570670 Z-3.000000 F400.000000
G01 X58.146170 Y49.818670 Z-3.000000
G02 X59.191003 Y52.179864 Z-3.000000 I3.190420 J0.000000
G02 X61.858170 Y53.210670 Z-3.000000 I2.667167 J-2.935187
G02 X62.357610 Y53.203054 Z-3.000000 I-0.000000 J-16.379390
G02 X63.714170 Y53.146670 Z-3.000000 I-1.874493 J-61.446392
G01 X63.714170 Y57.562670 Z-3.000000
G03 X62.118466 Y57.811050 Z-3.000000 I-3.135338 J-14.892854
G03 X60.706170 Y57.882670 Z-3.000000 I-1.412296 J-13.888956
G03 X55.114655 Y55.628290 Z-3.000000 I-0.000000 J-8.061477
G03 X52.834170 Y50.266670 Z-3.000000 I5.162576 J-5.361620
G01 X52.834170 Y44.570670 Z-3.000000
G01 X48.354170 Y44.570670 Z-3.000000
G01 X48.354170 Y40.218670 Z-3.000000
G01 X52.834170 Y40.218670 Z-3.000000
G01 X52.834170 Y11.034670 Z-3.000000
G01 X58.146170 Y11.034670 Z-3.000000
G01 X58.146170 Y40.218670 Z-3.000000
G01 X63.714170 Y40.218670 Z-3.000000
G01 X63.714170 Y44.570670 Z-3.000000
G00 Z5.000000

(End cutting path id: text1)


(Start cutting path id: text1)
(Change tool to Default tool)

G00 Z5.000000
G00 X84.962220 Y39.898670

G01 Z-1.000000 F100.0(Penetrate)
G01 X84.962220 Y45.338670 Z-1.000000 F400.000000
G03 X83.812793 Y45.482510 Z-1.000000 I-4.706765 J-32.947355
G03 X82.914220 Y45.530670 Z-1.000000 I-0.898573 J-8.358737
G03 X78.838315 Y44.138649 Z-1.000000 I0.000000 J-6.663236
G03 X73.762220 Y38.490670 Z-1.000000 I12.939984 J-16.734797
G01 X73.762220 Y44.570670 Z-1.000000
G01 X68.834220 Y44.570670 Z-1.000000
G01 X68.834220 Y11.034670 Z-1.000000
G01 X74.210220 Y11.034670 Z-1.000000
G01 X74.210220 Y28.442670 Z-1.000000
G02 X78.365521 Y37.406458 Z-1.000000 I11.745962 J0.000000
G02 X84.962220 Y39.898670 Z-1.000000 I6.805183 J-8.036219
G01 X84.962220 Y39.898670 Z-1.000000
G00 Z5.000000

(End cutting path id: text1)


(Start cutting path id: text1)
(Change tool to Default tool)

G00 Z5.000000
G00 X84.962220 Y39.898670

G01 Z-2.000000 F100.0(Penetrate)
G01 X84.962220 Y45.338670 Z-2.000000 F400.000000
G03 X83.812793 Y45.482510 Z-2.000000 I-4.706765 J-32.947355
G03 X82.914220 Y45.530670 Z-2.000000 I-0.898573 J-8.358737
G03 X78.838315 Y44.138649 Z-2.000000 I0.000000 J-6.663236
G03 X73.762220 Y38.490670 Z-2.000000 I12.939984 J-16.734797
G01 X73.762220 Y44.570670 Z-2.000000
G01 X68.834220 Y44.570670 Z-2.000000
G01 X68.834220 Y11.034670 Z-2.000000
G01 X74.210220 Y11.034670 Z-2.000000
G01 X74.210220 Y28.442670 Z-2.000000
G02 X78.365521 Y37.406458 Z-2.000000 I11.745962 J0.000000
G02 X84.962220 Y39.898670 Z-2.000000 I6.805183 J-8.036219
G01 X84.962220 Y39.898670 Z-2.000000
G00 Z5.000000

(End cutting path id: text1)


(Start cutting path id: text1)
(Change tool to Default tool)

G00 Z5.000000
G00 X84.962220 Y39.898670

G01 Z-3.000000 F100.0(Penetrate)
G01 X84.962220 Y45.338670 Z-3.000000 F400.000000
G03 X83.812793 Y45.482510 Z-3.000000 I-4.706765 J-32.947355
G03 X82.914220 Y45.530670 Z-3.000000 I-0.898573 J-8.358737
G03 X78.838315 Y44.138649 Z-3.000000 I0.000000 J-6.663236
G03 X73.762220 Y38.490670 Z-3.000000 I12.939984 J-16.734797
G01 X73.762220 Y44.570670 Z-3.000000
G01 X68.834220 Y44.570670 Z-3.000000
G01 X68.834220 Y11.034670 Z-3.000000
G01 X74.210220 Y11.034670 Z-3.000000
G01 X74.210220 Y28.442670 Z-3.000000
G02 X78.365521 Y37.406458 Z-3.000000 I11.745962 J0.000000
G02 X84.962220 Y39.898670 Z-3.000000 I6.805183 J-8.036219
G01 X84.962220 Y39.898670 Z-3.000000
G00 Z5.000000

(End cutting path id: text1)


(Start cutting path id: text1)
(Change tool to Default tool)

G00 Z5.000000
G00 X89.634260 Y34.650670

G01 Z-1.000000 F100.0(Penetrate)
G01 X95.010260 Y34.650670 Z-1.000000 F400.000000
G02 X97.322804 Y38.732843 Z-1.000000 I5.897999 J-0.645094
G02 X102.882260 Y40.602670 Z-1.000000 I5.559456 J-7.329902
G02 X108.629988 Y38.862398 Z-1.000000 I0.000000 J-10.361864
G02 X110.370260 Y35.610670 Z-1.000000 I-2.167819 J-3.251728
G01 X110.370260 Y34.202670 Z-1.000000
G02 X109.295024 Y32.173622 Z-1.000000 I-2.452098 J0.000000
G02 X104.802260 Y30.490670 Z-1.000000 I-5.718182 J8.426750
G03 X93.208542 Y27.237934 Z-1.000000 I5.455143 J-41.731842
G03 X88.162260 Y19.482670 Z-1.000000 I3.436109 J-7.755264
G03 X91.202788 Y12.631855 Z-1.000000 I9.238277 J0.000000
G03 X99.170260 Y9.562670 Z-1.000000 I7.967472 J8.807016
G03 X104.738034 Y10.716656 Z-1.000000 I0.000000 J14.008742
G03 X110.562260 Y14.490670 Z-1.000000 I-8.335503 J19.244829
G03 X112.358408 Y10.990673 Z-1.000000 I5.527496 J0.625754
G03 X116.066260 Y9.562670 Z-1.000000 I3.707852 J4.099771
G03 X117.461646 Y9.671341 Z-1.000000 I-0.000000 J9.013038
G03 X119.714260 Y10.138670 Z-1.000000 I-3.627352 J23.147199
G01 X119.714260 Y14.170670 Z-1.000000
G02 X118.970493 Y14.058924 Z-1.000000 I-1.174048 J5.283214
G02 X118.562260 Y14.042670 Z-1.000000 I-0.408233 J5.118522
G02 X116.475175 Y14.857694 Z-1.000000 I0.000000 J3.079778
G02 X115.682260 Y16.666670 Z-1.000000 I1.667063 J1.808976
G01 X115.682260 Y36.378670 Z-1.000000
G03 X112.610150 Y42.422236 Z-1.000000 I-7.480616 J0.000000
G03 X103.074260 Y45.530670 Z-1.000000 I-9.535890 J-13.072633
G03 X95.348221 Y43.658632 Z-1.000000 I0.000000 J-16.878988
G03 X89.634260 Y34.650670 Z-1.000000 I4.828691 J-9.379182
G01 X89.634260 Y34.650670 Z-1.000000
G00 Z5.000000

(End cutting path id: text1)


(Start cutting path id: text1)
(Change tool to Default tool)

G00 Z5.000000
G00 X89.634260 Y34.650670

G01 Z-2.000000 F100.0(Penetrate)
G01 X95.010260 Y34.650670 Z-2.000000 F400.000000
G02 X97.322804 Y38.732843 Z-2.000000 I5.897999 J-0.645094
G02 X102.882260 Y40.602670 Z-2.000000 I5.559456 J-7.329902
G02 X108.629988 Y38.862398 Z-2.000000 I0.000000 J-10.361864
G02 X110.370260 Y35.610670 Z-2.000000 I-2.167819 J-3.251728
G01 X110.370260 Y34.202670 Z-2.000000
G02 X109.295024 Y32.173622 Z-2.000000 I-2.452098 J0.000000
G02 X104.802260 Y30.490670 Z-2.000000 I-5.718182 J8.426750
G03 X93.208542 Y27.237934 Z-2.000000 I5.455143 J-41.731842
G03 X88.162260 Y19.482670 Z-2.000000 I3.436109 J-7.755264
G03 X91.202788 Y12.631855 Z-2.000000 I9.238277 J0.000000
G03 X99.170260 Y9.562670 Z-2.000000 I7.967472 J8.807016
G03 X104.738034 Y10.716656 Z-2.000000 I0.000000 J14.008742
G03 X110.562260 Y14.490670 Z-2.000000 I-8.335503 J19.244829
G03 X112.358408 Y10.990673 Z-2.000000 I5.527496 J0.625754
G03 X116.066260 Y9.562670 Z-2.000000 I3.707852 J4.099771
G03 X117.461646 Y9.671341 Z-2.000000 I-0.000000 J9.013038
G03 X119.714260 Y10.138670 Z-2.000000 I-3.627352 J23.147199
G01 X119.714260 Y14.170670 Z-2.000000
G02 X118.970493 Y14.058924 Z-2.000000 I-1.174048 J5.283214
G02 X118.562260 Y14.042670 Z-2.000000 I-0.408233 J5.118522
G02 X116.475175 Y14.857694 Z-2.000000 I0.000000 J3.079778
G02 X115.682260 Y16.666670 Z-2.000000 I1.667063 J1.808976
G01 X115.682260 Y36.378670 Z-2.000000
G03 X112.610150 Y42.422236 Z-2.000000 I-7.480616 J0.000000
G03 X103.074260 Y45.530670 Z-2.000000 I-9.535890 J-13.072633
G03 X95.348221 Y43.658632 Z-2.000000 I0.000000 J-16.878988
G03 X89.634260 Y34.650670 Z-2.000000 I4.828691 J-9.379182
G01 X89.634260 Y34.650670 Z-2.000000
G00 Z5.000000

(End cutting path id: text1)


(Start cutting path id: text1)
(Change tool to Default tool)

G00 Z5.000000
G00 X89.634260 Y34.650670

G01 Z-3.000000 F100.0(Penetrate)
G01 X95.010260 Y34.650670 Z-3.000000 F400.000000
G02 X97.322804 Y38.732843 Z-3.000000 I5.897999 J-0.645094
G02 X102.882260 Y40.602670 Z-3.000000 I5.559456 J-7.329902
G02 X108.629988 Y38.862398 Z-3.000000 I0.000000 J-10.361864
G02 X110.370260 Y35.610670 Z-3.000000 I-2.167819 J-3.251728
G01 X110.370260 Y34.202670 Z-3.000000
G02 X109.295024 Y32.173622 Z-3.000000 I-2.452098 J0.000000
G02 X104.802260 Y30.490670 Z-3.000000 I-5.718182 J8.426750
G03 X93.208542 Y27.237934 Z-3.000000 I5.455143 J-41.731842
G03 X88.162260 Y19.482670 Z-3.000000 I3.436109 J-7.755264
G03 X91.202788 Y12.631855 Z-3.000000 I9.238277 J0.000000
G03 X99.170260 Y9.562670 Z-3.000000 I7.967472 J8.807016
G03 X104.738034 Y10.716656 Z-3.000000 I0.000000 J14.008742
G03 X110.562260 Y14.490670 Z-3.000000 I-8.335503 J19.244829
G03 X112.358408 Y10.990673 Z-3.000000 I5.527496 J0.625754
G03 X116.066260 Y9.562670 Z-3.000000 I3.707852 J4.099771
G03 X117.461646 Y9.671341 Z-3.000000 I-0.000000 J9.013038
G03 X119.714260 Y10.138670 Z-3.000000 I-3.627352 J23.147199
G01 X119.714260 Y14.170670 Z-3.000000
G02 X118.970493 Y14.058924 Z-3.000000 I-1.174048 J5.283214
G02 X118.562260 Y14.042670 Z-3.000000 I-0.408233 J5.118522
G02 X116.475175 Y14.857694 Z-3.000000 I0.000000 J3.079778
G02 X115.682260 Y16.666670 Z-3.000000 I1.667063 J1.808976
G01 X115.682260 Y36.378670 Z-3.000000
G03 X112.610150 Y42.422236 Z-3.000000 I-7.480616 J0.000000
G03 X103.074260 Y45.530670 Z-3.000000 I-9.535890 J-13.072633
G03 X95.348221 Y43.658632 Z-3.000000 I0.000000 J-16.878988
G03 X89.634260 Y34.650670 Z-3.000000 I4.828691 J-9.379182
G01 X89.634260 Y34.650670 Z-3.000000
G00 Z5.000000

(End cutting path id: text1)


(Start cutting path id: text1)
(Change tool to Default tool)

G00 Z5.000000
G00 X100.322260 Y14.234670

G01 Z-1.000000 F100.0(Penetrate)
G02 X95.460877 Y15.965829 Z-1.000000 I0.000000 J7.691365 F400.000000
G02 X93.730260 Y19.610670 Z-1.000000 I2.972878 J3.644841
G02 X100.246022 Y25.729702 Z-1.000000 I6.131110 J0.000000
G03 X110.370260 Y27.610670 Z-1.000000 I1.323935 J21.061115
G01 X110.370260 Y21.594670 Z-1.000000
G02 X108.606603 Y17.516716 Z-1.000000 I-5.596382 J0.000000
G02 X100.322260 Y14.234670 Z-1.000000 I-8.284343 J8.814398
G01 X100.322260 Y14.234670 Z-1.000000
G00 Z5.000000

(End cutting path id: text1)


(Start cutting path id: text1)
(Change tool to Default tool)

G00 Z5.000000
G00 X100.322260 Y14.234670

G01 Z-2.000000 F100.0(Penetrate)
G02 X95.460877 Y15.965829 Z-2.000000 I0.000000 J7.691365 F400.000000
G02 X93.730260 Y19.610670 Z-2.000000 I2.972878 J3.644841
G02 X100.246022 Y25.729702 Z-2.000000 I6.131110 J0.000000
G03 X110.370260 Y27.610670 Z-2.000000 I1.323935 J21.061115
G01 X110.370260 Y21.594670 Z-2.000000
G02 X108.606603 Y17.516716 Z-2.000000 I-5.596382 J0.000000
G02 X100.322260 Y14.234670 Z-2.000000 I-8.284343 J8.814398
G01 X100.322260 Y14.234670 Z-2.000000
G00 Z5.000000

(End cutting path id: text1)


(Start cutting path id: text1)
(Change tool to Default tool)

G00 Z5.000000
G00 X100.322260 Y14.234670

G01 Z-3.000000 F100.0(Penetrate)
G02 X95.460877 Y15.965829 Z-3.000000 I0.000000 J7.691365 F400.000000
G02 X93.730260 Y19.610670 Z-3.000000 I2.972878 J3.644841
G02 X100.246022 Y25.729702 Z-3.000000 I6.131110 J0.000000
G03 X110.370260 Y27.610670 Z-3.000000 I1.323935 J21.061115
G01 X110.370260 Y21.594670 Z-3.000000
G02 X108.606603 Y17.516716 Z-3.000000 I-5.596382 J0.000000
G02 X100.322260 Y14.234670 Z-3.000000 I-8.284343 J8.814398
G01 X100.322260 Y14.234670 Z-3.000000
G00 Z5.000000

(End cutting path id: text1)


(Footer)
M5
G00 X0.0000 Y0.0000
M2
(Using default footer. To add your own footer create file "footer" in the output dir.)
(end)
%