%
(Header)
(Generated by gcodetools from Inkscape.)
(Using default header. To add your own header create file "header" in the output dir.)
M3
(Header end.)
G21 (All units in mm)

(Start cutting path id: text1)
(Change tool to Default tool)

G00 Z5.000000
G00 X15.714219 Y34.650670

G01 Z-1.000000 F100.0(Penetrate)
G01 X21.090219 Y34.650670 Z-1.000000 F400.000000
G1 X21.0913 Y34.6606
G1 X21.0924 Y34.6705
G1 X21.0936 Y34.6804
G1 X21.0947 Y34.6904
G1 X21.0959 Y34.7003
G1 X21.0970 Y34.7102
G1 X21.0982 Y34.7201
G1 X21.0994 Y34.7300
G1 X21.1007 Y34.7399
G1 X21.1019 Y34.7498
G1 X21.1032 Y34.7598
G1 X21.1045 Y34.7697
G1 X21.1057 Y34.7796
G1 X21.1071 Y34.7895
G1 X21.1084 Y34.7994
G1 X21.1097 Y34.8093
G1 X21.1111 Y34.8191
G1 X21.1125 Y34.8290
G1 X21.1139 Y34.8389
G1 X21.1153 Y34.8488
G1 X21.1167 Y34.8587
G1 X21.1181 Y34.8686
G1 X21.1196 Y34.8785
G1 X21.1211 Y34.8883
G1 X21.1226 Y34.8982
G1 X21.1241 Y34.9081
G1 X21.1256 Y34.9179
G1 X21.1272 Y34.9278
G1 X21.1287 Y34.9377
G1 X21.1303 Y34.9475
G1 X21.1319 Y34.9574
G1 X21.1335 Y34.9673
G1 X21.1351 Y34.9771
G1 X21.1368 Y34.9870
G1 X21.1384 Y34.9968
G1 X21.1401 Y35.0066
G1 X21.1418 Y35.0165
G1 X21.1435 Y35.0263
G1 X21.1452 Y35.0362
G1 X21.1470 Y35.0460
G1 X21.1487 Y35.0558
G1 X21.1505 Y35.0657
G1 X21.1523 Y35.0755
G1 X21.1541 Y35.0853
G1 X21.1559 Y35.0951
G1 X21.1578 Y35.1049
G1 X21.1596 Y35.1147
G1 X21.1615 Y35.1246
G1 X21.1634 Y35.1344
G1 X21.1653 Y35.1442
G1 X21.1672 Y35.1540
G1 X21.1692 Y35.1638
G1 X21.1711 Y35.1735
G1 X21.1731 Y35.1833
G1 X21.1751 Y35.1931
G1 X21.1771 Y35.2029
G1 X21.1791 Y35.2127
G1 X21.1812 Y35.2225
G1 X21.1832 Y35.2322
G1 X21.1853 Y35.2420
G1 X21.1874 Y35.2518
G1 X21.1895 Y35.2615
G1 X21.1916 Y35.2713
G1 X21.1938 Y35.2810
G1 X21.1959 Y35.2908
G1 X21.1981 Y35.3005
G1 X21.2003 Y35.3103
G1 X21.2025 Y35.3200
G1 X21.2047 Y35.3298
G1 X21.2069 Y35.3395
G1 X21.2092 Y35.3492
G1 X21.2115 Y35.3589
G1 X21.2137 Y35.3687
G1 X21.2160 Y35.3784
G1 X21.2184 Y35.3881
G1 X21.2207 Y35.3978
G1 X21.2231 Y35.4075
G1 X21.2254 Y35.4172
G1 X21.2278 Y35.4269
G1 X21.2302 Y35.4366
G1 X21.2326 Y35.4463
G1 X21.2351 Y35.4560
G1 X21.2375 Y35.4657
G1 X21.2400 Y35.4753
G1 X21.2425 Y35.4850
G1 X21.2450 Y35.4947
G1 X21.2475 Y35.5043
G1 X21.2500 Y35.5140
G1 X21.2525 Y35.5237
G1 X21.2551 Y35.5333
G1 X21.2577 Y35.5430
G1 X21.2603 Y35.5526
G1 X21.2629 Y35.5622
G1 X21.2655 Y35.5719
G1 X21.2682 Y35.5815
G1 X21.2708 Y35.5911
G1 X21.2735 Y35.6008
G1 X21.2762 Y35.6104
G1 X21.2789 Y35.6200
G1 X21.2816 Y35.6296
G1 X21.2844 Y35.6392
G1 X21.2871 Y35.6488
G1 X21.2899 Y35.6584
G1 X21.2927 Y35.6680
G1 X21.2955 Y35.6776
G1 X21.2983 Y35.6871
G1 X21.3012 Y35.6967
G1 X21.3040 Y35.7063
G1 X21.3069 Y35.7158
G1 X21.3098 Y35.7254
G1 X21.3127 Y35.7350
G1 X21.3156 Y35.7445
G1 X21.3185 Y35.7541
G1 X21.3215 Y35.7636
G1 X21.3244 Y35.7731
G1 X21.3274 Y35.7827
G1 X21.3304 Y35.7922
G1 X21.3334 Y35.8017
G1 X21.3365 Y35.8112
G1 X21.3395 Y35.8207
G1 X21.3426 Y35.8302
G1 X21.3457 Y35.8397
G1 X21.3488 Y35.8492
G1 X21.3519 Y35.8587
G1 X21.3550 Y35.8682
G1 X21.3581 Y35.8777
G1 X21.3613 Y35.8872
G1 X21.3645 Y35.8966
G1 X21.3677 Y35.9061
G1 X21.3709 Y35.9156
G1 X21.3741 Y35.9250
G1 X21.3773 Y35.9344
G1 X21.3806 Y35.9439
G1 X21.3839 Y35.9533
G1 X21.3871 Y35.9628
G1 X21.3905 Y35.9722
G1 X21.3938 Y35.9816
G1 X21.3971 Y35.9910
G1 X21.4005 Y36.0004
G1 X21.4038 Y36.0098
G1 X21.4072 Y36.0192
G1 X21.4106 Y36.0286
G1 X21.4140 Y36.0380
G1 X21.4174 Y36.0474
G1 X21.4209 Y36.0567
G1 X21.4243 Y36.0661
G1 X21.4278 Y36.0755
G1 X21.4313 Y36.0848
G1 X21.4348 Y36.0942
G1 X21.4383 Y36.1035
G1 X21.4419 Y36.1129
G1 X21.4454 Y36.1222
G1 X21.4490 Y36.1315
G1 X21.4526 Y36.1408
G1 X21.4562 Y36.1502
G1 X21.4598 Y36.1595
G1 X21.4634 Y36.1688
G1 X21.4671 Y36.1781
G1 X21.4708 Y36.1874
G1 X21.4744 Y36.1966
G1 X21.4781 Y36.2059
G1 X21.4818 Y36.2152
G1 X21.4856 Y36.2245
G1 X21.4893 Y36.2337
G1 X21.4931 Y36.2430
G1 X21.4968 Y36.2522
G1 X21.5006 Y36.2614
G1 X21.5044 Y36.2707
G1 X21.5083 Y36.2799
G1 X21.5121 Y36.2891
G1 X21.5159 Y36.2983
G1 X21.5198 Y36.3076
G1 X21.5237 Y36.3168
G1 X21.5276 Y36.3259
G1 X21.5315 Y36.3351
G1 X21.5354 Y36.3443
G1 X21.5394 Y36.3535
G1 X21.5433 Y36.3627
G1 X21.5473 Y36.3718
G1 X21.5513 Y36.3810
G1 X21.5553 Y36.3901
G1 X21.5593 Y36.3993
G1 X21.5634 Y36.4084
G1 X21.5674 Y36.4175
G1 X21.5715 Y36.4266
G1 X21.5756 Y36.4358
G1 X21.5797 Y36.4449
G1 X21.5838 Y36.4540
G1 X21.5879 Y36.4631
G1 X21.5921 Y36.4721
G1 X21.5962 Y36.4812
G1 X21.6004 Y36.4903
G1 X21.6046 Y36.4994
G1 X21.6088 Y36.5084
G1 X21.6130 Y36.5175
G1 X21.6172 Y36.5265
G1 X21.6215 Y36.5355
G1 X21.6258 Y36.5446
G1 X21.6300 Y36.5536
G1 X21.6343 Y36.5626
G1 X21.6386 Y36.5716
G1 X21.6430 Y36.5806
G1 X21.6473 Y36.5896
G1 X21.6517 Y36.5986
G1 X21.6560 Y36.6076
G1 X21.6604 Y36.6166
G1 X21.6648 Y36.6255
G1 X21.6692 Y36.6345
G1 X21.6737 Y36.6434
G1 X21.6781 Y36.6524
G1 X21.6826 Y36.6613
G1 X21.6871 Y36.6702
G1 X21.6916 Y36.6791
G1 X21.6961 Y36.6881
G1 X21.7006 Y36.6970
G1 X21.7051 Y36.7059
G1 X21.7097 Y36.7147
G1 X21.7142 Y36.7236
G1 X21.7188 Y36.7325
G1 X21.7234 Y36.7414
G1 X21.7280 Y36.7502
G1 X21.7327 Y36.7591
G1 X21.7373 Y36.7679
G1 X21.7420 Y36.7767
G1 X21.7466 Y36.7856
G1 X21.7513 Y36.7944
G1 X21.7560 Y36.8032
G1 X21.7607 Y36.8120
G1 X21.7655 Y36.8208
G1 X21.7702 Y36.8296
G1 X21.7750 Y36.8384
G1 X21.7798 Y36.8471
G1 X21.7845 Y36.8559
G1 X21.7893 Y36.8646
G1 X21.7942 Y36.8734
G1 X21.7990 Y36.8821
G1 X21.8039 Y36.8909
G1 X21.8087 Y36.8996
G1 X21.8136 Y36.9083
G1 X21.8185 Y36.9170
G1 X21.8234 Y36.9257
G1 X21.8283 Y36.9344
G1 X21.8333 Y36.9431
G1 X21.8382 Y36.9517
G1 X21.8432 Y36.9604
G1 X21.8482 Y36.9691
G1 X21.8531 Y36.9777
G1 X21.8582 Y36.9863
G1 X21.8632 Y36.9950
G1 X21.8682 Y37.0036
G1 X21.8733 Y37.0122
G1 X21.8783 Y37.0208
G1 X21.8834 Y37.0294
G1 X21.8885 Y37.0380
G1 X21.8936 Y37.0466
G1 X21.8988 Y37.0552
G1 X21.9039 Y37.0637
G1 X21.9091 Y37.0723
G1 X21.9142 Y37.0808
G1 X21.9194 Y37.0893
G1 X21.9246 Y37.0979
G1 X21.9298 Y37.1064
G1 X21.9350 Y37.1149
G1 X21.9403 Y37.1234
G1 X21.9455 Y37.1319
G1 X21.9508 Y37.1404
G1 X21.9561 Y37.1489
G1 X21.9614 Y37.1573
G1 X21.9667 Y37.1658
G1 X21.9720 Y37.1742
G1 X21.9774 Y37.1827
G1 X21.9827 Y37.1911
G1 X21.9881 Y37.1995
G1 X21.9935 Y37.2079
G1 X21.9989 Y37.2163
G1 X22.0043 Y37.2247
G1 X22.0097 Y37.2331
G1 X22.0151 Y37.2415
G1 X22.0206 Y37.2498
G1 X22.0261 Y37.2582
G1 X22.0315 Y37.2665
G1 X22.0370 Y37.2749
G1 X22.0426 Y37.2832
G1 X22.0481 Y37.2915
G1 X22.0536 Y37.2998
G1 X22.0592 Y37.3081
G1 X22.0647 Y37.3164
G1 X22.0703 Y37.3247
G1 X22.0759 Y37.3330
G1 X22.0815 Y37.3413
G1 X22.0871 Y37.3495
G1 X22.0928 Y37.3578
G1 X22.0984 Y37.3660
G1 X22.1041 Y37.3742
G1 X22.1098 Y37.3824
G1 X22.1154 Y37.3906
G1 X22.1212 Y37.3988
G1 X22.1269 Y37.4070
G1 X22.1326 Y37.4152
G1 X22.1383 Y37.4234
G1 X22.1441 Y37.4315
G1 X22.1499 Y37.4397
G1 X22.1557 Y37.4478
G1 X22.1615 Y37.4559
G1 X22.1673 Y37.4641
G1 X22.1731 Y37.4722
G1 X22.1790 Y37.4803
G1 X22.1848 Y37.4884
G1 X22.1907 Y37.4964
G1 X22.1966 Y37.5045
G1 X22.2025 Y37.5126
G1 X22.2084 Y37.5206
G1 X22.2143 Y37.5287
G1 X22.2202 Y37.5367
G1 X22.2262 Y37.5447
G1 X22.2321 Y37.5527
G1 X22.2381 Y37.5607
G1 X22.2441 Y37.5687
G1 X22.2501 Y37.5767
G1 X22.2561 Y37.5847
G1 X22.2622 Y37.5926
G1 X22.2682 Y37.6006
G1 X22.2743 Y37.6085
G1 X22.2803 Y37.6164
G1 X22.2864 Y37.6244
G1 X22.2925 Y37.6323
G1 X22.2986 Y37.6402
G1 X22.3047 Y37.6481
G1 X22.3109 Y37.6559
G1 X22.3170 Y37.6638
G1 X22.3232 Y37.6717
G1 X22.3294 Y37.6795
G1 X22.3356 Y37.6873
G1 X22.3418 Y37.6952
G1 X22.3480 Y37.7030
G1 X22.3542 Y37.7108
G1 X22.3605 Y37.7186
G1 X22.3667 Y37.7264
G1 X22.3730 Y37.7341
G1 X22.3793 Y37.7419
G1 X22.3856 Y37.7497
G1 X22.3919 Y37.7574
G1 X22.3982 Y37.7651
G1 X22.4045 Y37.7728
G1 X22.4109 Y37.7806
G1 X22.4172 Y37.7883
G1 X22.4236 Y37.7959
G1 X22.4300 Y37.8036
G1 X22.4364 Y37.8113
G1 X22.4428 Y37.8189
G1 X22.4492 Y37.8266
G1 X22.4557 Y37.8342
G1 X22.4621 Y37.8418
G1 X22.4686 Y37.8495
G1 X22.4751 Y37.8571
G1 X22.4815 Y37.8647
G1 X22.4880 Y37.8722
G1 X22.4946 Y37.8798
G1 X22.5011 Y37.8874
G1 X22.5076 Y37.8949
G1 X22.5142 Y37.9024
G1 X22.5207 Y37.9100
G1 X22.5273 Y37.9175
G1 X22.5339 Y37.9250
G1 X22.5405 Y37.9325
G1 X22.5471 Y37.9400
G1 X22.5538 Y37.9474
G1 X22.5604 Y37.9549
G1 X22.5671 Y37.9623
G1 X22.5737 Y37.9698
G1 X22.5804 Y37.9772
G1 X22.5871 Y37.9846
G1 X22.5938 Y37.9920
G1 X22.6005 Y37.9994
G1 X22.6072 Y38.0068
G1 X22.6140 Y38.0141
G1 X22.6207 Y38.0215
G1 X22.6275 Y38.0288
G1 X22.6343 Y38.0362
G1 X22.6411 Y38.0435
G1 X22.6479 Y38.0508
G1 X22.6547 Y38.0581
G1 X22.6615 Y38.0654
G1 X22.6684 Y38.0727
G1 X22.6752 Y38.0799
G1 X22.6821 Y38.0872
G1 X22.6889 Y38.0944
G1 X22.6958 Y38.1017
G1 X22.7027 Y38.1089
G1 X22.7096 Y38.1161
G1 X22.7166 Y38.1233
G1 X22.7235 Y38.1305
G1 X22.7305 Y38.1376
G1 X22.7374 Y38.1448
G1 X22.7444 Y38.1520
G1 X22.7514 Y38.1591
G1 X22.7584 Y38.1662
G1 X22.7654 Y38.1733
G1 X22.7724 Y38.1804
G1 X22.7794 Y38.1875
G1 X22.7865 Y38.1946
G1 X22.7935 Y38.2017
G1 X22.8006 Y38.2087
G1 X22.8077 Y38.2158
G1 X22.8148 Y38.2228
G1 X22.8219 Y38.2298
G1 X22.8290 Y38.2368
G1 X22.8361 Y38.2438
G1 X22.8433 Y38.2508
G1 X22.8504 Y38.2578
G1 X22.8576 Y38.2647
G1 X22.8648 Y38.2717
G1 X22.8719 Y38.2786
G1 X22.8791 Y38.2855
G1 X22.8863 Y38.2924
G1 X22.8936 Y38.2993
G1 X22.9008 Y38.3062
G1 X22.9080 Y38.3131
G1 X22.9153 Y38.3200
G1 X22.9226 Y38.3268
G1 X22.9298 Y38.3336
G1 X22.9371 Y38.3405
G1 X22.9444 Y38.3473
G1 X22.9518 Y38.3541
G1 X22.9591 Y38.3609
G1 X22.9664 Y38.3676
G1 X22.9738 Y38.3744
G1 X22.9811 Y38.3812
G1 X22.9885 Y38.3879
G1 X22.9959 Y38.3946
G1 X23.0033 Y38.4013
G1 X23.0107 Y38.4080
G1 X23.0181 Y38.4147
G1 X23.0255 Y38.4214
G1 X23.0330 Y38.4281
G1 X23.0404 Y38.4347
G1 X23.0479 Y38.4414
G1 X23.0553 Y38.4480
G1 X23.0628 Y38.4546
G1 X23.0703 Y38.4612
G1 X23.0778 Y38.4678
G1 X23.0853 Y38.4744
G1 X23.0929 Y38.4809
G1 X23.1004 Y38.4875
G1 X23.1079 Y38.4940
G1 X23.1155 Y38.5005
G1 X23.1231 Y38.5070
G1 X23.1307 Y38.5135
G1 X23.1383 Y38.5200
G1 X23.1459 Y38.5265
G1 X23.1535 Y38.5330
G1 X23.1611 Y38.5394
G1 X23.1687 Y38.5458
G1 X23.1764 Y38.5523
G1 X23.1840 Y38.5587
G1 X23.1917 Y38.5651
G1 X23.1994 Y38.5715
G1 X23.2071 Y38.5778
G1 X23.2148 Y38.5842
G1 X23.2225 Y38.5905
G1 X23.2302 Y38.5969
G1 X23.2379 Y38.6032
G1 X23.2457 Y38.6095
G1 X23.2534 Y38.6158
G1 X23.2612 Y38.6221
G1 X23.2690 Y38.6283
G1 X23.2768 Y38.6346
G1 X23.2846 Y38.6408
G1 X23.2924 Y38.6471
G1 X23.3002 Y38.6533
G1 X23.3080 Y38.6595
G1 X23.3159 Y38.6657
G1 X23.3237 Y38.6718
G1 X23.3316 Y38.6780
G1 X23.3394 Y38.6841
G1 X23.3473 Y38.6903
G1 X23.3552 Y38.6964
G1 X23.3631 Y38.7025
G1 X23.3710 Y38.7086
G1 X23.3789 Y38.7147
G1 X23.3869 Y38.7207
G1 X23.3948 Y38.7268
G1 X23.4028 Y38.7328
G1 X23.4108 Y38.7388
G1 X23.4187 Y38.7449
G1 X23.4267 Y38.7509
G1 X23.4347 Y38.7569
G1 X23.4427 Y38.7629
G1 X23.4507 Y38.7689
G1 X23.4587 Y38.7749
G1 X23.4667 Y38.7809
G1 X23.4748 Y38.7868
G1 X23.4828 Y38.7928
G1 X23.4908 Y38.7987
G1 X23.4989 Y38.8047
G1 X23.5069 Y38.8106
G1 X23.5150 Y38.8165
G1 X23.5230 Y38.8225
G1 X23.5311 Y38.8284
G1 X23.5392 Y38.8343
G1 X23.5473 Y38.8402
G1 X23.5553 Y38.8460
G1 X23.5634 Y38.8519
G1 X23.5715 Y38.8578
G1 X23.5796 Y38.8636
G1 X23.5878 Y38.8695
G1 X23.5959 Y38.8753
G1 X23.6040 Y38.8811
G1 X23.6121 Y38.8870
G1 X23.6203 Y38.8928
G1 X23.6284 Y38.8986
G1 X23.6366 Y38.9044
G1 X23.6447 Y38.9102
G1 X23.6529 Y38.9159
G1 X23.6611 Y38.9217
G1 X23.6692 Y38.9275
G1 X23.6774 Y38.9332
G1 X23.6856 Y38.9389
G1 X23.6938 Y38.9447
G1 X23.7020 Y38.9504
G1 X23.7102 Y38.9561
G1 X23.7184 Y38.9618
G1 X23.7266 Y38.9675
G1 X23.7349 Y38.9732
G1 X23.7431 Y38.9789
G1 X23.7513 Y38.9845
G1 X23.7596 Y38.9902
G1 X23.7678 Y38.9958
G1 X23.7761 Y39.0015
G1 X23.7843 Y39.0071
G1 X23.7926 Y39.0127
G1 X23.8009 Y39.0184
G1 X23.8092 Y39.0240
G1 X23.8174 Y39.0296
G1 X23.8257 Y39.0351
G1 X23.8340 Y39.0407
G1 X23.8423 Y39.0463
G1 X23.8507 Y39.0519
G1 X23.8590 Y39.0574
G1 X23.8673 Y39.0629
G1 X23.8756 Y39.0685
G1 X23.8840 Y39.0740
G1 X23.8923 Y39.0795
G1 X23.9006 Y39.0850
G1 X23.9090 Y39.0905
G1 X23.9174 Y39.0960
G1 X23.9257 Y39.1015
G1 X23.9341 Y39.1070
G1 X23.9425 Y39.1124
G1 X23.9509 Y39.1179
G1 X23.9592 Y39.1233
G1 X23.9676 Y39.1288
G1 X23.9760 Y39.1342
G1 X23.9844 Y39.1396
G1 X23.9929 Y39.1450
G1 X24.0013 Y39.1504
G1 X24.0097 Y39.1558
G1 X24.0181 Y39.1612
G1 X24.0266 Y39.1665
G1 X24.0350 Y39.1719
G1 X24.0435 Y39.1772
G1 X24.0519 Y39.1826
G1 X24.0604 Y39.1879
G1 X24.0688 Y39.1932
G1 X24.0773 Y39.1986
G1 X24.0858 Y39.2039
G1 X24.0943 Y39.2092
G1 X24.1027 Y39.2144
G1 X24.1112 Y39.2197
G1 X24.1197 Y39.2250
G1 X24.1282 Y39.2302
G1 X24.1368 Y39.2355
G1 X24.1453 Y39.2407
G1 X24.1538 Y39.2460
G1 X24.1623 Y39.2512
G1 X24.1709 Y39.2564
G1 X24.1794 Y39.2616
G1 X24.1879 Y39.2668
G1 X24.1965 Y39.2720
G1 X24.2050 Y39.2772
G1 X24.2136 Y39.2823
G1 X24.2222 Y39.2875
G1 X24.2307 Y39.2926
G1 X24.2393 Y39.2978
G1 X24.2479 Y39.3029
G1 X24.2565 Y39.3080
G1 X24.2651 Y39.3131
G1 X24.2737 Y39.3182
G1 X24.2823 Y39.3233
G1 X24.2909 Y39.3284
G1 X24.2995 Y39.3335
G1 X24.3081 Y39.3385
G1 X24.3168 Y39.3436
G1 X24.3254 Y39.3486
G1 X24.3340 Y39.3537
G1 X24.3427 Y39.3587
G1 X24.3513 Y39.3637
G1 X24.3600 Y39.3687
G1 X24.3687 Y39.3737
G1 X24.3773 Y39.3787
G1 X24.3860 Y39.3837
G1 X24.3947 Y39.3886
G1 X24.4034 Y39.3936
G1 X24.4120 Y39.3986
G1 X24.4207 Y39.4035
G1 X24.4294 Y39.4084
G1 X24.4381 Y39.4134
G1 X24.4468 Y39.4183
G1 X24.4556 Y39.4232
G1 X24.4643 Y39.4281
G1 X24.4730 Y39.4329
G1 X24.4817 Y39.4378
G1 X24.4905 Y39.4427
G1 X24.4992 Y39.4475
G1 X24.5080 Y39.4524
G1 X24.5167 Y39.4572
G1 X24.5255 Y39.4621
G1 X24.5342 Y39.4669
G1 X24.5430 Y39.4717
G1 X24.5518 Y39.4765
G1 X24.5606 Y39.4813
G1 X24.5693 Y39.4860
G1 X24.5781 Y39.4908
G1 X24.5869 Y39.4956
G1 X24.5957 Y39.5003
G1 X24.6045 Y39.5051
G1 X24.6133 Y39.5098
G1 X24.6221 Y39.5145
G1 X24.6310 Y39.5192
G1 X24.6398 Y39.5239
G1 X24.6486 Y39.5286
G1 X24.6575 Y39.5333
G1 X24.6663 Y39.5380
G1 X24.6751 Y39.5427
G1 X24.6840 Y39.5473
G1 X24.6928 Y39.5520
G1 X24.7017 Y39.5566
G1 X24.7106 Y39.5612
G1 X24.7194 Y39.5658
G1 X24.7283 Y39.5704
G1 X24.7372 Y39.5750
G1 X24.7461 Y39.5796
G1 X24.7550 Y39.5842
G1 X24.7639 Y39.5888
G1 X24.7728 Y39.5933
G1 X24.7817 Y39.5979
G1 X24.7906 Y39.6024
G1 X24.7995 Y39.6069
G1 X24.8084 Y39.6115
G1 X24.8173 Y39.6160
G1 X24.8263 Y39.6205
G1 X24.8352 Y39.6250
G1 X24.8441 Y39.6294
G1 X24.8531 Y39.6339
G1 X24.8620 Y39.6384
G1 X24.8710 Y39.6428
G1 X24.8799 Y39.6473
G1 X24.8889 Y39.6517
G1 X24.8979 Y39.6561
G1 X24.9068 Y39.6605
G1 X24.9158 Y39.6649
G1 X24.9248 Y39.6693
G1 X24.9338 Y39.6737
G1 X24.9428 Y39.6781
G1 X24.9518 Y39.6825
G1 X24.9608 Y39.6868
G1 X24.9698 Y39.6912
G1 X24.9788 Y39.6955
G1 X24.9878 Y39.6998
G1 X24.9968 Y39.7041
G1 X25.0059 Y39.7084
G1 X25.0149 Y39.7127
G1 X25.0239 Y39.7170
G1 X25.0330 Y39.7213
G1 X25.0420 Y39.7256
G1 X25.0511 Y39.7298
G1 X25.0601 Y39.7341
G1 X25.0692 Y39.7383
G1 X25.0782 Y39.7425
G1 X25.0873 Y39.7467
G1 X25.0964 Y39.7509
G1 X25.1054 Y39.7551
G1 X25.1145 Y39.7593
G1 X25.1236 Y39.7635
G1 X25.1327 Y39.7677
G1 X25.1418 Y39.7718
G1 X25.1509 Y39.7760
G1 X25.1600 Y39.7801
G1 X25.1691 Y39.7842
G1 X25.1782 Y39.7884
G1 X25.1873 Y39.7925
G1 X25.1965 Y39.7966
G1 X25.2056 Y39.8007
G1 X25.2147 Y39.8047
G1 X25.2238 Y39.8088
G1 X25.2330 Y39.8129
G1 X25.2421 Y39.8169
G1 X25.2513 Y39.8210
G1 X25.2604 Y39.8250
G1 X25.2696 Y39.8290
G1 X25.2787 Y39.8330
G1 X25.2879 Y39.8370
G1 X25.2971 Y39.8410
G1 X25.3062 Y39.8450
G1 X25.3154 Y39.8489
G1 X25.3246 Y39.8529
G1 X25.3338 Y39.8568
G1 X25.3430 Y39.8608
G1 X25.3522 Y39.8647
G1 X25.3614 Y39.8686
G1 X25.3706 Y39.8725
G1 X25.3798 Y39.8764
G1 X25.3890 Y39.8803
G1 X25.3982 Y39.8842
G1 X25.4074 Y39.8881
G1 X25.4167 Y39.8919
G1 X25.4259 Y39.8958
G1 X25.4351 Y39.8996
G1 X25.4444 Y39.9035
G1 X25.4536 Y39.9073
G1 X25.4629 Y39.9111
G1 X25.4721 Y39.9149
G1 X25.4814 Y39.9187
G1 X25.4906 Y39.9224
G1 X25.4999 Y39.9262
G1 X25.5091 Y39.9300
G1 X25.5184 Y39.9337
G1 X25.5277 Y39.9375
G1 X25.5370 Y39.9412
G1 X25.5462 Y39.9449
G1 X25.5555 Y39.9486
G1 X25.5648 Y39.9523
G1 X25.5741 Y39.9560
G1 X25.5834 Y39.9597
G1 X25.5927 Y39.9633
G1 X25.6020 Y39.9670
G1 X25.6113 Y39.9706
G1 X25.6207 Y39.9743
G1 X25.6300 Y39.9779
G1 X25.6393 Y39.9815
G1 X25.6486 Y39.9851
G1 X25.6580 Y39.9887
G1 X25.6673 Y39.9923
G1 X25.6766 Y39.9959
G1 X25.6860 Y39.9995
G1 X25.6953 Y40.0030
G1 X25.7047 Y40.0066
G1 X25.7140 Y40.0101
G1 X25.7234 Y40.0136
G1 X25.7327 Y40.0171
G1 X25.7421 Y40.0206
G1 X25.7515 Y40.0241
G1 X25.7608 Y40.0276
G1 X25.7702 Y40.0311
G1 X25.7796 Y40.0346
G1 X25.7890 Y40.0380
G1 X25.7984 Y40.0415
G1 X25.8078 Y40.0449
G1 X25.8172 Y40.0483
G1 X25.8266 Y40.0517
G1 X25.8360 Y40.0551
G1 X25.8454 Y40.0585
G1 X25.8548 Y40.0619
G1 X25.8642 Y40.0653
G1 X25.8736 Y40.0686
G1 X25.8830 Y40.0720
G1 X25.8924 Y40.0753
G1 X25.9019 Y40.0787
G1 X25.9113 Y40.0820
G1 X25.9207 Y40.0853
G1 X25.9302 Y40.0886
G1 X25.9396 Y40.0919
G1 X25.9491 Y40.0952
G1 X25.9585 Y40.0984
G1 X25.9680 Y40.1017
G1 X25.9774 Y40.1050
G1 X25.9869 Y40.1082
G1 X25.9964 Y40.1114
G1 X26.0058 Y40.1146
G1 X26.0153 Y40.1179
G1 X26.0248 Y40.1210
G1 X26.0342 Y40.1242
G1 X26.0437 Y40.1274
G1 X26.0532 Y40.1306
G1 X26.0627 Y40.1337
G1 X26.0722 Y40.1369
G1 X26.0817 Y40.1400
G1 X26.0912 Y40.1431
G1 X26.1007 Y40.1463
G1 X26.1102 Y40.1494
G1 X26.1197 Y40.1525
G1 X26.1292 Y40.1555
G1 X26.1387 Y40.1586
G1 X26.1482 Y40.1617
G1 X26.1578 Y40.1647
G1 X26.1673 Y40.1678
G1 X26.1768 Y40.1708
G1 X26.1863 Y40.1738
G1 X26.1959 Y40.1768
G1 X26.2054 Y40.1798
G1 X26.2150 Y40.1828
G1 X26.2245 Y40.1858
G1 X26.2341 Y40.1888
G1 X26.2436 Y40.1918
G1 X26.2532 Y40.1947
G1 X26.2627 Y40.1976
G1 X26.2723 Y40.2006
G1 X26.2818 Y40.2035
G1 X26.2914 Y40.2064
G1 X26.3010 Y40.2093
G1 X26.3106 Y40.2122
G1 X26.3201 Y40.2151
G1 X26.3297 Y40.2179
G1 X26.3393 Y40.2208
G1 X26.3489 Y40.2236
G1 X26.3585 Y40.2265
G1 X26.3681 Y40.2293
G1 X26.3777 Y40.2321
G1 X26.3873 Y40.2349
G1 X26.3969 Y40.2377
G1 X26.4065 Y40.2405
G1 X26.4161 Y40.2433
G1 X26.4257 Y40.2460
G1 X26.4353 Y40.2488
G1 X26.4449 Y40.2515
G1 X26.4545 Y40.2542
G1 X26.4641 Y40.2570
G1 X26.4738 Y40.2597
G1 X26.4834 Y40.2624
G1 X26.4930 Y40.2651
G1 X26.5027 Y40.2677
G1 X26.5123 Y40.2704
G1 X26.5219 Y40.2731
G1 X26.5316 Y40.2757
G1 X26.5412 Y40.2783
G1 X26.5509 Y40.2810
G1 X26.5605 Y40.2836
G1 X26.5702 Y40.2862
G1 X26.5798 Y40.2888
G1 X26.5895 Y40.2914
G1 X26.5992 Y40.2939
G1 X26.6088 Y40.2965
G1 X26.6185 Y40.2991
G1 X26.6282 Y40.3016
G1 X26.6378 Y40.3041
G1 X26.6475 Y40.3067
G1 X26.6572 Y40.3092
G1 X26.6669 Y40.3117
G1 X26.6766 Y40.3142
G1 X26.6862 Y40.3166
G1 X26.6959 Y40.3191
G1 X26.7056 Y40.3216
G1 X26.7153 Y40.3240
G1 X26.7250 Y40.3265
G1 X26.7347 Y40.3289
G1 X26.7444 Y40.3313
G1 X26.7541 Y40.3337
G1 X26.7638 Y40.3361
G1 X26.7736 Y40.3385
G1 X26.7833 Y40.3409
G1 X26.7930 Y40.3432
G1 X26.8027 Y40.3456
G1 X26.8124 Y40.3479
G1 X26.8221 Y40.3502
G1 X26.8319 Y40.3526
G1 X26.8416 Y40.3549
G1 X26.8513 Y40.3572
G1 X26.8611 Y40.3595
G1 X26.8708 Y40.3617
G1 X26.8805 Y40.3640
G1 X26.8903 Y40.3663
G1 X26.9000 Y40.3685
G1 X26.9098 Y40.3707
G1 X26.9195 Y40.3730
G1 X26.9293 Y40.3752
G1 X26.9390 Y40.3774
G1 X26.9488 Y40.3796
G1 X26.9585 Y40.3818
G1 X26.9683 Y40.3839
G1 X26.9781 Y40.3861
G1 X26.9878 Y40.3883
G1 X26.9976 Y40.3904
G1 X27.0074 Y40.3925
G1 X27.0171 Y40.3946
G1 X27.0269 Y40.3968
G1 X27.0367 Y40.3989
G1 X27.0465 Y40.4009
G1 X27.0562 Y40.4030
G1 X27.0660 Y40.4051
G1 X27.0758 Y40.4071
G1 X27.0856 Y40.4092
G1 X27.0954 Y40.4112
G1 X27.1052 Y40.4132
G1 X27.1150 Y40.4153
G1 X27.1248 Y40.4173
G1 X27.1346 Y40.4192
G1 X27.1444 Y40.4212
G1 X27.1542 Y40.4232
G1 X27.1640 Y40.4252
G1 X27.1738 Y40.4271
G1 X27.1836 Y40.4290
G1 X27.1934 Y40.4310
G1 X27.2032 Y40.4329
G1 X27.2130 Y40.4348
G1 X27.2229 Y40.4367
G1 X27.2327 Y40.4386
G1 X27.2425 Y40.4405
G1 X27.2523 Y40.4423
G1 X27.2622 Y40.4442
G1 X27.2720 Y40.4460
G1 X27.2818 Y40.4478
G1 X27.2916 Y40.4497
G1 X27.3015 Y40.4515
G1 X27.3113 Y40.4533
G1 X27.3212 Y40.4551
G1 X27.3310 Y40.4568
G1 X27.3408 Y40.4586
G1 X27.3507 Y40.4604
G1 X27.3605 Y40.4621
G1 X27.3704 Y40.4639
G1 X27.3802 Y40.4656
G1 X27.3901 Y40.4673
G1 X27.3999 Y40.4690
G1 X27.4098 Y40.4707
G1 X27.4196 Y40.4724
G1 X27.4295 Y40.4740
G1 X27.4394 Y40.4757
G1 X27.4492 Y40.4774
G1 X27.4591 Y40.4790
G1 X27.4690 Y40.4806
G1 X27.4788 Y40.4822
G1 X27.4887 Y40.4838
G1 X27.4986 Y40.4854
G1 X27.5084 Y40.4870
G1 X27.5183 Y40.4886
G1 X27.5282 Y40.4902
G1 X27.5381 Y40.4917
G1 X27.5479 Y40.4933
G1 X27.5578 Y40.4948
G1 X27.5677 Y40.4963
G1 X27.5776 Y40.4978
G1 X27.5875 Y40.4993
G1 X27.5974 Y40.5008
G1 X27.6073 Y40.5023
G1 X27.6171 Y40.5038
G1 X27.6270 Y40.5052
G1 X27.6369 Y40.5067
G1 X27.6468 Y40.5081
G1 X27.6567 Y40.5095
G1 X27.6666 Y40.5109
G1 X27.6765 Y40.5123
G1 X27.6864 Y40.5137
G1 X27.6963 Y40.5151
G1 X27.7062 Y40.5165
G1 X27.7161 Y40.5178
G1 X27.7260 Y40.5192
G1 X27.7360 Y40.5205
G1 X27.7459 Y40.5219
G1 X27.7558 Y40.5232
G1 X27.7657 Y40.5245
G1 X27.7756 Y40.5258
G1 X27.7855 Y40.5271
G1 X27.7954 Y40.5283
G1 X27.8054 Y40.5296
G1 X27.8153 Y40.5308
G1 X27.8252 Y40.5321
G1 X27.8351 Y40.5333
G1 X27.8451 Y40.5345
G1 X27.8550 Y40.5357
G1 X27.8649 Y40.5369
G1 X27.8748 Y40.5381
G1 X27.8848 Y40.5393
G1 X27.8947 Y40.5405
G1 X27.9046 Y40.5416
G1 X27.9146 Y40.5428
G1 X27.9245 Y40.5439
G1 X27.9344 Y40.5450
G1 X27.9444 Y40.5461
G1 X27.9543 Y40.5472
G1 X27.9643 Y40.5483
G1 X27.9742 Y40.5494
G1 X27.9841 Y40.5505
G1 X27.9941 Y40.5515
G1 X28.0040 Y40.5526
G1 X28.0140 Y40.5536
G1 X28.0239 Y40.5546
G1 X28.0339 Y40.5557
G1 X28.0438 Y40.5567
G1 X28.0538 Y40.5577
G1 X28.0637 Y40.5586
G1 X28.0737 Y40.5596
G1 X28.0836 Y40.5606
G1 X28.0936 Y40.5615
G1 X28.1035 Y40.5625
G1 X28.1135 Y40.5634
G1 X28.1234 Y40.5643
G1 X28.1334 Y40.5652
G1 X28.1434 Y40.5661
G1 X28.1533 Y40.5670
G1 X28.1633 Y40.5679
G1 X28.1732 Y40.5687
G1 X28.1832 Y40.5696
G1 X28.1932 Y40.5704
G1 X28.2031 Y40.5713
G1 X28.2131 Y40.5721
G1 X28.2231 Y40.5729
G1 X28.2330 Y40.5737
G1 X28.2430 Y40.5745
G1 X28.2530 Y40.5752
G1 X28.2629 Y40.5760
G1 X28.2729 Y40.5768
G1 X28.2829 Y40.5775
G1 X28.2929 Y40.5782
G1 X28.3028 Y40.5790
G1 X28.3128 Y40.5797
G1 X28.3228 Y40.5804
G1 X28.3328 Y40.5811
G1 X28.3427 Y40.5817
G1 X28.3527 Y40.5824
G1 X28.3627 Y40.5831
G1 X28.3727 Y40.5837
G1 X28.3826 Y40.5843
G1 X28.3926 Y40.5850
G1 X28.4026 Y40.5856
G1 X28.4126 Y40.5862
G1 X28.4226 Y40.5868
G1 X28.4325 Y40.5874
G1 X28.4425 Y40.5879
G1 X28.4525 Y40.5885
G1 X28.4625 Y40.5890
G1 X28.4725 Y40.5896
G1 X28.4825 Y40.5901
G1 X28.4925 Y40.5906
G1 X28.5024 Y40.5911
G1 X28.5124 Y40.5916
G1 X28.5224 Y40.5921
G1 X28.5324 Y40.5926
G1 X28.5424 Y40.5930
G1 X28.5524 Y40.5935
G1 X28.5624 Y40.5939
G1 X28.5724 Y40.5944
G1 X28.5824 Y40.5948
G1 X28.5923 Y40.5952
G1 X28.6023 Y40.5956
G1 X28.6123 Y40.5960
G1 X28.6223 Y40.5963
G1 X28.6323 Y40.5967
G1 X28.6423 Y40.5971
G1 X28.6523 Y40.5974
G1 X28.6623 Y40.5977
G1 X28.6723 Y40.5981
G1 X28.6823 Y40.5984
G1 X28.6923 Y40.5987
G1 X28.7023 Y40.5990
G1 X28.7123 Y40.5992
G1 X28.7223 Y40.5995
G1 X28.7323 Y40.5998
G1 X28.7423 Y40.6000
G1 X28.7523 Y40.6002
G1 X28.7622 Y40.6005
G1 X28.7722 Y40.6007
G1 X28.7822 Y40.6009
G1 X28.7922 Y40.6011
G1 X28.8022 Y40.6012
G1 X28.8122 Y40.6014
G1 X28.8222 Y40.6016
G1 X28.8322 Y40.6017
G1 X28.8422 Y40.6018
G1 X28.8522 Y40.6020
G1 X28.8622 Y40.6021
G1 X28.8722 Y40.6022
G1 X28.8822 Y40.6023
G1 X28.8922 Y40.6024
G1 X28.9022 Y40.6024
G1 X28.9122 Y40.6025
G1 X28.9222 Y40.6025
G1 X28.9322 Y40.6026
G1 X28.9422 Y40.6026
G1 X28.9522 Y40.6026
G1 X28.9622 Y40.6026
G1 X28.9722 Y40.6026
G1 X28.9822 Y40.6026
G1 X28.9922 Y40.6026
G1 X29.0022 Y40.6025
G1 X29.0121 Y40.6025
G1 X29.0221 Y40.6024
G1 X29.0321 Y40.6024
G1 X29.0421 Y40.6023
G1 X29.0521 Y40.6022
G1 X29.0621 Y40.6021
G1 X29.0721 Y40.6020
G1 X29.0821 Y40.6019
G1 X29.0920 Y40.6018
G1 X29.1020 Y40.6017
G1 X29.1120 Y40.6015
G1 X29.1220 Y40.6014
G1 X29.1320 Y40.6012
G1 X29.1420 Y40.6010
G1 X29.1520 Y40.6009
G1 X29.1620 Y40.6007
G1 X29.1719 Y40.6005
G1 X29.1819 Y40.6003
G1 X29.1919 Y40.6001
G1 X29.2019 Y40.5998
G1 X29.2119 Y40.5996
G1 X29.2219 Y40.5993
G1 X29.2318 Y40.5991
G1 X29.2418 Y40.5988
G1 X29.2518 Y40.5986
G1 X29.2618 Y40.5983
G1 X29.2718 Y40.5980
G1 X29.2818 Y40.5977
G1 X29.2918 Y40.5974
G1 X29.3017 Y40.5970
G1 X29.3117 Y40.5967
G1 X29.3217 Y40.5964
G1 X29.3317 Y40.5960
G1 X29.3417 Y40.5956
G1 X29.3516 Y40.5953
G1 X29.3616 Y40.5949
G1 X29.3716 Y40.5945
G1 X29.3816 Y40.5941
G1 X29.3916 Y40.5937
G1 X29.4015 Y40.5933
G1 X29.4115 Y40.5929
G1 X29.4215 Y40.5924
G1 X29.4315 Y40.5920
G1 X29.4415 Y40.5915
G1 X29.4514 Y40.5910
G1 X29.4614 Y40.5906
G1 X29.4714 Y40.5901
G1 X29.4814 Y40.5896
G1 X29.4913 Y40.5891
G1 X29.5013 Y40.5886
G1 X29.5113 Y40.5880
G1 X29.5213 Y40.5875
G1 X29.5312 Y40.5870
G1 X29.5412 Y40.5864
G1 X29.5512 Y40.5858
G1 X29.5612 Y40.5853
G1 X29.5711 Y40.5847
G1 X29.5811 Y40.5841
G1 X29.5911 Y40.5835
G1 X29.6010 Y40.5829
G1 X29.6110 Y40.5823
G1 X29.6210 Y40.5816
G1 X29.6309 Y40.5810
G1 X29.6409 Y40.5803
G1 X29.6509 Y40.5797
G1 X29.6608 Y40.5790
G1 X29.6708 Y40.5783
G1 X29.6808 Y40.5777
G1 X29.6907 Y40.5770
G1 X29.7007 Y40.5762
G1 X29.7107 Y40.5755
G1 X29.7206 Y40.5748
G1 X29.7306 Y40.5741
G1 X29.7405 Y40.5733
G1 X29.7505 Y40.5726
G1 X29.7605 Y40.5718
G1 X29.7704 Y40.5710
G1 X29.7804 Y40.5702
G1 X29.7903 Y40.5695
G1 X29.8003 Y40.5687
G1 X29.8102 Y40.5678
G1 X29.8202 Y40.5670
G1 X29.8302 Y40.5662
G1 X29.8401 Y40.5653
G1 X29.8501 Y40.5645
G1 X29.8600 Y40.5636
G1 X29.8700 Y40.5628
G1 X29.8799 Y40.5619
G1 X29.8899 Y40.5610
G1 X29.8998 Y40.5601
G1 X29.9097 Y40.5592
G1 X29.9197 Y40.5583
G1 X29.9296 Y40.5573
G1 X29.9396 Y40.5564
G1 X29.9495 Y40.5555
G1 X29.9595 Y40.5545
G1 X29.9694 Y40.5535
G1 X29.9794 Y40.5526
G1 X29.9893 Y40.5516
G1 X29.9992 Y40.5506
G1 X30.0092 Y40.5496
G1 X30.0191 Y40.5486
G1 X30.0290 Y40.5475
G1 X30.0390 Y40.5465
G1 X30.0489 Y40.5455
G1 X30.0588 Y40.5444
G1 X30.0688 Y40.5433
G1 X30.0787 Y40.5423
G1 X30.0886 Y40.5412
G1 X30.0986 Y40.5401
G1 X30.1085 Y40.5390
G1 X30.1184 Y40.5379
G1 X30.1283 Y40.5368
G1 X30.1383 Y40.5356
G1 X30.1482 Y40.5345
G1 X30.1581 Y40.5334
G1 X30.1680 Y40.5322
G1 X30.1779 Y40.5310
G1 X30.1879 Y40.5299
G1 X30.1978 Y40.5287
G1 X30.2077 Y40.5275
G1 X30.2176 Y40.5263
G1 X30.2275 Y40.5251
G1 X30.2374 Y40.5238
G1 X30.2474 Y40.5226
G1 X30.2573 Y40.5214
G1 X30.2672 Y40.5201
G1 X30.2771 Y40.5188
G1 X30.2870 Y40.5176
G1 X30.2969 Y40.5163
G1 X30.3068 Y40.5150
G1 X30.3167 Y40.5137
G1 X30.3266 Y40.5124
G1 X30.3365 Y40.5111
G1 X30.3464 Y40.5097
G1 X30.3563 Y40.5084
G1 X30.3662 Y40.5070
G1 X30.3761 Y40.5057
G1 X30.3860 Y40.5043
G1 X30.3959 Y40.5029
G1 X30.4058 Y40.5016
G1 X30.4157 Y40.5002
G1 X30.4256 Y40.4987
G1 X30.4354 Y40.4973
G1 X30.4453 Y40.4959
G1 X30.4552 Y40.4945
G1 X30.4651 Y40.4930
G1 X30.4750 Y40.4916
G1 X30.4849 Y40.4901
G1 X30.4947 Y40.4886
G1 X30.5046 Y40.4872
G1 X30.5145 Y40.4857
G1 X30.5244 Y40.4842
G1 X30.5342 Y40.4827
G1 X30.5441 Y40.4811
G1 X30.5540 Y40.4796
G1 X30.5638 Y40.4781
G1 X30.5737 Y40.4765
G1 X30.5836 Y40.4750
G1 X30.5934 Y40.4734
G1 X30.6033 Y40.4718
G1 X30.6132 Y40.4702
G1 X30.6230 Y40.4686
G1 X30.6329 Y40.4670
G1 X30.6427 Y40.4654
G1 X30.6526 Y40.4638
G1 X30.6625 Y40.4622
G1 X30.6723 Y40.4605
G1 X30.6822 Y40.4589
G1 X30.6920 Y40.4572
G1 X30.7019 Y40.4555
G1 X30.7117 Y40.4538
G1 X30.7215 Y40.4521
G1 X30.7314 Y40.4504
G1 X30.7412 Y40.4487
G1 X30.7511 Y40.4470
G1 X30.7609 Y40.4453
G1 X30.7707 Y40.4436
G1 X30.7806 Y40.4418
G1 X30.7904 Y40.4400
G1 X30.8002 Y40.4383
G1 X30.8101 Y40.4365
G1 X30.8199 Y40.4347
G1 X30.8297 Y40.4329
G1 X30.8395 Y40.4311
G1 X30.8494 Y40.4293
G1 X30.8592 Y40.4275
G1 X30.8690 Y40.4256
G1 X30.8788 Y40.4238
G1 X30.8886 Y40.4219
G1 X30.8984 Y40.4201
G1 X30.9083 Y40.4182
G1 X30.9181 Y40.4163
G1 X30.9279 Y40.4144
G1 X30.9377 Y40.4125
G1 X30.9475 Y40.4106
G1 X30.9573 Y40.4087
G1 X30.9671 Y40.4068
G1 X30.9769 Y40.4049
G1 X30.9867 Y40.4029
G1 X30.9965 Y40.4010
G1 X31.0063 Y40.3990
G1 X31.0161 Y40.3970
G1 X31.0258 Y40.3950
G1 X31.0356 Y40.3930
G1 X31.0454 Y40.3910
G1 X31.0552 Y40.3890
G1 X31.0650 Y40.3870
G1 X31.0748 Y40.3850
G1 X31.0845 Y40.3829
G1 X31.0943 Y40.3809
G1 X31.1041 Y40.3788
G1 X31.1139 Y40.3767
G1 X31.1236 Y40.3747
G1 X31.1334 Y40.3726
G1 X31.1432 Y40.3705
G1 X31.1529 Y40.3684
G1 X31.1627 Y40.3663
G1 X31.1724 Y40.3641
G1 X31.1822 Y40.3620
G1 X31.1920 Y40.3598
G1 X31.2017 Y40.3577
G1 X31.2115 Y40.3555
G1 X31.2212 Y40.3534
G1 X31.2310 Y40.3512
G1 X31.2407 Y40.3490
G1 X31.2504 Y40.3468
G1 X31.2602 Y40.3446
G1 X31.2699 Y40.3424
G1 X31.2797 Y40.3401
G1 X31.2894 Y40.3379
G1 X31.2991 Y40.3356
G1 X31.3089 Y40.3334
G1 X31.3186 Y40.3311
G1 X31.3283 Y40.3288
G1 X31.3380 Y40.3265
G1 X31.3478 Y40.3243
G1 X31.3575 Y40.3220
G1 X31.3672 Y40.3196
G1 X31.3769 Y40.3173
G1 X31.3866 Y40.3150
G1 X31.3963 Y40.3126
G1 X31.4060 Y40.3103
G1 X31.4157 Y40.3079
G1 X31.4254 Y40.3056
G1 X31.4351 Y40.3032
G1 X31.4448 Y40.3008
G1 X31.4545 Y40.2984
G1 X31.4642 Y40.2960
G1 X31.4739 Y40.2936
G1 X31.4836 Y40.2911
G1 X31.4933 Y40.2887
G1 X31.5030 Y40.2863
G1 X31.5127 Y40.2838
G1 X31.5223 Y40.2813
G1 X31.5320 Y40.2789
G1 X31.5417 Y40.2764
G1 X31.5514 Y40.2739
G1 X31.5610 Y40.2714
G1 X31.5707 Y40.2689
G1 X31.5804 Y40.2664
G1 X31.5900 Y40.2638
G1 X31.5997 Y40.2613
G1 X31.6094 Y40.2588
G1 X31.6190 Y40.2562
G1 X31.6287 Y40.2536
G1 X31.6383 Y40.2511
G1 X31.6480 Y40.2485
G1 X31.6576 Y40.2459
G1 X31.6672 Y40.2433
G1 X31.6769 Y40.2407
G1 X31.6865 Y40.2380
G1 X31.6962 Y40.2354
G1 X31.7058 Y40.2328
G1 X31.7154 Y40.2301
G1 X31.7251 Y40.2275
G1 X31.7347 Y40.2248
G1 X31.7443 Y40.2221
G1 X31.7539 Y40.2194
G1 X31.7635 Y40.2167
G1 X31.7732 Y40.2140
G1 X31.7828 Y40.2113
G1 X31.7924 Y40.2086
G1 X31.8020 Y40.2059
G1 X31.8116 Y40.2031
G1 X31.8212 Y40.2004
G1 X31.8308 Y40.1976
G1 X31.8404 Y40.1948
G1 X31.8500 Y40.1921
G1 X31.8596 Y40.1893
G1 X31.8692 Y40.1865
G1 X31.8787 Y40.1837
G1 X31.8883 Y40.1809
G1 X31.8979 Y40.1780
G1 X31.9075 Y40.1752
G1 X31.9171 Y40.1724
G1 X31.9266 Y40.1695
G1 X31.9362 Y40.1666
G1 X31.9458 Y40.1638
G1 X31.9553 Y40.1609
G1 X31.9649 Y40.1580
G1 X31.9745 Y40.1551
G1 X31.9840 Y40.1522
G1 X31.9936 Y40.1493
G1 X32.0031 Y40.1463
G1 X32.0127 Y40.1434
G1 X32.0222 Y40.1405
G1 X32.0317 Y40.1375
G1 X32.0413 Y40.1345
G1 X32.0508 Y40.1316
G1 X32.0603 Y40.1286
G1 X32.0699 Y40.1256
G1 X32.0794 Y40.1226
G1 X32.0889 Y40.1196
G1 X32.0984 Y40.1166
G1 X32.1080 Y40.1135
G1 X32.1175 Y40.1105
G1 X32.1270 Y40.1075
G1 X32.1365 Y40.1044
G1 X32.1460 Y40.1013
G1 X32.1555 Y40.0983
G1 X32.1650 Y40.0952
G1 X32.1745 Y40.0921
G1 X32.1840 Y40.0890
G1 X32.1935 Y40.0859
G1 X32.2030 Y40.0828
G1 X32.2125 Y40.0796
G1 X32.2220 Y40.0765
G1 X32.2314 Y40.0734
G1 X32.2409 Y40.0702
G1 X32.2504 Y40.0670
G1 X32.2599 Y40.0639
G1 X32.2693 Y40.0607
G1 X32.2788 Y40.0575
G1 X32.2882 Y40.0543
G1 X32.2977 Y40.0511
G1 X32.3072 Y40.0478
G1 X32.3166 Y40.0446
G1 X32.3261 Y40.0414
G1 X32.3355 Y40.0381
G1 X32.3450 Y40.0349
G1 X32.3544 Y40.0316
G1 X32.3638 Y40.0283
G1 X32.3733 Y40.0251
G1 X32.3827 Y40.0218
G1 X32.3921 Y40.0185
G1 X32.4015 Y40.0152
G1 X32.4110 Y40.0118
G1 X32.4204 Y40.0085
G1 X32.4298 Y40.0052
G1 X32.4392 Y40.0018
G1 X32.4486 Y39.9985
G1 X32.4580 Y39.9951
G1 X32.4674 Y39.9917
G1 X32.4768 Y39.9883
G1 X32.4862 Y39.9849
G1 X32.4956 Y39.9815
G1 X32.5050 Y39.9781
G1 X32.5144 Y39.9747
G1 X32.5238 Y39.9713
G1 X32.5331 Y39.9678
G1 X32.5425 Y39.9644
G1 X32.5519 Y39.9609
G1 X32.5612 Y39.9575
G1 X32.5706 Y39.9540
G1 X32.5800 Y39.9505
G1 X32.5893 Y39.9470
G1 X32.5987 Y39.9435
G1 X32.6080 Y39.9400
G1 X32.6174 Y39.9365
G1 X32.6267 Y39.9330
G1 X32.6361 Y39.9294
G1 X32.6454 Y39.9259
G1 X32.6547 Y39.9223
G1 X32.6641 Y39.9188
G1 X32.6734 Y39.9152
G1 X32.6827 Y39.9116
G1 X32.6920 Y39.9080
G1 X32.7014 Y39.9044
G1 X32.7107 Y39.9008
G1 X32.7200 Y39.8972
G1 X32.7293 Y39.8936
G1 X32.7386 Y39.8899
G1 X32.7479 Y39.8863
G1 X32.7572 Y39.8826
G1 X32.7665 Y39.8790
G1 X32.7758 Y39.8753
G1 X32.7851 Y39.8716
G1 X32.7943 Y39.8679
G1 X32.8036 Y39.8642
G1 X32.8129 Y39.8605
G1 X32.8222 Y39.8568
G1 X32.8314 Y39.8531
G1 X32.8407 Y39.8494
G1 X32.8499 Y39.8456
G1 X32.8592 Y39.8419
G1 X32.8685 Y39.8381
G1 X32.8777 Y39.8343
G1 X32.8870 Y39.8306
G1 X32.8962 Y39.8268
G1 X32.9054 Y39.8230
G1 X32.9147 Y39.8192
G1 X32.9239 Y39.8153
G1 X32.9331 Y39.8115
G1 X32.9424 Y39.8077
G1 X32.9516 Y39.8038
G1 X32.9608 Y39.8000
G1 X32.9700 Y39.7961
G1 X32.9792 Y39.7923
G1 X32.9884 Y39.7884
G1 X32.9976 Y39.7845
G1 X33.0068 Y39.7806
G1 X33.0160 Y39.7767
G1 X33.0252 Y39.7728
G1 X33.0344 Y39.7689
G1 X33.0436 Y39.7650
G1 X33.0527 Y39.7610
G1 X33.0619 Y39.7571
G1 X33.0711 Y39.7531
G1 X33.0803 Y39.7491
G1 X33.0894 Y39.7452
G1 X33.0986 Y39.7412
G1 X33.1077 Y39.7372
G1 X33.1169 Y39.7332
G1 X33.1260 Y39.7292
G1 X33.1352 Y39.7252
G1 X33.1443 Y39.7211
G1 X33.1535 Y39.7171
G1 X33.1626 Y39.7131
G1 X33.1717 Y39.7090
G1 X33.1808 Y39.7049
G1 X33.1900 Y39.7009
G1 X33.1991 Y39.6968
G1 X33.2082 Y39.6927
G1 X33.2173 Y39.6886
G1 X33.2264 Y39.6845
G1 X33.2355 Y39.6804
G1 X33.2446 Y39.6763
G1 X33.2537 Y39.6721
G1 X33.2628 Y39.6680
G1 X33.2719 Y39.6638
G1 X33.2810 Y39.6597
G1 X33.2900 Y39.6555
G1 X33.2991 Y39.6513
G1 X33.3082 Y39.6472
G1 X33.3172 Y39.6430
G1 X33.3263 Y39.6388
G1 X33.3354 Y39.6345
G1 X33.3444 Y39.6303
G1 X33.3535 Y39.6261
G1 X33.3625 Y39.6219
G1 X33.3715 Y39.6176
G1 X33.3806 Y39.6134
G1 X33.3896 Y39.6091
G1 X33.3986 Y39.6048
G1 X33.4077 Y39.6005
G1 X33.4167 Y39.5963
G1 X33.4257 Y39.5920
G1 X33.4347 Y39.5876
G1 X33.4437 Y39.5833
G1 X33.4527 Y39.5790
G1 X33.4617 Y39.5747
G1 X33.4707 Y39.5703
G1 X33.4797 Y39.5660
G1 X33.4887 Y39.5616
G1 X33.4977 Y39.5573
G1 X33.5067 Y39.5529
G1 X33.5156 Y39.5485
G1 X33.5246 Y39.5441
G1 X33.5336 Y39.5397
G1 X33.5425 Y39.5353
G1 X33.5515 Y39.5309
G1 X33.5604 Y39.5264
G1 X33.5694 Y39.5220
G1 X33.5783 Y39.5176
G1 X33.5873 Y39.5131
G1 X33.5962 Y39.5086
G1 X33.6051 Y39.5042
G1 X33.6141 Y39.4997
G1 X33.6230 Y39.4952
G1 X33.6319 Y39.4907
G1 X33.6408 Y39.4862
G1 X33.6497 Y39.4817
G1 X33.6586 Y39.4772
G1 X33.6675 Y39.4726
G1 X33.6764 Y39.4681
G1 X33.6853 Y39.4635
G1 X33.6942 Y39.4590
G1 X33.7031 Y39.4544
G1 X33.7120 Y39.4498
G1 X33.7209 Y39.4453
G1 X33.7297 Y39.4407
G1 X33.7386 Y39.4361
G1 X33.7475 Y39.4315
G1 X33.7563 Y39.4269
G1 X33.7652 Y39.4222
G1 X33.7740 Y39.4176
G1 X33.7829 Y39.4129
G1 X33.7917 Y39.4083
G1 X33.8005 Y39.4036
G1 X33.8094 Y39.3990
G1 X33.8182 Y39.3943
G1 X33.8270 Y39.3896
G1 X33.8358 Y39.3849
G1 X33.8446 Y39.3802
G1 X33.8534 Y39.3755
G1 X33.8622 Y39.3708
G1 X33.8710 Y39.3661
G1 X33.8798 Y39.3613
G1 X33.8886 Y39.3566
G1 X33.8974 Y39.3518
G1 X33.9062 Y39.3471
G1 X33.9150 Y39.3423
G1 X33.9237 Y39.3375
G1 X33.9325 Y39.3327
G1 X33.9413 Y39.3279
G1 X33.9500 Y39.3231
G1 X33.9588 Y39.3183
G1 X33.9675 Y39.3135
G1 X33.9763 Y39.3087
G1 X33.9850 Y39.3038
G1 X33.9937 Y39.2990
G1 X34.0025 Y39.2941
G1 X34.0112 Y39.2893
G1 X34.0199 Y39.2844
G1 X34.0286 Y39.2795
G1 X34.0373 Y39.2746
G1 X34.0460 Y39.2697
G1 X34.0547 Y39.2648
G1 X34.0634 Y39.2599
G1 X34.0721 Y39.2550
G1 X34.0808 Y39.2501
G1 X34.0895 Y39.2451
G1 X34.0982 Y39.2402
G1 X34.1069 Y39.2352
G1 X34.1155 Y39.2303
G1 X34.1242 Y39.2253
G1 X34.1328 Y39.2203
G1 X34.1415 Y39.2153
G1 X34.1501 Y39.2103
G1 X34.1588 Y39.2053
G1 X34.1674 Y39.2003
G1 X34.1761 Y39.1953
G1 X34.1847 Y39.1902
G1 X34.1933 Y39.1852
G1 X34.2019 Y39.1802
G1 X34.2106 Y39.1751
G1 X34.2192 Y39.1700
G1 X34.2278 Y39.1650
G1 X34.2364 Y39.1599
G1 X34.2450 Y39.1548
G1 X34.2536 Y39.1497
G1 X34.2621 Y39.1446
G1 X34.2707 Y39.1395
G1 X34.2793 Y39.1344
G1 X34.2879 Y39.1292
G1 X34.2964 Y39.1241
G1 X34.3050 Y39.1190
G1 X34.3135 Y39.1138
G1 X34.3221 Y39.1086
G1 X34.3306 Y39.1035
G1 X34.3392 Y39.0983
G1 X34.3477 Y39.0931
G1 X34.3562 Y39.0879
G1 X34.3648 Y39.0827
G1 X34.3733 Y39.0775
G1 X34.3818 Y39.0723
G1 X34.3903 Y39.0670
G1 X34.3988 Y39.0618
G1 X34.4073 Y39.0566
G1 X34.4158 Y39.0513
G1 X34.4243 Y39.0461
G1 X34.4328 Y39.0408
G1 X34.4413 Y39.0355
G1 X34.4498 Y39.0302
G1 X34.4582 Y39.0249
G1 X34.4667 Y39.0196
G1 X34.4751 Y39.0143
G1 X34.4836 Y39.0090
G1 X34.4920 Y39.0037
G1 X34.5005 Y38.9983
G1 X34.5089 Y38.9930
G1 X34.5174 Y38.9876
G1 X34.5258 Y38.9823
G1 X34.5342 Y38.9769
G1 X34.5426 Y38.9715
G1 X34.5511 Y38.9662
G1 X34.5595 Y38.9608
G1 X34.5679 Y38.9554
G1 X34.5763 Y38.9500
G1 X34.5847 Y38.9445
G1 X34.5930 Y38.9391
G1 X34.6014 Y38.9337
G1 X34.6098 Y38.9282
G1 X34.6182 Y38.9228
G1 X34.6265 Y38.9173
G1 X34.6349 Y38.9119
G1 X34.6433 Y38.9064
G1 X34.6516 Y38.9009
G1 X34.6599 Y38.8954
G1 X34.6683 Y38.8899
G1 X34.6766 Y38.8844
G1 X34.6850 Y38.8789
G1 X34.6933 Y38.8734
G1 X34.7016 Y38.8679
G1 X34.7099 Y38.8623
G1 X34.7182 Y38.8568
G1 X34.7265 Y38.8512
G1 X34.7347 Y38.8456
G1 X34.7430 Y38.8400
G1 X34.7512 Y38.8344
G1 X34.7594 Y38.8287
G1 X34.7677 Y38.8230
G1 X34.7758 Y38.8174
G1 X34.7840 Y38.8116
G1 X34.7922 Y38.8059
G1 X34.8003 Y38.8002
G1 X34.8085 Y38.7944
G1 X34.8166 Y38.7886
G1 X34.8247 Y38.7828
G1 X34.8328 Y38.7769
G1 X34.8409 Y38.7711
G1 X34.8489 Y38.7652
G1 X34.8570 Y38.7593
G1 X34.8650 Y38.7534
G1 X34.8730 Y38.7474
G1 X34.8810 Y38.7415
G1 X34.8890 Y38.7355
G1 X34.8970 Y38.7295
G1 X34.9049 Y38.7235
G1 X34.9129 Y38.7174
G1 X34.9208 Y38.7114
G1 X34.9287 Y38.7053
G1 X34.9366 Y38.6992
G1 X34.9445 Y38.6931
G1 X34.9523 Y38.6869
G1 X34.9602 Y38.6808
G1 X34.9680 Y38.6746
G1 X34.9758 Y38.6684
G1 X34.9836 Y38.6622
G1 X34.9914 Y38.6559
G1 X34.9992 Y38.6496
G1 X35.0069 Y38.6434
G1 X35.0146 Y38.6371
G1 X35.0224 Y38.6307
G1 X35.0301 Y38.6244
G1 X35.0377 Y38.6180
G1 X35.0454 Y38.6117
G1 X35.0531 Y38.6053
G1 X35.0607 Y38.5988
G1 X35.0683 Y38.5924
G1 X35.0759 Y38.5859
G1 X35.0835 Y38.5795
G1 X35.0911 Y38.5730
G1 X35.0986 Y38.5665
G1 X35.1062 Y38.5599
G1 X35.1137 Y38.5534
G1 X35.1212 Y38.5468
G1 X35.1287 Y38.5402
G1 X35.1361 Y38.5336
G1 X35.1436 Y38.5270
G1 X35.1510 Y38.5203
G1 X35.1585 Y38.5136
G1 X35.1659 Y38.5069
G1 X35.1732 Y38.5002
G1 X35.1806 Y38.4935
G1 X35.1880 Y38.4868
G1 X35.1953 Y38.4800
G1 X35.2026 Y38.4732
G1 X35.2099 Y38.4664
G1 X35.2172 Y38.4596
G1 X35.2245 Y38.4528
G1 X35.2317 Y38.4459
G1 X35.2389 Y38.4390
G1 X35.2461 Y38.4321
G1 X35.2533 Y38.4252
G1 X35.2605 Y38.4183
G1 X35.2677 Y38.4113
G1 X35.2748 Y38.4044
G1 X35.2819 Y38.3974
G1 X35.2890 Y38.3904
G1 X35.2961 Y38.3834
G1 X35.3032 Y38.3763
G1 X35.3102 Y38.3693
G1 X35.3173 Y38.3622
G1 X35.3243 Y38.3551
G1 X35.3313 Y38.3480
G1 X35.3383 Y38.3409
G1 X35.3452 Y38.3337
G1 X35.3522 Y38.3266
G1 X35.3591 Y38.3194
G1 X35.3660 Y38.3122
G1 X35.3729 Y38.3050
G1 X35.3798 Y38.2977
G1 X35.3866 Y38.2905
G1 X35.3934 Y38.2832
G1 X35.4002 Y38.2759
G1 X35.4070 Y38.2686
G1 X35.4138 Y38.2613
G1 X35.4206 Y38.2540
G1 X35.4273 Y38.2466
G1 X35.4340 Y38.2392
G1 X35.4407 Y38.2318
G1 X35.4474 Y38.2244
G1 X35.4541 Y38.2170
G1 X35.4607 Y38.2096
G1 X35.4673 Y38.2021
G1 X35.4740 Y38.1946
G1 X35.4805 Y38.1871
G1 X35.4871 Y38.1796
G1 X35.4937 Y38.1721
G1 X35.5002 Y38.1646
G1 X35.5067 Y38.1570
G1 X35.5132 Y38.1494
G1 X35.5197 Y38.1418
G1 X35.5261 Y38.1342
G1 X35.5325 Y38.1266
G1 X35.5390 Y38.1189
G1 X35.5453 Y38.1113
G1 X35.5517 Y38.1036
G1 X35.5581 Y38.0959
G1 X35.5644 Y38.0882
G1 X35.5707 Y38.0805
G1 X35.5770 Y38.0728
G1 X35.5833 Y38.0650
G1 X35.5895 Y38.0572
G1 X35.5958 Y38.0494
G1 X35.6020 Y38.0416
G1 X35.6082 Y38.0338
G1 X35.6144 Y38.0260
G1 X35.6205 Y38.0181
G1 X35.6267 Y38.0103
G1 X35.6328 Y38.0024
G1 X35.6389 Y37.9945
G1 X35.6449 Y37.9866
G1 X35.6510 Y37.9786
G1 X35.6570 Y37.9707
G1 X35.6631 Y37.9627
G1 X35.6690 Y37.9548
G1 X35.6750 Y37.9468
G1 X35.6810 Y37.9388
G1 X35.6869 Y37.9308
G1 X35.6928 Y37.9227
G1 X35.6987 Y37.9147
G1 X35.7046 Y37.9066
G1 X35.7104 Y37.8985
G1 X35.7163 Y37.8904
G1 X35.7221 Y37.8823
G1 X35.7279 Y37.8742
G1 X35.7336 Y37.8661
G1 X35.7394 Y37.8579
G1 X35.7451 Y37.8497
G1 X35.7508 Y37.8416
G1 X35.7565 Y37.8334
G1 X35.7622 Y37.8251
G1 X35.7678 Y37.8169
G1 X35.7734 Y37.8087
G1 X35.7790 Y37.8004
G1 X35.7846 Y37.7921
G1 X35.7902 Y37.7839
G1 X35.7957 Y37.7756
G1 X35.8012 Y37.7673
G1 X35.8067 Y37.7589
G1 X35.8122 Y37.7506
G1 X35.8176 Y37.7422
G1 X35.8231 Y37.7339
G1 X35.8285 Y37.7255
G1 X35.8339 Y37.7171
G1 X35.8392 Y37.7087
G1 X35.8446 Y37.7003
G1 X35.8499 Y37.6918
G1 X35.8552 Y37.6834
G1 X35.8605 Y37.6749
G1 X35.8657 Y37.6664
G1 X35.8710 Y37.6579
G1 X35.8762 Y37.6494
G1 X35.8814 Y37.6409
G1 X35.8865 Y37.6324
G1 X35.8917 Y37.6238
G1 X35.8968 Y37.6153
G1 X35.9019 Y37.6067
G1 X35.9070 Y37.5981
G1 X35.9121 Y37.5895
G1 X35.9171 Y37.5809
G1 X35.9221 Y37.5723
G1 X35.9271 Y37.5637
G1 X35.9321 Y37.5550
G1 X35.9371 Y37.5464
G1 X35.9420 Y37.5377
G1 X35.9469 Y37.5290
G1 X35.9518 Y37.5203
G1 X35.9567 Y37.5116
G1 X35.9615 Y37.5029
G1 X35.9663 Y37.4941
G1 X35.9711 Y37.4854
G1 X35.9759 Y37.4766
G1 X35.9806 Y37.4679
G1 X35.9854 Y37.4591
G1 X35.9901 Y37.4503
G1 X35.9948 Y37.4415
G1 X35.9994 Y37.4327
G1 X36.0041 Y37.4238
G1 X36.0087 Y37.4150
G1 X36.0133 Y37.4061
G1 X36.0178 Y37.3973
G1 X36.0224 Y37.3884
G1 X36.0269 Y37.3795
G1 X36.0314 Y37.3706
G1 X36.0359 Y37.3617
G1 X36.0404 Y37.3528
G1 X36.0448 Y37.3438
G1 X36.0492 Y37.3349
G1 X36.0536 Y37.3259
G1 X36.0580 Y37.3169
G1 X36.0623 Y37.3080
G1 X36.0666 Y37.2990
G1 X36.0709 Y37.2900
G1 X36.0752 Y37.2810
G1 X36.0795 Y37.2719
G1 X36.0837 Y37.2629
G1 X36.0879 Y37.2538
G1 X36.0921 Y37.2448
G1 X36.0962 Y37.2357
G1 X36.1004 Y37.2266
G1 X36.1045 Y37.2176
G1 X36.1086 Y37.2085
G1 X36.1126 Y37.1994
G1 X36.1167 Y37.1902
G1 X36.1207 Y37.1811
G1 X36.1247 Y37.1720
G1 X36.1287 Y37.1628
G1 X36.1326 Y37.1536
G1 X36.1366 Y37.1445
G1 X36.1405 Y37.1353
G1 X36.1443 Y37.1261
G1 X36.1482 Y37.1169
G1 X36.1520 Y37.1077
G1 X36.1558 Y37.0985
G1 X36.1596 Y37.0892
G1 X36.1634 Y37.0800
G1 X36.1671 Y37.0708
G1 X36.1709 Y37.0615
G1 X36.1745 Y37.0522
G1 X36.1782 Y37.0430
G1 X36.1819 Y37.0337
G1 X36.1855 Y37.0244
G1 X36.1891 Y37.0151
G1 X36.1926 Y37.0058
G1 X36.1962 Y36.9964
G1 X36.1997 Y36.9871
G1 X36.2032 Y36.9778
G1 X36.2067 Y36.9684
G1 X36.2102 Y36.9591
G1 X36.2136 Y36.9497
G1 X36.2170 Y36.9403
G1 X36.2204 Y36.9309
G1 X36.2237 Y36.9215
G1 X36.2271 Y36.9121
G1 X36.2304 Y36.9027
G1 X36.2337 Y36.8933
G1 X36.2369 Y36.8839
G1 X36.2402 Y36.8744
G1 X36.2434 Y36.8650
G1 X36.2466 Y36.8555
G1 X36.2497 Y36.8461
G1 X36.2529 Y36.8366
G1 X36.2560 Y36.8271
G1 X36.2591 Y36.8176
G1 X36.2622 Y36.8082
G1 X36.2652 Y36.7987
G1 X36.2682 Y36.7891
G1 X36.2712 Y36.7796
G1 X36.2742 Y36.7701
G1 X36.2771 Y36.7606
G1 X36.2801 Y36.7510
G1 X36.2830 Y36.7415
G1 X36.2858 Y36.7319
G1 X36.2887 Y36.7224
G1 X36.2915 Y36.7128
G1 X36.2943 Y36.7032
G1 X36.2971 Y36.6937
G1 X36.2998 Y36.6841
G1 X36.3026 Y36.6745
G1 X36.3053 Y36.6649
G1 X36.3080 Y36.6553
G1 X36.3106 Y36.6456
G1 X36.3132 Y36.6360
G1 X36.3158 Y36.6264
G1 X36.3184 Y36.6168
G1 X36.3210 Y36.6071
G1 X36.3235 Y36.5975
G1 X36.3260 Y36.5878
G1 X36.3285 Y36.5781
G1 X36.3310 Y36.5685
G1 X36.3334 Y36.5588
G1 X36.3358 Y36.5491
G1 X36.3382 Y36.5394
G1 X36.3405 Y36.5297
G1 X36.3429 Y36.5200
G1 X36.3452 Y36.5103
G1 X36.3475 Y36.5006
G1 X36.3497 Y36.4909
G1 X36.3520 Y36.4812
G1 X36.3542 Y36.4715
G1 X36.3564 Y36.4617
G1 X36.3585 Y36.4520
G1 X36.3607 Y36.4422
G1 X36.3628 Y36.4325
G1 X36.3648 Y36.4227
G1 X36.3669 Y36.4130
G1 X36.3689 Y36.4032
G1 X36.3710 Y36.3934
G1 X36.3729 Y36.3837
G1 X36.3749 Y36.3739
G1 X36.3768 Y36.3641
G1 X36.3788 Y36.3543
G1 X36.3806 Y36.3445
G1 X36.3825 Y36.3347
G1 X36.3843 Y36.3249
G1 X36.3861 Y36.3151
G1 X36.3879 Y36.3053
G1 X36.3897 Y36.2955
G1 X36.3914 Y36.2856
G1 X36.3931 Y36.2758
G1 X36.3948 Y36.2660
G1 X36.3965 Y36.2561
G1 X36.3981 Y36.2463
G1 X36.3997 Y36.2364
G1 X36.4013 Y36.2266
G1 X36.4029 Y36.2167
G1 X36.4044 Y36.2069
G1 X36.4059 Y36.1970
G1 X36.4074 Y36.1872
G1 X36.4089 Y36.1773
G1 X36.4103 Y36.1674
G1 X36.4117 Y36.1575
G1 X36.4131 Y36.1477
G1 X36.4144 Y36.1378
G1 X36.4158 Y36.1279
G1 X36.4171 Y36.1180
G1 X36.4184 Y36.1081
G1 X36.4196 Y36.0982
G1 X36.4209 Y36.0883
G1 X36.4221 Y36.0784
G1 X36.4232 Y36.0685
G1 X36.4244 Y36.0586
G1 X36.4255 Y36.0487
G1 X36.4266 Y36.0388
G1 X36.4277 Y36.0289
G1 X36.4288 Y36.0189
G1 X36.4298 Y36.0090
G1 X36.4308 Y35.9991
G1 X36.4318 Y35.9892
G1 X36.4327 Y35.9792
G1 X36.4337 Y35.9693
G1 X36.4346 Y35.9594
G1 X36.4355 Y35.9494
G1 X36.4363 Y35.9395
G1 X36.4371 Y35.9295
G1 X36.4379 Y35.9196
G1 X36.4387 Y35.9097
G1 X36.4395 Y35.8997
G1 X36.4402 Y35.8898
G1 X36.4409 Y35.8798
G1 X36.4416 Y35.8699
G1 X36.4422 Y35.8599
G1 X36.4428 Y35.8499
G1 X36.4434 Y35.8400
G1 X36.4440 Y35.8300
G1 X36.4446 Y35.8201
G1 X36.4451 Y35.8101
G1 X36.4456 Y35.8001
G1 X36.4460 Y35.7902
G1 X36.4465 Y35.7802
G1 X36.4469 Y35.7702
G1 X36.4473 Y35.7603
G1 X36.4477 Y35.7503
G1 X36.4480 Y35.7403
G1 X36.4483 Y35.7304
G1 X36.4486 Y35.7204
G1 X36.4489 Y35.7104
G1 X36.4491 Y35.7004
G1 X36.4494 Y35.6905
G1 X36.4495 Y35.6805
G1 X36.4497 Y35.6705
G1 X36.4499 Y35.6605
G1 X36.4500 Y35.6506
G1 X36.4501 Y35.6406
G1 X36.4501 Y35.6306
G1 X36.4502 Y35.6206
G1 X36.4502 Y35.6107
G01 X36.450219 Y34.202670 Z-1.000000
G1 X36.4502 Y34.1927
G1 X36.4501 Y34.1827
G1 X36.4500 Y34.1727
G1 X36.4499 Y34.1627
G1 X36.4497 Y34.1527
G1 X36.4495 Y34.1427
G1 X36.4492 Y34.1327
G1 X36.4489 Y34.1227
G1 X36.4486 Y34.1127
G1 X36.4482 Y34.1027
G1 X36.4478 Y34.0927
G1 X36.4473 Y34.0827
G1 X36.4468 Y34.0727
G1 X36.4462 Y34.0628
G1 X36.4456 Y34.0528
G1 X36.4450 Y34.0428
G1 X36.4443 Y34.0328
G1 X36.4436 Y34.0228
G1 X36.4429 Y34.0129
G1 X36.4421 Y34.0029
G1 X36.4412 Y33.9929
G1 X36.4404 Y33.9830
G1 X36.4394 Y33.9730
G1 X36.4385 Y33.9631
G1 X36.4375 Y33.9531
G1 X36.4365 Y33.9432
G1 X36.4354 Y33.9332
G1 X36.4343 Y33.9233
G1 X36.4331 Y33.9134
G1 X36.4319 Y33.9034
G1 X36.4307 Y33.8935
G1 X36.4294 Y33.8836
G1 X36.4281 Y33.8737
G1 X36.4267 Y33.8638
G1 X36.4253 Y33.8539
G1 X36.4238 Y33.8440
G1 X36.4224 Y33.8341
G1 X36.4208 Y33.8242
G1 X36.4193 Y33.8143
G1 X36.4177 Y33.8045
G1 X36.4160 Y33.7946
G1 X36.4143 Y33.7848
G1 X36.4126 Y33.7749
G1 X36.4109 Y33.7651
G1 X36.4091 Y33.7552
G1 X36.4072 Y33.7454
G1 X36.4053 Y33.7356
G1 X36.4034 Y33.7258
G1 X36.4014 Y33.7160
G1 X36.3994 Y33.7062
G1 X36.3974 Y33.6964
G1 X36.3953 Y33.6866
G1 X36.3932 Y33.6768
G1 X36.3910 Y33.6671
G1 X36.3888 Y33.6573
G1 X36.3866 Y33.6476
G1 X36.3843 Y33.6378
G1 X36.3820 Y33.6281
G1 X36.3796 Y33.6184
G1 X36.3772 Y33.6087
G1 X36.3747 Y33.5990
G1 X36.3723 Y33.5893
G1 X36.3697 Y33.5796
G1 X36.3672 Y33.5700
G1 X36.3646 Y33.5603
G1 X36.3619 Y33.5507
G1 X36.3593 Y33.5410
G1 X36.3566 Y33.5314
G1 X36.3538 Y33.5218
G1 X36.3510 Y33.5122
G1 X36.3482 Y33.5026
G1 X36.3453 Y33.4930
G1 X36.3424 Y33.4835
G1 X36.3394 Y33.4739
G1 X36.3364 Y33.4644
G1 X36.3334 Y33.4548
G1 X36.3303 Y33.4453
G1 X36.3272 Y33.4358
G1 X36.3241 Y33.4263
G1 X36.3209 Y33.4168
G1 X36.3177 Y33.4074
G1 X36.3144 Y33.3979
G1 X36.3111 Y33.3885
G1 X36.3078 Y33.3791
G1 X36.3044 Y33.3697
G1 X36.3010 Y33.3603
G1 X36.2975 Y33.3509
G1 X36.2940 Y33.3415
G1 X36.2905 Y33.3322
G1 X36.2869 Y33.3228
G1 X36.2833 Y33.3135
G1 X36.2797 Y33.3042
G1 X36.2760 Y33.2949
G1 X36.2723 Y33.2856
G1 X36.2685 Y33.2763
G1 X36.2647 Y33.2671
G1 X36.2609 Y33.2578
G1 X36.2570 Y33.2486
G1 X36.2531 Y33.2394
G1 X36.2492 Y33.2302
G1 X36.2452 Y33.2211
G1 X36.2411 Y33.2119
G1 X36.2371 Y33.2028
G1 X36.2330 Y33.1936
G1 X36.2289 Y33.1845
G1 X36.2247 Y33.1755
G1 X36.2205 Y33.1664
G1 X36.2162 Y33.1573
G1 X36.2120 Y33.1483
G1 X36.2076 Y33.1393
G1 X36.2033 Y33.1303
G1 X36.1989 Y33.1213
G1 X36.1945 Y33.1123
G1 X36.1900 Y33.1034
G1 X36.1855 Y33.0945
G1 X36.1810 Y33.0855
G1 X36.1764 Y33.0766
G1 X36.1718 Y33.0678
G1 X36.1671 Y33.0589
G1 X36.1625 Y33.0501
G1 X36.1577 Y33.0413
G1 X36.1530 Y33.0325
G1 X36.1482 Y33.0237
G1 X36.1434 Y33.0149
G1 X36.1385 Y33.0062
G1 X36.1336 Y32.9975
G1 X36.1287 Y32.9888
G1 X36.1237 Y32.9801
G1 X36.1187 Y32.9714
G1 X36.1137 Y32.9628
G1 X36.1086 Y32.9542
G1 X36.1035 Y32.9456
G1 X36.0983 Y32.9370
G1 X36.0932 Y32.9285
G1 X36.0879 Y32.9199
G1 X36.0827 Y32.9114
G1 X36.0774 Y32.9029
G1 X36.0721 Y32.8945
G1 X36.0667 Y32.8860
G1 X36.0614 Y32.8776
G1 X36.0559 Y32.8692
G1 X36.0505 Y32.8608
G1 X36.0450 Y32.8525
G1 X36.0395 Y32.8441
G1 X36.0339 Y32.8358
G1 X36.0283 Y32.8275
G1 X36.0227 Y32.8193
G1 X36.0170 Y32.8110
G1 X36.0114 Y32.8028
G1 X36.0056 Y32.7946
G1 X35.9999 Y32.7864
G1 X35.9941 Y32.7783
G1 X35.9883 Y32.7701
G1 X35.9824 Y32.7620
G1 X35.9765 Y32.7540
G1 X35.9706 Y32.7459
G1 X35.9646 Y32.7379
G1 X35.9586 Y32.7299
G1 X35.9526 Y32.7219
G1 X35.9466 Y32.7139
G1 X35.9405 Y32.7060
G1 X35.9344 Y32.6981
G1 X35.9282 Y32.6902
G1 X35.9220 Y32.6823
G1 X35.9158 Y32.6745
G1 X35.9096 Y32.6667
G1 X35.9033 Y32.6589
G1 X35.8970 Y32.6512
G1 X35.8906 Y32.6434
G1 X35.8842 Y32.6357
G1 X35.8778 Y32.6280
G1 X35.8714 Y32.6204
G1 X35.8649 Y32.6128
G1 X35.8584 Y32.6052
G1 X35.8519 Y32.5976
G1 X35.8453 Y32.5901
G1 X35.8388 Y32.5825
G1 X35.8321 Y32.5750
G1 X35.8255 Y32.5676
G1 X35.8188 Y32.5601
G1 X35.8121 Y32.5527
G1 X35.8053 Y32.5453
G1 X35.7986 Y32.5380
G1 X35.7918 Y32.5307
G1 X35.7849 Y32.5234
G1 X35.7781 Y32.5161
G1 X35.7712 Y32.5088
G1 X35.7643 Y32.5016
G1 X35.7573 Y32.4944
G1 X35.7503 Y32.4873
G1 X35.7433 Y32.4801
G1 X35.7363 Y32.4730
G1 X35.7292 Y32.4660
G1 X35.7221 Y32.4589
G1 X35.7150 Y32.4519
G1 X35.7078 Y32.4449
G1 X35.7007 Y32.4380
G1 X35.6934 Y32.4310
G1 X35.6862 Y32.4241
G1 X35.6789 Y32.4173
G1 X35.6716 Y32.4104
G1 X35.6643 Y32.4036
G1 X35.6570 Y32.3968
G1 X35.6496 Y32.3901
G1 X35.6422 Y32.3834
G1 X35.6348 Y32.3767
G1 X35.6273 Y32.3700
G1 X35.6198 Y32.3634
G1 X35.6123 Y32.3568
G1 X35.6048 Y32.3502
G1 X35.5972 Y32.3437
G1 X35.5896 Y32.3372
G1 X35.5820 Y32.3307
G1 X35.5743 Y32.3243
G1 X35.5667 Y32.3179
G1 X35.5590 Y32.3115
G1 X35.5512 Y32.3051
G1 X35.5435 Y32.2988
G1 X35.5357 Y32.2925
G1 X35.5279 Y32.2863
G1 X35.5201 Y32.2801
G1 X35.5122 Y32.2739
G1 X35.5043 Y32.2677
G1 X35.4964 Y32.2616
G1 X35.4885 Y32.2555
G1 X35.4806 Y32.2494
G1 X35.4726 Y32.2434
G1 X35.4646 Y32.2374
G1 X35.4566 Y32.2314
G1 X35.4485 Y32.2255
G1 X35.4404 Y32.2196
G1 X35.4323 Y32.2137
G1 X35.4242 Y32.2079
G1 X35.4161 Y32.2021
G1 X35.4079 Y32.1963
G1 X35.3997 Y32.1906
G1 X35.3915 Y32.1849
G1 X35.3832 Y32.1793
G1 X35.3750 Y32.1736
G1 X35.3667 Y32.1680
G1 X35.3585 Y32.1624
G1 X35.3502 Y32.1568
G1 X35.3419 Y32.1512
G1 X35.3336 Y32.1457
G1 X35.3253 Y32.1401
G1 X35.3170 Y32.1345
G1 X35.3087 Y32.1290
G1 X35.3004 Y32.1235
G1 X35.2921 Y32.1179
G1 X35.2838 Y32.1124
G1 X35.2754 Y32.1069
G1 X35.2671 Y32.1014
G1 X35.2588 Y32.0959
G1 X35.2504 Y32.0904
G1 X35.2421 Y32.0849
G1 X35.2337 Y32.0795
G1 X35.2254 Y32.0740
G1 X35.2170 Y32.0685
G1 X35.2086 Y32.0631
G1 X35.2003 Y32.0576
G1 X35.1919 Y32.0522
G1 X35.1835 Y32.0468
G1 X35.1751 Y32.0414
G1 X35.1667 Y32.0360
G1 X35.1583 Y32.0306
G1 X35.1499 Y32.0252
G1 X35.1415 Y32.0198
G1 X35.1331 Y32.0144
G1 X35.1247 Y32.0091
G1 X35.1162 Y32.0037
G1 X35.1078 Y31.9984
G1 X35.0994 Y31.9930
G1 X35.0909 Y31.9877
G1 X35.0825 Y31.9824
G1 X35.0740 Y31.9770
G1 X35.0656 Y31.9717
G1 X35.0571 Y31.9664
G1 X35.0486 Y31.9611
G1 X35.0402 Y31.9559
G1 X35.0317 Y31.9506
G1 X35.0232 Y31.9453
G1 X35.0147 Y31.9401
G1 X35.0062 Y31.9348
G1 X34.9977 Y31.9296
G1 X34.9892 Y31.9243
G1 X34.9807 Y31.9191
G1 X34.9722 Y31.9139
G1 X34.9637 Y31.9087
G1 X34.9551 Y31.9035
G1 X34.9466 Y31.8983
G1 X34.9381 Y31.8931
G1 X34.9295 Y31.8879
G1 X34.9210 Y31.8828
G1 X34.9124 Y31.8776
G1 X34.9039 Y31.8725
G1 X34.8953 Y31.8673
G1 X34.8868 Y31.8622
G1 X34.8782 Y31.8571
G1 X34.8696 Y31.8519
G1 X34.8610 Y31.8468
G1 X34.8524 Y31.8417
G1 X34.8438 Y31.8367
G1 X34.8353 Y31.8316
G1 X34.8267 Y31.8265
G1 X34.8180 Y31.8214
G1 X34.8094 Y31.8164
G1 X34.8008 Y31.8113
G1 X34.7922 Y31.8063
G1 X34.7836 Y31.8013
G1 X34.7749 Y31.7962
G1 X34.7663 Y31.7912
G1 X34.7577 Y31.7862
G1 X34.7490 Y31.7812
G1 X34.7404 Y31.7762
G1 X34.7317 Y31.7712
G1 X34.7231 Y31.7663
G1 X34.7144 Y31.7613
G1 X34.7057 Y31.7564
G1 X34.6970 Y31.7514
G1 X34.6884 Y31.7465
G1 X34.6797 Y31.7415
G1 X34.6710 Y31.7366
G1 X34.6623 Y31.7317
G1 X34.6536 Y31.7268
G1 X34.6449 Y31.7219
G1 X34.6362 Y31.7170
G1 X34.6275 Y31.7121
G1 X34.6188 Y31.7073
G1 X34.6100 Y31.7024
G1 X34.6013 Y31.6976
G1 X34.5926 Y31.6927
G1 X34.5838 Y31.6879
G1 X34.5751 Y31.6830
G1 X34.5664 Y31.6782
G1 X34.5576 Y31.6734
G1 X34.5488 Y31.6686
G1 X34.5401 Y31.6638
G1 X34.5313 Y31.6590
G1 X34.5225 Y31.6543
G1 X34.5138 Y31.6495
G1 X34.5050 Y31.6447
G1 X34.4962 Y31.6400
G1 X34.4874 Y31.6353
G1 X34.4786 Y31.6305
G1 X34.4698 Y31.6258
G1 X34.4610 Y31.6211
G1 X34.4522 Y31.6164
G1 X34.4434 Y31.6117
G1 X34.4346 Y31.6070
G1 X34.4258 Y31.6023
G1 X34.4169 Y31.5976
G1 X34.4081 Y31.5930
G1 X34.3993 Y31.5883
G1 X34.3904 Y31.5837
G1 X34.3816 Y31.5790
G1 X34.3727 Y31.5744
G1 X34.3639 Y31.5698
G1 X34.3550 Y31.5652
G1 X34.3462 Y31.5606
G1 X34.3373 Y31.5560
G1 X34.3284 Y31.5514
G1 X34.3196 Y31.5468
G1 X34.3107 Y31.5422
G1 X34.3018 Y31.5377
G1 X34.2929 Y31.5331
G1 X34.2840 Y31.5286
G1 X34.2751 Y31.5241
G1 X34.2662 Y31.5195
G1 X34.2573 Y31.5150
G1 X34.2484 Y31.5105
G1 X34.2395 Y31.5060
G1 X34.2306 Y31.5015
G1 X34.2216 Y31.4970
G1 X34.2127 Y31.4926
G1 X34.2038 Y31.4881
G1 X34.1948 Y31.4837
G1 X34.1859 Y31.4792
G1 X34.1770 Y31.4748
G1 X34.1680 Y31.4703
G1 X34.1590 Y31.4659
G1 X34.1501 Y31.4615
G1 X34.1411 Y31.4571
G1 X34.1322 Y31.4527
G1 X34.1232 Y31.4483
G1 X34.1142 Y31.4440
G1 X34.1052 Y31.4396
G1 X34.0962 Y31.4352
G1 X34.0873 Y31.4309
G1 X34.0783 Y31.4266
G1 X34.0693 Y31.4222
G1 X34.0603 Y31.4179
G1 X34.0513 Y31.4136
G1 X34.0422 Y31.4093
G1 X34.0332 Y31.4050
G1 X34.0242 Y31.4007
G1 X34.0152 Y31.3964
G1 X34.0062 Y31.3922
G1 X33.9971 Y31.3879
G1 X33.9881 Y31.3836
G1 X33.9791 Y31.3794
G1 X33.9700 Y31.3752
G1 X33.9610 Y31.3709
G1 X33.9519 Y31.3667
G1 X33.9429 Y31.3625
G1 X33.9338 Y31.3583
G1 X33.9247 Y31.3541
G1 X33.9157 Y31.3499
G1 X33.9066 Y31.3458
G1 X33.8975 Y31.3416
G1 X33.8884 Y31.3375
G1 X33.8793 Y31.3333
G1 X33.8703 Y31.3292
G1 X33.8612 Y31.3250
G1 X33.8521 Y31.3209
G1 X33.8430 Y31.3168
G1 X33.8339 Y31.3127
G1 X33.8247 Y31.3086
G1 X33.8156 Y31.3045
G1 X33.8065 Y31.3005
G1 X33.7974 Y31.2964
G1 X33.7883 Y31.2924
G1 X33.7791 Y31.2883
G1 X33.7700 Y31.2843
G1 X33.7609 Y31.2802
G1 X33.7517 Y31.2762
G1 X33.7426 Y31.2722
G1 X33.7334 Y31.2682
G1 X33.7243 Y31.2642
G1 X33.7151 Y31.2602
G1 X33.7060 Y31.2563
G1 X33.6968 Y31.2523
G1 X33.6876 Y31.2483
G1 X33.6785 Y31.2444
G1 X33.6693 Y31.2404
G1 X33.6601 Y31.2365
G1 X33.6509 Y31.2326
G1 X33.6417 Y31.2287
G1 X33.6325 Y31.2248
G1 X33.6233 Y31.2209
G1 X33.6141 Y31.2170
G1 X33.6049 Y31.2131
G1 X33.5957 Y31.2093
G1 X33.5865 Y31.2054
G1 X33.5773 Y31.2016
G1 X33.5681 Y31.1977
G1 X33.5589 Y31.1939
G1 X33.5496 Y31.1901
G1 X33.5404 Y31.1862
G1 X33.5312 Y31.1824
G1 X33.5219 Y31.1786
G1 X33.5127 Y31.1749
G1 X33.5035 Y31.1711
G1 X33.4942 Y31.1673
G1 X33.4850 Y31.1636
G1 X33.4757 Y31.1598
G1 X33.4664 Y31.1561
G1 X33.4572 Y31.1523
G1 X33.4479 Y31.1486
G1 X33.4387 Y31.1449
G1 X33.4294 Y31.1412
G1 X33.4201 Y31.1375
G1 X33.4108 Y31.1338
G1 X33.4015 Y31.1301
G1 X33.3922 Y31.1265
G1 X33.3830 Y31.1228
G1 X33.3737 Y31.1192
G1 X33.3644 Y31.1155
G1 X33.3551 Y31.1119
G1 X33.3458 Y31.1083
G1 X33.3364 Y31.1047
G1 X33.3271 Y31.1011
G1 X33.3178 Y31.0975
G1 X33.3085 Y31.0939
G1 X33.2992 Y31.0903
G1 X33.2898 Y31.0867
G1 X33.2805 Y31.0832
G1 X33.2712 Y31.0796
G1 X33.2618 Y31.0761
G1 X33.2525 Y31.0726
G1 X33.2432 Y31.0690
G1 X33.2338 Y31.0655
G1 X33.2245 Y31.0620
G1 X33.2151 Y31.0585
G1 X33.2057 Y31.0550
G1 X33.1964 Y31.0516
G1 X33.1870 Y31.0481
G1 X33.1776 Y31.0446
G1 X33.1683 Y31.0412
G1 X33.1589 Y31.0378
G1 X33.1495 Y31.0343
G1 X33.1401 Y31.0309
G1 X33.1308 Y31.0275
G1 X33.1214 Y31.0241
G1 X33.1120 Y31.0207
G1 X33.1026 Y31.0173
G1 X33.0932 Y31.0139
G1 X33.0838 Y31.0106
G1 X33.0744 Y31.0072
G1 X33.0650 Y31.0039
G1 X33.0556 Y31.0005
G1 X33.0461 Y30.9972
G1 X33.0367 Y30.9939
G1 X33.0273 Y30.9906
G1 X33.0179 Y30.9873
G1 X33.0084 Y30.9840
G1 X32.9990 Y30.9807
G1 X32.9896 Y30.9774
G1 X32.9801 Y30.9742
G1 X32.9707 Y30.9709
G1 X32.9613 Y30.9677
G1 X32.9518 Y30.9644
G1 X32.9424 Y30.9612
G1 X32.9329 Y30.9580
G1 X32.9235 Y30.9548
G1 X32.9140 Y30.9516
G1 X32.9045 Y30.9484
G1 X32.8951 Y30.9452
G1 X32.8856 Y30.9421
G1 X32.8761 Y30.9389
G1 X32.8666 Y30.9357
G1 X32.8572 Y30.9326
G1 X32.8477 Y30.9295
G1 X32.8382 Y30.9263
G1 X32.8287 Y30.9232
G1 X32.8192 Y30.9201
G1 X32.8097 Y30.9170
G1 X32.8002 Y30.9139
G1 X32.7907 Y30.9109
G1 X32.7812 Y30.9078
G1 X32.7717 Y30.9047
G1 X32.7622 Y30.9017
G1 X32.7527 Y30.8986
G1 X32.7432 Y30.8956
G1 X32.7337 Y30.8926
G1 X32.7242 Y30.8896
G1 X32.7146 Y30.8866
G1 X32.7051 Y30.8836
G1 X32.6956 Y30.8806
G1 X32.6860 Y30.8776
G1 X32.6765 Y30.8747
G1 X32.6670 Y30.8717
G1 X32.6574 Y30.8687
G1 X32.6479 Y30.8658
G1 X32.6383 Y30.8629
G1 X32.6288 Y30.8600
G1 X32.6192 Y30.8571
G1 X32.6097 Y30.8542
G1 X32.6001 Y30.8513
G1 X32.5906 Y30.8484
G1 X32.5810 Y30.8455
G1 X32.5714 Y30.8426
G1 X32.5619 Y30.8398
G1 X32.5523 Y30.8369
G1 X32.5427 Y30.8341
G1 X32.5331 Y30.8313
G1 X32.5235 Y30.8285
G1 X32.5140 Y30.8257
G1 X32.5044 Y30.8229
G1 X32.4948 Y30.8201
G1 X32.4852 Y30.8173
G1 X32.4756 Y30.8145
G1 X32.4660 Y30.8118
G1 X32.4564 Y30.8090
G1 X32.4468 Y30.8063
G1 X32.4372 Y30.8036
G1 X32.4276 Y30.8008
G1 X32.4180 Y30.7981
G1 X32.4084 Y30.7954
G1 X32.3988 Y30.7927
G1 X32.3891 Y30.7900
G1 X32.3795 Y30.7874
G1 X32.3699 Y30.7847
G1 X32.3603 Y30.7820
G1 X32.3506 Y30.7794
G1 X32.3410 Y30.7768
G1 X32.3314 Y30.7741
G1 X32.3217 Y30.7715
G1 X32.3121 Y30.7689
G1 X32.3025 Y30.7663
G1 X32.2928 Y30.7637
G1 X32.2832 Y30.7611
G1 X32.2735 Y30.7586
G1 X32.2639 Y30.7560
G1 X32.2542 Y30.7535
G1 X32.2445 Y30.7509
G1 X32.2349 Y30.7484
G1 X32.2252 Y30.7459
G1 X32.2156 Y30.7433
G1 X32.2059 Y30.7408
G1 X32.1962 Y30.7383
G1 X32.1866 Y30.7359
G1 X32.1769 Y30.7334
G1 X32.1672 Y30.7309
G1 X32.1575 Y30.7285
G1 X32.1478 Y30.7260
G1 X32.1382 Y30.7236
G1 X32.1285 Y30.7211
G1 X32.1188 Y30.7187
G1 X32.1091 Y30.7163
G1 X32.0994 Y30.7139
G1 X32.0897 Y30.7115
G1 X32.0800 Y30.7091
G1 X32.0703 Y30.7068
G1 X32.0606 Y30.7044
G1 X32.0509 Y30.7021
G1 X32.0412 Y30.6997
G1 X32.0315 Y30.6974
G1 X32.0218 Y30.6951
G1 X32.0121 Y30.6927
G1 X32.0023 Y30.6904
G1 X31.9926 Y30.6881
G1 X31.9829 Y30.6859
G1 X31.9732 Y30.6836
G1 X31.9635 Y30.6813
G1 X31.9537 Y30.6791
G1 X31.9440 Y30.6768
G1 X31.9343 Y30.6746
G1 X31.9245 Y30.6723
G1 X31.9148 Y30.6701
G1 X31.9051 Y30.6679
G1 X31.8953 Y30.6657
G1 X31.8856 Y30.6635
G1 X31.8758 Y30.6614
G1 X31.8661 Y30.6592
G1 X31.8563 Y30.6570
G1 X31.8466 Y30.6549
G1 X31.8368 Y30.6527
G1 X31.8271 Y30.6506
G1 X31.8173 Y30.6485
G1 X31.8076 Y30.6464
G1 X31.7978 Y30.6442
G1 X31.7880 Y30.6422
G1 X31.7783 Y30.6401
G1 X31.7685 Y30.6380
G1 X31.7587 Y30.6359
G1 X31.7490 Y30.6339
G1 X31.7392 Y30.6318
G1 X31.7294 Y30.6298
G1 X31.7196 Y30.6278
G1 X31.7098 Y30.6257
G1 X31.7001 Y30.6237
G1 X31.6903 Y30.6217
G1 X31.6805 Y30.6197
G1 X31.6707 Y30.6178
G1 X31.6609 Y30.6158
G1 X31.6511 Y30.6138
G1 X31.6413 Y30.6119
G1 X31.6315 Y30.6099
G1 X31.6217 Y30.6080
G1 X31.6119 Y30.6061
G1 X31.6021 Y30.6042
G1 X31.5923 Y30.6023
G1 X31.5825 Y30.6004
G1 X31.5727 Y30.5985
G1 X31.5629 Y30.5966
G1 X31.5531 Y30.5948
G1 X31.5433 Y30.5929
G1 X31.5335 Y30.5911
G1 X31.5237 Y30.5892
G1 X31.5138 Y30.5874
G1 X31.5040 Y30.5856
G1 X31.4942 Y30.5838
G1 X31.4844 Y30.5820
G1 X31.4746 Y30.5802
G1 X31.4647 Y30.5784
G1 X31.4549 Y30.5766
G1 X31.4451 Y30.5749
G1 X31.4352 Y30.5731
G1 X31.4254 Y30.5714
G1 X31.4156 Y30.5697
G1 X31.4057 Y30.5680
G1 X31.3959 Y30.5662
G1 X31.3861 Y30.5645
G1 X31.3762 Y30.5629
G1 X31.3664 Y30.5612
G1 X31.3565 Y30.5595
G1 X31.3467 Y30.5578
G1 X31.3368 Y30.5562
G1 X31.3270 Y30.5545
G1 X31.3171 Y30.5529
G1 X31.3073 Y30.5513
G1 X31.2974 Y30.5497
G1 X31.2876 Y30.5481
G1 X31.2777 Y30.5465
G1 X31.2679 Y30.5449
G1 X31.2580 Y30.5433
G1 X31.2481 Y30.5417
G1 X31.2383 Y30.5402
G1 X31.2284 Y30.5386
G1 X31.2185 Y30.5371
G1 X31.2087 Y30.5356
G1 X31.1988 Y30.5341
G1 X31.1889 Y30.5326
G1 X31.1790 Y30.5311
G1 X31.1692 Y30.5296
G1 X31.1593 Y30.5281
G1 X31.1494 Y30.5266
G1 X31.1395 Y30.5252
G1 X31.1297 Y30.5237
G1 X31.1198 Y30.5223
G1 X31.1099 Y30.5209
G1 X31.1000 Y30.5194
G1 X31.0901 Y30.5180
G1 X31.0802 Y30.5166
G1 X31.0704 Y30.5152
G1 X31.0605 Y30.5138
G1 X31.0506 Y30.5125
G1 X31.0407 Y30.5111
G1 X31.0308 Y30.5098
G1 X31.0209 Y30.5084
G1 X31.0110 Y30.5071
G1 X31.0011 Y30.5058
G1 X30.9912 Y30.5045
G1 X30.9813 Y30.5031
G1 X30.9714 Y30.5019
G1 X30.9615 Y30.5006
G1 X30.9516 Y30.4993
G1 X30.9417 Y30.4980
G1 X30.9318 Y30.4968
G1 X30.9219 Y30.4955
G1 X30.9120 Y30.4943
G1 X30.9020 Y30.4931
G1 X30.8921 Y30.4919
G1 X30.8822 Y30.4906
G1 X30.8723 Y30.4893
G1 X30.8624 Y30.4880
G1 X30.8525 Y30.4867
G1 X30.8426 Y30.4854
G1 X30.8327 Y30.4841
G1 X30.8227 Y30.4828
G1 X30.8128 Y30.4815
G1 X30.8029 Y30.4802
G1 X30.7930 Y30.4788
G1 X30.7831 Y30.4775
G1 X30.7732 Y30.4762
G1 X30.7633 Y30.4749
G1 X30.7534 Y30.4736
G1 X30.7435 Y30.4722
G1 X30.7336 Y30.4709
G1 X30.7237 Y30.4696
G1 X30.7138 Y30.4682
G1 X30.7039 Y30.4669
G1 X30.6940 Y30.4656
G1 X30.6841 Y30.4642
G1 X30.6742 Y30.4629
G1 X30.6643 Y30.4615
G1 X30.6544 Y30.4602
G1 X30.6445 Y30.4588
G1 X30.6346 Y30.4575
G1 X30.6247 Y30.4561
G1 X30.6148 Y30.4548
G1 X30.6049 Y30.4534
G1 X30.5949 Y30.4520
G1 X30.5850 Y30.4507
G1 X30.5751 Y30.4493
G1 X30.5652 Y30.4479
G1 X30.5554 Y30.4466
G1 X30.5455 Y30.4452
G1 X30.5356 Y30.4438
G1 X30.5257 Y30.4424
G1 X30.5158 Y30.4411
G1 X30.5059 Y30.4397
G1 X30.4960 Y30.4383
G1 X30.4861 Y30.4369
G1 X30.4762 Y30.4355
G1 X30.4663 Y30.4341
G1 X30.4564 Y30.4327
G1 X30.4465 Y30.4313
G1 X30.4366 Y30.4299
G1 X30.4267 Y30.4285
G1 X30.4168 Y30.4271
G1 X30.4069 Y30.4257
G1 X30.3970 Y30.4243
G1 X30.3871 Y30.4229
G1 X30.3772 Y30.4215
G1 X30.3673 Y30.4201
G1 X30.3574 Y30.4186
G1 X30.3475 Y30.4172
G1 X30.3376 Y30.4158
G1 X30.3278 Y30.4144
G1 X30.3179 Y30.4129
G1 X30.3080 Y30.4115
G1 X30.2981 Y30.4101
G1 X30.2882 Y30.4086
G1 X30.2783 Y30.4072
G1 X30.2684 Y30.4058
G1 X30.2585 Y30.4043
G1 X30.2486 Y30.4029
G1 X30.2387 Y30.4014
G1 X30.2289 Y30.4000
G1 X30.2190 Y30.3985
G1 X30.2091 Y30.3971
G1 X30.1992 Y30.3956
G1 X30.1893 Y30.3942
G1 X30.1794 Y30.3927
G1 X30.1695 Y30.3912
G1 X30.1596 Y30.3898
G1 X30.1498 Y30.3883
G1 X30.1399 Y30.3868
G1 X30.1300 Y30.3854
G1 X30.1201 Y30.3839
G1 X30.1102 Y30.3824
G1 X30.1003 Y30.3809
G1 X30.0905 Y30.3794
G1 X30.0806 Y30.3780
G1 X30.0707 Y30.3765
G1 X30.0608 Y30.3750
G1 X30.0509 Y30.3735
G1 X30.0410 Y30.3720
G1 X30.0312 Y30.3705
G1 X30.0213 Y30.3690
G1 X30.0114 Y30.3675
G1 X30.0015 Y30.3660
G1 X29.9916 Y30.3645
G1 X29.9818 Y30.3630
G1 X29.9719 Y30.3615
G1 X29.9620 Y30.3600
G1 X29.9521 Y30.3584
G1 X29.9422 Y30.3569
G1 X29.9324 Y30.3554
G1 X29.9225 Y30.3539
G1 X29.9126 Y30.3524
G1 X29.9027 Y30.3508
G1 X29.8929 Y30.3493
G1 X29.8830 Y30.3478
G1 X29.8731 Y30.3462
G1 X29.8632 Y30.3447
G1 X29.8534 Y30.3432
G1 X29.8435 Y30.3416
G1 X29.8336 Y30.3401
G1 X29.8237 Y30.3385
G1 X29.8139 Y30.3370
G1 X29.8040 Y30.3354
G1 X29.7941 Y30.3339
G1 X29.7842 Y30.3323
G1 X29.7744 Y30.3308
G1 X29.7645 Y30.3292
G1 X29.7546 Y30.3277
G1 X29.7448 Y30.3261
G1 X29.7349 Y30.3245
G1 X29.7250 Y30.3230
G1 X29.7151 Y30.3214
G1 X29.7053 Y30.3198
G1 X29.6954 Y30.3182
G1 X29.6855 Y30.3167
G1 X29.6757 Y30.3151
G1 X29.6658 Y30.3135
G1 X29.6559 Y30.3119
G1 X29.6461 Y30.3103
G1 X29.6362 Y30.3087
G1 X29.6263 Y30.3071
G1 X29.6165 Y30.3055
G1 X29.6066 Y30.3039
G1 X29.5967 Y30.3023
G1 X29.5869 Y30.3007
G1 X29.5770 Y30.2991
G1 X29.5671 Y30.2975
G1 X29.5573 Y30.2959
G1 X29.5474 Y30.2943
G1 X29.5376 Y30.2927
G1 X29.5277 Y30.2911
G1 X29.5178 Y30.2895
G1 X29.5080 Y30.2878
G1 X29.4981 Y30.2862
G1 X29.4882 Y30.2846
G1 X29.4784 Y30.2830
G1 X29.4685 Y30.2813
G1 X29.4587 Y30.2797
G1 X29.4488 Y30.2781
G1 X29.4389 Y30.2764
G1 X29.4291 Y30.2748
G1 X29.4192 Y30.2732
G1 X29.4094 Y30.2715
G1 X29.3995 Y30.2699
G1 X29.3897 Y30.2682
G1 X29.3798 Y30.2666
G1 X29.3699 Y30.2649
G1 X29.3601 Y30.2633
G1 X29.3502 Y30.2616
G1 X29.3404 Y30.2599
G1 X29.3305 Y30.2583
G1 X29.3207 Y30.2566
G1 X29.3108 Y30.2549
G1 X29.3010 Y30.2533
G1 X29.2911 Y30.2516
G1 X29.2813 Y30.2499
G1 X29.2714 Y30.2482
G1 X29.2616 Y30.2466
G1 X29.2517 Y30.2449
G1 X29.2419 Y30.2432
G1 X29.2320 Y30.2415
G1 X29.2221 Y30.2398
G1 X29.2123 Y30.2381
G1 X29.2024 Y30.2364
G1 X29.1926 Y30.2347
G1 X29.1828 Y30.2331
G1 X29.1729 Y30.2314
G1 X29.1631 Y30.2296
G1 X29.1532 Y30.2279
G1 X29.1434 Y30.2262
G1 X29.1335 Y30.2245
G1 X29.1237 Y30.2228
G1 X29.1138 Y30.2211
G1 X29.1040 Y30.2194
G1 X29.0941 Y30.2177
G1 X29.0843 Y30.2159
G1 X29.0744 Y30.2142
G1 X29.0646 Y30.2125
G1 X29.0548 Y30.2108
G1 X29.0449 Y30.2090
G1 X29.0351 Y30.2073
G1 X29.0252 Y30.2056
G1 X29.0154 Y30.2038
G1 X29.0055 Y30.2021
G1 X28.9957 Y30.2003
G1 X28.9859 Y30.1986
G1 X28.9760 Y30.1969
G1 X28.9662 Y30.1951
G1 X28.9563 Y30.1934
G1 X28.9465 Y30.1916
G1 X28.9367 Y30.1898
G1 X28.9268 Y30.1881
G1 X28.9170 Y30.1863
G1 X28.9072 Y30.1846
G1 X28.8973 Y30.1828
G1 X28.8875 Y30.1810
G1 X28.8776 Y30.1793
G1 X28.8678 Y30.1775
G1 X28.8580 Y30.1757
G1 X28.8481 Y30.1739
G1 X28.8383 Y30.1722
G1 X28.8285 Y30.1704
G1 X28.8186 Y30.1686
G1 X28.8088 Y30.1668
G1 X28.7990 Y30.1650
G1 X28.7891 Y30.1632
G1 X28.7793 Y30.1614
G1 X28.7695 Y30.1596
G1 X28.7596 Y30.1578
G1 X28.7498 Y30.1560
G1 X28.7400 Y30.1542
G1 X28.7302 Y30.1524
G1 X28.7203 Y30.1506
G1 X28.7105 Y30.1488
G1 X28.7007 Y30.1470
G1 X28.6908 Y30.1452
G1 X28.6810 Y30.1434
G1 X28.6712 Y30.1415
G1 X28.6614 Y30.1397
G1 X28.6515 Y30.1379
G1 X28.6417 Y30.1361
G1 X28.6319 Y30.1342
G1 X28.6221 Y30.1324
G1 X28.6122 Y30.1306
G1 X28.6024 Y30.1287
G1 X28.5926 Y30.1269
G1 X28.5828 Y30.1251
G1 X28.5729 Y30.1232
G1 X28.5631 Y30.1214
G1 X28.5533 Y30.1195
G1 X28.5435 Y30.1177
G1 X28.5337 Y30.1158
G1 X28.5238 Y30.1140
G1 X28.5140 Y30.1121
G1 X28.5042 Y30.1103
G1 X28.4944 Y30.1084
G1 X28.4846 Y30.1065
G1 X28.4747 Y30.1047
G1 X28.4649 Y30.1028
G1 X28.4551 Y30.1009
G1 X28.4453 Y30.0991
G1 X28.4355 Y30.0972
G1 X28.4257 Y30.0953
G1 X28.4158 Y30.0934
G1 X28.4060 Y30.0915
G1 X28.3962 Y30.0897
G1 X28.3864 Y30.0878
G1 X28.3766 Y30.0859
G1 X28.3668 Y30.0840
G1 X28.3570 Y30.0821
G1 X28.3471 Y30.0802
G1 X28.3373 Y30.0783
G1 X28.3275 Y30.0764
G1 X28.3177 Y30.0745
G1 X28.3079 Y30.0726
G1 X28.2981 Y30.0707
G1 X28.2883 Y30.0688
G1 X28.2785 Y30.0669
G1 X28.2687 Y30.0649
G1 X28.2588 Y30.0630
G1 X28.2490 Y30.0611
G1 X28.2392 Y30.0592
G1 X28.2294 Y30.0573
G1 X28.2196 Y30.0553
G1 X28.2098 Y30.0534
G1 X28.2000 Y30.0515
G1 X28.1902 Y30.0495
G1 X28.1804 Y30.0476
G1 X28.1706 Y30.0457
G1 X28.1608 Y30.0437
G1 X28.1510 Y30.0418
G1 X28.1412 Y30.0398
G1 X28.1314 Y30.0379
G1 X28.1216 Y30.0359
G1 X28.1118 Y30.0340
G1 X28.1020 Y30.0320
G1 X28.0922 Y30.0301
G1 X28.0824 Y30.0281
G1 X28.0726 Y30.0262
G1 X28.0628 Y30.0242
G1 X28.0530 Y30.0222
G1 X28.0432 Y30.0203
G1 X28.0334 Y30.0183
G1 X28.0236 Y30.0163
G1 X28.0138 Y30.0143
G1 X28.0040 Y30.0124
G1 X27.9942 Y30.0104
G1 X27.9844 Y30.0084
G1 X27.9746 Y30.0064
G1 X27.9648 Y30.0044
G1 X27.9550 Y30.0024
G1 X27.9452 Y30.0005
G1 X27.9354 Y29.9985
G1 X27.9256 Y29.9965
G1 X27.9158 Y29.9945
G1 X27.9061 Y29.9925
G1 X27.8963 Y29.9905
G1 X27.8865 Y29.9885
G1 X27.8767 Y29.9864
G1 X27.8669 Y29.9844
G1 X27.8571 Y29.9824
G1 X27.8473 Y29.9804
G1 X27.8375 Y29.9784
G1 X27.8277 Y29.9764
G1 X27.8179 Y29.9744
G1 X27.8082 Y29.9723
G1 X27.7984 Y29.9703
G1 X27.7886 Y29.9683
G1 X27.7788 Y29.9662
G1 X27.7690 Y29.9642
G1 X27.7592 Y29.9622
G1 X27.7494 Y29.9601
G1 X27.7397 Y29.9581
G1 X27.7299 Y29.9560
G1 X27.7201 Y29.9540
G1 X27.7103 Y29.9520
G1 X27.7005 Y29.9499
G1 X27.6908 Y29.9479
G1 X27.6810 Y29.9458
G1 X27.6712 Y29.9437
G1 X27.6614 Y29.9417
G1 X27.6516 Y29.9396
G1 X27.6419 Y29.9376
G1 X27.6321 Y29.9355
G1 X27.6223 Y29.9334
G1 X27.6125 Y29.9314
G1 X27.6027 Y29.9293
G1 X27.5930 Y29.9272
G1 X27.5832 Y29.9251
G1 X27.5734 Y29.9230
G1 X27.5636 Y29.9210
G1 X27.5539 Y29.9189
G1 X27.5441 Y29.9168
G1 X27.5343 Y29.9147
G1 X27.5246 Y29.9126
G1 X27.5148 Y29.9105
G1 X27.5050 Y29.9084
G1 X27.4952 Y29.9063
G1 X27.4855 Y29.9042
G1 X27.4757 Y29.9021
G1 X27.4659 Y29.9000
G1 X27.4562 Y29.8979
G1 X27.4464 Y29.8958
G1 X27.4366 Y29.8937
G1 X27.4269 Y29.8916
G1 X27.4171 Y29.8895
G1 X27.4073 Y29.8873
G1 X27.3976 Y29.8852
G1 X27.3878 Y29.8831
G1 X27.3780 Y29.8810
G1 X27.3683 Y29.8788
G1 X27.3585 Y29.8767
G1 X27.3487 Y29.8746
G1 X27.3390 Y29.8724
G1 X27.3292 Y29.8703
G1 X27.3194 Y29.8682
G1 X27.3097 Y29.8660
G1 X27.2999 Y29.8639
G1 X27.2902 Y29.8617
G1 X27.2804 Y29.8596
G1 X27.2706 Y29.8574
G1 X27.2609 Y29.8553
G1 X27.2511 Y29.8531
G1 X27.2414 Y29.8510
G1 X27.2316 Y29.8488
G1 X27.2218 Y29.8466
G1 X27.2121 Y29.8445
G1 X27.2023 Y29.8423
G1 X27.1926 Y29.8401
G1 X27.1828 Y29.8379
G1 X27.1731 Y29.8358
G1 X27.1633 Y29.8336
G1 X27.1536 Y29.8314
G1 X27.1438 Y29.8292
G1 X27.1341 Y29.8271
G1 X27.1243 Y29.8249
G1 X27.1146 Y29.8227
G1 X27.1048 Y29.8205
G1 X27.0951 Y29.8183
G1 X27.0853 Y29.8161
G1 X27.0756 Y29.8139
G1 X27.0658 Y29.8117
G1 X27.0561 Y29.8095
G1 X27.0463 Y29.8073
G1 X27.0366 Y29.8051
G1 X27.0268 Y29.8029
G1 X27.0171 Y29.8007
G1 X27.0073 Y29.7984
G1 X26.9976 Y29.7962
G1 X26.9878 Y29.7940
G1 X26.9781 Y29.7918
G1 X26.9683 Y29.7896
G1 X26.9586 Y29.7873
G1 X26.9489 Y29.7851
G1 X26.9391 Y29.7829
G1 X26.9294 Y29.7806
G1 X26.9196 Y29.7784
G1 X26.9099 Y29.7762
G1 X26.9002 Y29.7739
G1 X26.8904 Y29.7717
G1 X26.8807 Y29.7694
G1 X26.8709 Y29.7672
G1 X26.8612 Y29.7650
G1 X26.8515 Y29.7627
G1 X26.8417 Y29.7604
G1 X26.8320 Y29.7582
G1 X26.8223 Y29.7559
G1 X26.8125 Y29.7537
G1 X26.8028 Y29.7514
G1 X26.7931 Y29.7491
G1 X26.7833 Y29.7469
G1 X26.7736 Y29.7446
G1 X26.7639 Y29.7423
G1 X26.7541 Y29.7401
G1 X26.7444 Y29.7378
G1 X26.7347 Y29.7355
G1 X26.7249 Y29.7332
G1 X26.7152 Y29.7309
G1 X26.7055 Y29.7287
G1 X26.6957 Y29.7264
G1 X26.6860 Y29.7241
G1 X26.6763 Y29.7218
G1 X26.6666 Y29.7195
G1 X26.6568 Y29.7172
G1 X26.6471 Y29.7149
G1 X26.6374 Y29.7126
G1 X26.6277 Y29.7103
G1 X26.6179 Y29.7080
G1 X26.6082 Y29.7057
G1 X26.5985 Y29.7034
G1 X26.5888 Y29.7010
G1 X26.5790 Y29.6987
G1 X26.5693 Y29.6964
G1 X26.5596 Y29.6941
G1 X26.5499 Y29.6918
G1 X26.5402 Y29.6894
G1 X26.5304 Y29.6871
G1 X26.5207 Y29.6848
G1 X26.5110 Y29.6824
G1 X26.5013 Y29.6801
G1 X26.4916 Y29.6778
G1 X26.4819 Y29.6754
G1 X26.4721 Y29.6731
G1 X26.4624 Y29.6708
G1 X26.4527 Y29.6684
G1 X26.4430 Y29.6661
G1 X26.4333 Y29.6637
G1 X26.4236 Y29.6614
G1 X26.4139 Y29.6590
G1 X26.4041 Y29.6566
G1 X26.3944 Y29.6543
G1 X26.3847 Y29.6519
G1 X26.3750 Y29.6496
G1 X26.3653 Y29.6472
G1 X26.3556 Y29.6448
G1 X26.3459 Y29.6424
G1 X26.3362 Y29.6401
G1 X26.3265 Y29.6377
G1 X26.3168 Y29.6353
G1 X26.3071 Y29.6329
G1 X26.2973 Y29.6306
G1 X26.2876 Y29.6282
G1 X26.2779 Y29.6258
G1 X26.2682 Y29.6234
G1 X26.2585 Y29.6210
G1 X26.2488 Y29.6186
G1 X26.2391 Y29.6162
G1 X26.2294 Y29.6138
G1 X26.2197 Y29.6114
G1 X26.2100 Y29.6090
G1 X26.2003 Y29.6066
G1 X26.1906 Y29.6042
G1 X26.1809 Y29.6018
G1 X26.1712 Y29.5994
G1 X26.1615 Y29.5970
G1 X26.1518 Y29.5945
G1 X26.1421 Y29.5921
G1 X26.1324 Y29.5897
G1 X26.1227 Y29.5873
G1 X26.1130 Y29.5848
G1 X26.1034 Y29.5824
G1 X26.0937 Y29.5800
G1 X26.0840 Y29.5775
G1 X26.0743 Y29.5751
G1 X26.0646 Y29.5727
G1 X26.0549 Y29.5702
G1 X26.0452 Y29.5678
G1 X26.0355 Y29.5653
G1 X26.0258 Y29.5629
G1 X26.0161 Y29.5604
G1 X26.0064 Y29.5580
G1 X25.9968 Y29.5555
G1 X25.9871 Y29.5531
G1 X25.9774 Y29.5506
G1 X25.9677 Y29.5482
G1 X25.9580 Y29.5457
G1 X25.9483 Y29.5432
G1 X25.9386 Y29.5408
G1 X25.9290 Y29.5383
G1 X25.9193 Y29.5358
G1 X25.9096 Y29.5333
G1 X25.8999 Y29.5309
G1 X25.8902 Y29.5284
G1 X25.8805 Y29.5259
G1 X25.8709 Y29.5234
G1 X25.8612 Y29.5209
G1 X25.8515 Y29.5184
G1 X25.8418 Y29.5160
G1 X25.8321 Y29.5135
G1 X25.8225 Y29.5110
G1 X25.8128 Y29.5085
G1 X25.8031 Y29.5060
G1 X25.7934 Y29.5035
G1 X25.7838 Y29.5010
G1 X25.7741 Y29.4985
G1 X25.7644 Y29.4959
G1 X25.7547 Y29.4934
G1 X25.7451 Y29.4909
G1 X25.7354 Y29.4884
G1 X25.7257 Y29.4859
G1 X25.7161 Y29.4834
G1 X25.7064 Y29.4808
G1 X25.6967 Y29.4783
G1 X25.6870 Y29.4758
G1 X25.6774 Y29.4733
G1 X25.6677 Y29.4707
G1 X25.6580 Y29.4682
G1 X25.6484 Y29.4657
G1 X25.6387 Y29.4631
G1 X25.6290 Y29.4606
G1 X25.6194 Y29.4580
G1 X25.6097 Y29.4555
G1 X25.6001 Y29.4529
G1 X25.5904 Y29.4504
G1 X25.5807 Y29.4478
G1 X25.5711 Y29.4453
G1 X25.5614 Y29.4427
G1 X25.5517 Y29.4402
G1 X25.5421 Y29.4376
G1 X25.5324 Y29.4350
G1 X25.5228 Y29.4325
G1 X25.5131 Y29.4299
G1 X25.5035 Y29.4273
G1 X25.4938 Y29.4247
G1 X25.4841 Y29.4222
G1 X25.4745 Y29.4196
G1 X25.4648 Y29.4170
G1 X25.4552 Y29.4144
G1 X25.4455 Y29.4118
G1 X25.4359 Y29.4093
G1 X25.4262 Y29.4067
G1 X25.4166 Y29.4041
G1 X25.4069 Y29.4015
G1 X25.3973 Y29.3989
G1 X25.3876 Y29.3963
G1 X25.3780 Y29.3937
G1 X25.3683 Y29.3911
G1 X25.3587 Y29.3885
G1 X25.3490 Y29.3859
G1 X25.3394 Y29.3833
G1 X25.3297 Y29.3806
G1 X25.3201 Y29.3780
G1 X25.3104 Y29.3754
G1 X25.3008 Y29.3728
G1 X25.2911 Y29.3702
G1 X25.2815 Y29.3675
G1 X25.2719 Y29.3649
G1 X25.2622 Y29.3623
G1 X25.2526 Y29.3597
G1 X25.2429 Y29.3570
G1 X25.2333 Y29.3544
G1 X25.2237 Y29.3518
G1 X25.2140 Y29.3491
G1 X25.2044 Y29.3465
G1 X25.1947 Y29.3438
G1 X25.1851 Y29.3412
G1 X25.1755 Y29.3385
G1 X25.1658 Y29.3359
G1 X25.1562 Y29.3332
G1 X25.1466 Y29.3306
G1 X25.1369 Y29.3279
G1 X25.1273 Y29.3252
G1 X25.1177 Y29.3226
G1 X25.1080 Y29.3199
G1 X25.0984 Y29.3172
G1 X25.0888 Y29.3146
G1 X25.0791 Y29.3119
G1 X25.0695 Y29.3092
G1 X25.0599 Y29.3066
G1 X25.0502 Y29.3039
G1 X25.0406 Y29.3012
G1 X25.0310 Y29.2985
G1 X25.0214 Y29.2958
G1 X25.0117 Y29.2931
G1 X25.0021 Y29.2904
G1 X24.9925 Y29.2878
G1 X24.9829 Y29.2851
G1 X24.9732 Y29.2824
G1 X24.9636 Y29.2797
G1 X24.9540 Y29.2770
G1 X24.9444 Y29.2743
G1 X24.9348 Y29.2715
G1 X24.9251 Y29.2688
G1 X24.9155 Y29.2661
G1 X24.9059 Y29.2634
G1 X24.8963 Y29.2607
G1 X24.8867 Y29.2580
G1 X24.8770 Y29.2553
G1 X24.8674 Y29.2525
G1 X24.8578 Y29.2498
G1 X24.8482 Y29.2471
G1 X24.8386 Y29.2444
G1 X24.8290 Y29.2416
G1 X24.8194 Y29.2389
G1 X24.8097 Y29.2362
G1 X24.8001 Y29.2334
G1 X24.7905 Y29.2307
G1 X24.7809 Y29.2279
G1 X24.7713 Y29.2252
G1 X24.7617 Y29.2224
G1 X24.7521 Y29.2197
G1 X24.7425 Y29.2169
G1 X24.7329 Y29.2142
G1 X24.7233 Y29.2114
G1 X24.7137 Y29.2087
G1 X24.7041 Y29.2059
G1 X24.6945 Y29.2031
G1 X24.6849 Y29.2004
G1 X24.6752 Y29.1976
G1 X24.6656 Y29.1948
G1 X24.6560 Y29.1921
G1 X24.6464 Y29.1893
G1 X24.6368 Y29.1865
G1 X24.6272 Y29.1837
G1 X24.6176 Y29.1810
G1 X24.6080 Y29.1782
G1 X24.5984 Y29.1754
G1 X24.5889 Y29.1726
G1 X24.5793 Y29.1698
G1 X24.5697 Y29.1670
G1 X24.5601 Y29.1642
G1 X24.5505 Y29.1614
G1 X24.5409 Y29.1586
G1 X24.5313 Y29.1558
G1 X24.5217 Y29.1530
G1 X24.5121 Y29.1502
G1 X24.5025 Y29.1474
G1 X24.4929 Y29.1446
G1 X24.4833 Y29.1418
G1 X24.4737 Y29.1390
G1 X24.4641 Y29.1361
G1 X24.4546 Y29.1333
G1 X24.4450 Y29.1305
G1 X24.4354 Y29.1277
G1 X24.4258 Y29.1248
G1 X24.4162 Y29.1220
G1 X24.4066 Y29.1192
G1 X24.3970 Y29.1163
G1 X24.3875 Y29.1135
G1 X24.3779 Y29.1107
G1 X24.3683 Y29.1078
G1 X24.3587 Y29.1050
G1 X24.3491 Y29.1021
G1 X24.3396 Y29.0993
G1 X24.3300 Y29.0964
G1 X24.3204 Y29.0936
G1 X24.3108 Y29.0907
G1 X24.3012 Y29.0879
G1 X24.2917 Y29.0850
G1 X24.2821 Y29.0822
G1 X24.2725 Y29.0793
G1 X24.2629 Y29.0764
G1 X24.2534 Y29.0736
G1 X24.2438 Y29.0707
G1 X24.2342 Y29.0678
G1 X24.2247 Y29.0649
G1 X24.2151 Y29.0621
G1 X24.2055 Y29.0592
G1 X24.1959 Y29.0563
G1 X24.1864 Y29.0534
G1 X24.1768 Y29.0505
G1 X24.1672 Y29.0476
G1 X24.1577 Y29.0447
G1 X24.1481 Y29.0419
G1 X24.1385 Y29.0390
G1 X24.1290 Y29.0361
G1 X24.1194 Y29.0332
G1 X24.1099 Y29.0303
G1 X24.1003 Y29.0274
G1 X24.0907 Y29.0244
G1 X24.0812 Y29.0215
G1 X24.0716 Y29.0186
G1 X24.0620 Y29.0157
G1 X24.0525 Y29.0128
G1 X24.0429 Y29.0099
G1 X24.0334 Y29.0070
G1 X24.0238 Y29.0040
G1 X24.0143 Y29.0011
G1 X24.0047 Y28.9982
G1 X23.9951 Y28.9953
G1 X23.9856 Y28.9923
G1 X23.9760 Y28.9894
G1 X23.9665 Y28.9864
G1 X23.9569 Y28.9835
G1 X23.9474 Y28.9806
G1 X23.9378 Y28.9776
G1 X23.9283 Y28.9747
G1 X23.9187 Y28.9717
G1 X23.9092 Y28.9688
G1 X23.8996 Y28.9658
G1 X23.8901 Y28.9629
G1 X23.8805 Y28.9599
G1 X23.8710 Y28.9570
G1 X23.8615 Y28.9540
G1 X23.8519 Y28.9510
G1 X23.8424 Y28.9481
G1 X23.8328 Y28.9451
G1 X23.8233 Y28.9421
G1 X23.8137 Y28.9392
G1 X23.8042 Y28.9362
G1 X23.7947 Y28.9332
G1 X23.7851 Y28.9302
G1 X23.7756 Y28.9272
G1 X23.7660 Y28.9243
G1 X23.7565 Y28.9213
G1 X23.7470 Y28.9183
G1 X23.7374 Y28.9153
G1 X23.7279 Y28.9123
G1 X23.7184 Y28.9093
G1 X23.7088 Y28.9063
G1 X23.6993 Y28.9033
G1 X23.6898 Y28.9003
G1 X23.6802 Y28.8973
G1 X23.6707 Y28.8943
G1 X23.6612 Y28.8913
G1 X23.6516 Y28.8883
G1 X23.6421 Y28.8853
G1 X23.6326 Y28.8822
G1 X23.6231 Y28.8792
G1 X23.6135 Y28.8762
G1 X23.6040 Y28.8732
G1 X23.5945 Y28.8702
G1 X23.5849 Y28.8671
G1 X23.5754 Y28.8641
G1 X23.5659 Y28.8611
G1 X23.5564 Y28.8580
G1 X23.5469 Y28.8550
G1 X23.5373 Y28.8520
G1 X23.5278 Y28.8489
G1 X23.5183 Y28.8459
G1 X23.5088 Y28.8428
G1 X23.4993 Y28.8398
G1 X23.4897 Y28.8367
G1 X23.4802 Y28.8337
G1 X23.4707 Y28.8306
G1 X23.4612 Y28.8276
G1 X23.4517 Y28.8245
G1 X23.4422 Y28.8215
G1 X23.4327 Y28.8184
G1 X23.4231 Y28.8153
G1 X23.4136 Y28.8123
G1 X23.4041 Y28.8092
G1 X23.3946 Y28.8061
G1 X23.3851 Y28.8030
G1 X23.3756 Y28.8000
G1 X23.3661 Y28.7969
G1 X23.3566 Y28.7938
G1 X23.3471 Y28.7907
G1 X23.3376 Y28.7876
G1 X23.3281 Y28.7845
G1 X23.3186 Y28.7815
G1 X23.3091 Y28.7784
G1 X23.2995 Y28.7753
G1 X23.2900 Y28.7722
G1 X23.2805 Y28.7691
G1 X23.2710 Y28.7660
G1 X23.2615 Y28.7629
G1 X23.2520 Y28.7598
G1 X23.2425 Y28.7567
G1 X23.2330 Y28.7535
G1 X23.2236 Y28.7504
G1 X23.2141 Y28.7473
G1 X23.2046 Y28.7442
G1 X23.1951 Y28.7411
G1 X23.1856 Y28.7380
G1 X23.1761 Y28.7348
G1 X23.1666 Y28.7317
G1 X23.1571 Y28.7286
G1 X23.1476 Y28.7254
G1 X23.1381 Y28.7223
G1 X23.1286 Y28.7192
G1 X23.1191 Y28.7160
G1 X23.1096 Y28.7129
G1 X23.1002 Y28.7098
G1 X23.0907 Y28.7066
G1 X23.0812 Y28.7035
G1 X23.0717 Y28.7003
G1 X23.0622 Y28.6972
G1 X23.0527 Y28.6940
G1 X23.0433 Y28.6909
G1 X23.0338 Y28.6877
G1 X23.0243 Y28.6845
G1 X23.0148 Y28.6814
G1 X23.0053 Y28.6782
G1 X22.9959 Y28.6750
G1 X22.9864 Y28.6719
G1 X22.9769 Y28.6687
G1 X22.9674 Y28.6655
G1 X22.9579 Y28.6624
G1 X22.9485 Y28.6592
G1 X22.9390 Y28.6560
G1 X22.9295 Y28.6528
G1 X22.9200 Y28.6496
G1 X22.9106 Y28.6464
G1 X22.9011 Y28.6432
G1 X22.8916 Y28.6401
G1 X22.8822 Y28.6369
G1 X22.8727 Y28.6337
G1 X22.8632 Y28.6305
G1 X22.8538 Y28.6273
G1 X22.8443 Y28.6241
G1 X22.8348 Y28.6209
G1 X22.8254 Y28.6177
G1 X22.8159 Y28.6144
G1 X22.8064 Y28.6112
G1 X22.7970 Y28.6080
G1 X22.7875 Y28.6048
G1 X22.7780 Y28.6016
G1 X22.7686 Y28.5984
G1 X22.7591 Y28.5951
G1 X22.7497 Y28.5919
G1 X22.7402 Y28.5887
G1 X22.7307 Y28.5855
G1 X22.7213 Y28.5822
G1 X22.7118 Y28.5790
G1 X22.7024 Y28.5758
G1 X22.6929 Y28.5725
G1 X22.6835 Y28.5693
G1 X22.6740 Y28.5660
G1 X22.6646 Y28.5628
G1 X22.6551 Y28.5595
G1 X22.6457 Y28.5563
G1 X22.6362 Y28.5530
G1 X22.6268 Y28.5498
G1 X22.6173 Y28.5465
G1 X22.6079 Y28.5433
G1 X22.5984 Y28.5400
G1 X22.5890 Y28.5367
G1 X22.5795 Y28.5335
G1 X22.5701 Y28.5302
G1 X22.5606 Y28.5269
G1 X22.5512 Y28.5237
G1 X22.5418 Y28.5204
G1 X22.5323 Y28.5171
G1 X22.5229 Y28.5138
G1 X22.5134 Y28.5105
G1 X22.5040 Y28.5073
G1 X22.4946 Y28.5040
G1 X22.4851 Y28.5007
G1 X22.4757 Y28.4974
G1 X22.4662 Y28.4941
G1 X22.4568 Y28.4908
G1 X22.4474 Y28.4875
G1 X22.4379 Y28.4842
G1 X22.4285 Y28.4809
G1 X22.4191 Y28.4776
G1 X22.4096 Y28.4743
G1 X22.4002 Y28.4710
G1 X22.3908 Y28.4677
G1 X22.3814 Y28.4644
G1 X22.3719 Y28.4611
G1 X22.3625 Y28.4577
G1 X22.3531 Y28.4544
G1 X22.3436 Y28.4511
G1 X22.3342 Y28.4478
G1 X22.3248 Y28.4444
G1 X22.3154 Y28.4411
G1 X22.3060 Y28.4378
G1 X22.2965 Y28.4345
G1 X22.2871 Y28.4311
G1 X22.2777 Y28.4278
G1 X22.2683 Y28.4244
G1 X22.2589 Y28.4211
G1 X22.2494 Y28.4178
G1 X22.2400 Y28.4144
G1 X22.2306 Y28.4111
G1 X22.2212 Y28.4077
G1 X22.2118 Y28.4044
G1 X22.2024 Y28.4010
G1 X22.1929 Y28.3976
G1 X22.1835 Y28.3943
G1 X22.1741 Y28.3909
G1 X22.1647 Y28.3876
G1 X22.1553 Y28.3842
G1 X22.1459 Y28.3808
G1 X22.1365 Y28.3774
G1 X22.1271 Y28.3741
G1 X22.1177 Y28.3707
G1 X22.1083 Y28.3673
G1 X22.0989 Y28.3639
G1 X22.0895 Y28.3606
G1 X22.0800 Y28.3572
G1 X22.0706 Y28.3538
G1 X22.0612 Y28.3504
G1 X22.0518 Y28.3470
G1 X22.0424 Y28.3436
G1 X22.0330 Y28.3402
G1 X22.0236 Y28.3368
G1 X22.0142 Y28.3334
G1 X22.0048 Y28.3300
G1 X21.9955 Y28.3266
G1 X21.9861 Y28.3232
G1 X21.9767 Y28.3198
G1 X21.9673 Y28.3164
G1 X21.9579 Y28.3130
G1 X21.9485 Y28.3096
G1 X21.9391 Y28.3061
G1 X21.9297 Y28.3027
G1 X21.9203 Y28.2993
G1 X21.9109 Y28.2959
G1 X21.9015 Y28.2924
G1 X21.8921 Y28.2890
G1 X21.8828 Y28.2856
G1 X21.8734 Y28.2822
G1 X21.8640 Y28.2787
G1 X21.8546 Y28.2753
G1 X21.8452 Y28.2718
G1 X21.8358 Y28.2684
G1 X21.8265 Y28.2650
G1 X21.8171 Y28.2615
G1 X21.8077 Y28.2581
G1 X21.7983 Y28.2546
G1 X21.7889 Y28.2512
G1 X21.7796 Y28.2477
G1 X21.7702 Y28.2442
G1 X21.7608 Y28.2408
G1 X21.7514 Y28.2373
G1 X21.7421 Y28.2339
G1 X21.7327 Y28.2304
G1 X21.7233 Y28.2269
G1 X21.7139 Y28.2234
G1 X21.7046 Y28.2200
G1 X21.6952 Y28.2165
G1 X21.6858 Y28.2130
G1 X21.6765 Y28.2095
G1 X21.6671 Y28.2061
G1 X21.6577 Y28.2026
G1 X21.6484 Y28.1991
G1 X21.6390 Y28.1956
G1 X21.6296 Y28.1921
G1 X21.6203 Y28.1886
G1 X21.6109 Y28.1851
G1 X21.6015 Y28.1816
G1 X21.5922 Y28.1781
G1 X21.5828 Y28.1746
G1 X21.5735 Y28.1711
G1 X21.5641 Y28.1676
G1 X21.5547 Y28.1641
G1 X21.5454 Y28.1606
G1 X21.5360 Y28.1571
G1 X21.5267 Y28.1535
G1 X21.5173 Y28.1500
G1 X21.5080 Y28.1465
G1 X21.4986 Y28.1430
G1 X21.4893 Y28.1395
G1 X21.4799 Y28.1359
G1 X21.4706 Y28.1324
G1 X21.4612 Y28.1289
G1 X21.4519 Y28.1253
G1 X21.4425 Y28.1218
G1 X21.4332 Y28.1183
G1 X21.4238 Y28.1147
G1 X21.4145 Y28.1112
G1 X21.4051 Y28.1076
G1 X21.3958 Y28.1041
G1 X21.3865 Y28.1005
G1 X21.3771 Y28.0970
G1 X21.3678 Y28.0934
G1 X21.3584 Y28.0899
G1 X21.3491 Y28.0863
G1 X21.3398 Y28.0828
G1 X21.3304 Y28.0792
G1 X21.3211 Y28.0756
G1 X21.3117 Y28.0721
G1 X21.3024 Y28.0685
G1 X21.2931 Y28.0649
G1 X21.2837 Y28.0614
G1 X21.2744 Y28.0578
G1 X21.2651 Y28.0542
G1 X21.2557 Y28.0506
G1 X21.2464 Y28.0470
G1 X21.2371 Y28.0435
G1 X21.2278 Y28.0399
G1 X21.2184 Y28.0363
G1 X21.2091 Y28.0327
G1 X21.1998 Y28.0291
G1 X21.1905 Y28.0255
G1 X21.1811 Y28.0219
G1 X21.1718 Y28.0183
G1 X21.1625 Y28.0147
G1 X21.1532 Y28.0111
G1 X21.1438 Y28.0075
G1 X21.1345 Y28.0039
G1 X21.1252 Y28.0003
G1 X21.1159 Y27.9967
G1 X21.1066 Y27.9930
G1 X21.0973 Y27.9894
G1 X21.0879 Y27.9858
G1 X21.0786 Y27.9822
G1 X21.0693 Y27.9786
G1 X21.0600 Y27.9749
G1 X21.0507 Y27.9713
G1 X21.0414 Y27.9677
G1 X21.0321 Y27.9640
G1 X21.0228 Y27.9604
G1 X21.0134 Y27.9568
G1 X21.0041 Y27.9531
G1 X20.9948 Y27.9495
G1 X20.9855 Y27.9458
G1 X20.9762 Y27.9422
G1 X20.9669 Y27.9385
G1 X20.9576 Y27.9349
G1 X20.9483 Y27.9312
G1 X20.9390 Y27.9276
G1 X20.9297 Y27.9239
G1 X20.9204 Y27.9203
G1 X20.9111 Y27.9166
G1 X20.9018 Y27.9129
G1 X20.8925 Y27.9093
G1 X20.8832 Y27.9056
G1 X20.8739 Y27.9019
G1 X20.8646 Y27.8983
G1 X20.8553 Y27.8946
G1 X20.8460 Y27.8909
G1 X20.8368 Y27.8872
G1 X20.8275 Y27.8835
G1 X20.8182 Y27.8799
G1 X20.8089 Y27.8762
G1 X20.7996 Y27.8725
G1 X20.7903 Y27.8688
G1 X20.7810 Y27.8651
G1 X20.7717 Y27.8614
G1 X20.7624 Y27.8577
G1 X20.7532 Y27.8540
G1 X20.7439 Y27.8503
G1 X20.7346 Y27.8466
G1 X20.7253 Y27.8429
G1 X20.7160 Y27.8392
G1 X20.7068 Y27.8355
G1 X20.6975 Y27.8318
G1 X20.6882 Y27.8280
G1 X20.6789 Y27.8243
G1 X20.6696 Y27.8206
G1 X20.6604 Y27.8169
G1 X20.6511 Y27.8132
G1 X20.6418 Y27.8094
G1 X20.6326 Y27.8057
G1 X20.6233 Y27.8020
G1 X20.6140 Y27.7983
G1 X20.6047 Y27.7945
G1 X20.5955 Y27.7908
G1 X20.5862 Y27.7870
G1 X20.5769 Y27.7833
G1 X20.5677 Y27.7796
G1 X20.5584 Y27.7758
G1 X20.5491 Y27.7721
G1 X20.5399 Y27.7683
G1 X20.5306 Y27.7646
G1 X20.5213 Y27.7608
G1 X20.5121 Y27.7570
G1 X20.5028 Y27.7533
G1 X20.4936 Y27.7495
G1 X20.4843 Y27.7458
G1 X20.4751 Y27.7420
G1 X20.4658 Y27.7382
G1 X20.4565 Y27.7345
G1 X20.4473 Y27.7307
G1 X20.4380 Y27.7269
G1 X20.4288 Y27.7231
G1 X20.4195 Y27.7194
G1 X20.4103 Y27.7156
G1 X20.4010 Y27.7118
G1 X20.3918 Y27.7080
G1 X20.3825 Y27.7042
G1 X20.3733 Y27.7004
G1 X20.3640 Y27.6966
G1 X20.3548 Y27.6928
G1 X20.3455 Y27.6890
G1 X20.3363 Y27.6852
G1 X20.3271 Y27.6814
G1 X20.3178 Y27.6776
G1 X20.3086 Y27.6738
G1 X20.2993 Y27.6700
G1 X20.2901 Y27.6662
G1 X20.2809 Y27.6624
G1 X20.2716 Y27.6586
G1 X20.2624 Y27.6548
G1 X20.2531 Y27.6510
G1 X20.2439 Y27.6471
G1 X20.2347 Y27.6433
G1 X20.2254 Y27.6395
G1 X20.2162 Y27.6357
G1 X20.2070 Y27.6318
G1 X20.1977 Y27.6280
G1 X20.1885 Y27.6242
G1 X20.1793 Y27.6203
G1 X20.1701 Y27.6165
G1 X20.1608 Y27.6127
G1 X20.1516 Y27.6088
G1 X20.1424 Y27.6050
G1 X20.1332 Y27.6011
G1 X20.1239 Y27.5973
G1 X20.1147 Y27.5934
G1 X20.1055 Y27.5896
G1 X20.0963 Y27.5857
G1 X20.0871 Y27.5819
G1 X20.0778 Y27.5780
G1 X20.0686 Y27.5741
G1 X20.0594 Y27.5703
G1 X20.0502 Y27.5664
G1 X20.0410 Y27.5625
G1 X20.0318 Y27.5587
G1 X20.0225 Y27.5548
G1 X20.0133 Y27.5509
G1 X20.0041 Y27.5470
G1 X19.9949 Y27.5432
G1 X19.9857 Y27.5393
G1 X19.9765 Y27.5354
G1 X19.9673 Y27.5315
G1 X19.9581 Y27.5276
G1 X19.9489 Y27.5237
G1 X19.9397 Y27.5198
G1 X19.9305 Y27.5159
G1 X19.9213 Y27.5120
G1 X19.9121 Y27.5081
G1 X19.9029 Y27.5042
G1 X19.8937 Y27.5003
G1 X19.8845 Y27.4964
G1 X19.8753 Y27.4925
G1 X19.8661 Y27.4886
G1 X19.8569 Y27.4847
G1 X19.8477 Y27.4808
G1 X19.8385 Y27.4769
G1 X19.8293 Y27.4730
G1 X19.8201 Y27.4690
G1 X19.8109 Y27.4651
G1 X19.8017 Y27.4612
G1 X19.7925 Y27.4573
G1 X19.7833 Y27.4533
G1 X19.7741 Y27.4494
G1 X19.7650 Y27.4455
G1 X19.7558 Y27.4415
G1 X19.7466 Y27.4376
G1 X19.7374 Y27.4336
G1 X19.7282 Y27.4297
G1 X19.7190 Y27.4258
G1 X19.7098 Y27.4218
G1 X19.7007 Y27.4179
G1 X19.6915 Y27.4139
G1 X19.6823 Y27.4100
G1 X19.6731 Y27.4060
G1 X19.6640 Y27.4020
G1 X19.6548 Y27.3981
G1 X19.6456 Y27.3941
G1 X19.6364 Y27.3902
G1 X19.6273 Y27.3862
G1 X19.6181 Y27.3822
G1 X19.6089 Y27.3782
G1 X19.5997 Y27.3743
G1 X19.5906 Y27.3703
G1 X19.5814 Y27.3663
G1 X19.5722 Y27.3623
G1 X19.5631 Y27.3584
G1 X19.5539 Y27.3544
G1 X19.5447 Y27.3504
G1 X19.5356 Y27.3464
G1 X19.5264 Y27.3424
G1 X19.5173 Y27.3384
G1 X19.5081 Y27.3344
G1 X19.4989 Y27.3304
G1 X19.4898 Y27.3264
G1 X19.4806 Y27.3224
G1 X19.4715 Y27.3184
G1 X19.4623 Y27.3144
G1 X19.4532 Y27.3104
G1 X19.4440 Y27.3064
G1 X19.4348 Y27.3024
G1 X19.4257 Y27.2984
G1 X19.4165 Y27.2943
G1 X19.4074 Y27.2903
G1 X19.3982 Y27.2863
G1 X19.3891 Y27.2823
G1 X19.3799 Y27.2783
G1 X19.3708 Y27.2742
G1 X19.3617 Y27.2702
G1 X19.3525 Y27.2662
G1 X19.3434 Y27.2621
G1 X19.3342 Y27.2581
G1 X19.3251 Y27.2541
G1 X19.3159 Y27.2500
G1 X19.3068 Y27.2460
G1 X19.2977 Y27.2419
G1 X19.2885 Y27.2379
G1 X19.2794 Y27.2338
G1 X19.2702 Y27.2298
G1 X19.2611 Y27.2257
G1 X19.2520 Y27.2216
G1 X19.2429 Y27.2175
G1 X19.2338 Y27.2134
G1 X19.2246 Y27.2093
G1 X19.2155 Y27.2052
G1 X19.2064 Y27.2010
G1 X19.1973 Y27.1969
G1 X19.1883 Y27.1927
G1 X19.1792 Y27.1885
G1 X19.1701 Y27.1844
G1 X19.1610 Y27.1802
G1 X19.1520 Y27.1760
G1 X19.1429 Y27.1717
G1 X19.1338 Y27.1675
G1 X19.1248 Y27.1633
G1 X19.1157 Y27.1590
G1 X19.1067 Y27.1548
G1 X19.0976 Y27.1505
G1 X19.0886 Y27.1462
G1 X19.0796 Y27.1419
G1 X19.0706 Y27.1376
G1 X19.0615 Y27.1333
G1 X19.0525 Y27.1290
G1 X19.0435 Y27.1247
G1 X19.0345 Y27.1203
G1 X19.0255 Y27.1160
G1 X19.0165 Y27.1116
G1 X19.0075 Y27.1072
G1 X18.9986 Y27.1028
G1 X18.9896 Y27.0984
G1 X18.9806 Y27.0940
G1 X18.9716 Y27.0896
G1 X18.9627 Y27.0852
G1 X18.9537 Y27.0808
G1 X18.9448 Y27.0763
G1 X18.9358 Y27.0718
G1 X18.9269 Y27.0674
G1 X18.9179 Y27.0629
G1 X18.9090 Y27.0584
G1 X18.9001 Y27.0539
G1 X18.8912 Y27.0494
G1 X18.8823 Y27.0449
G1 X18.8733 Y27.0403
G1 X18.8644 Y27.0358
G1 X18.8555 Y27.0312
G1 X18.8466 Y27.0267
G1 X18.8378 Y27.0221
G1 X18.8289 Y27.0175
G1 X18.8200 Y27.0129
G1 X18.8111 Y27.0083
G1 X18.8023 Y27.0037
G1 X18.7934 Y26.9991
G1 X18.7845 Y26.9944
G1 X18.7757 Y26.9898
G1 X18.7669 Y26.9851
G1 X18.7580 Y26.9804
G1 X18.7492 Y26.9758
G1 X18.7404 Y26.9711
G1 X18.7315 Y26.9664
G1 X18.7227 Y26.9617
G1 X18.7139 Y26.9569
G1 X18.7051 Y26.9522
G1 X18.6963 Y26.9475
G1 X18.6875 Y26.9427
G1 X18.6787 Y26.9380
G1 X18.6699 Y26.9332
G1 X18.6612 Y26.9284
G1 X18.6524 Y26.9236
G1 X18.6436 Y26.9188
G1 X18.6349 Y26.9140
G1 X18.6261 Y26.9092
G1 X18.6174 Y26.9043
G1 X18.6086 Y26.8995
G1 X18.5999 Y26.8946
G1 X18.5911 Y26.8898
G1 X18.5824 Y26.8849
G1 X18.5737 Y26.8800
G1 X18.5650 Y26.8751
G1 X18.5563 Y26.8702
G1 X18.5476 Y26.8653
G1 X18.5389 Y26.8603
G1 X18.5302 Y26.8554
G1 X18.5215 Y26.8505
G1 X18.5128 Y26.8455
G1 X18.5041 Y26.8405
G1 X18.4955 Y26.8356
G1 X18.4868 Y26.8306
G1 X18.4782 Y26.8256
G1 X18.4695 Y26.8206
G1 X18.4609 Y26.8155
G1 X18.4522 Y26.8105
G1 X18.4436 Y26.8055
G1 X18.4350 Y26.8004
G1 X18.4263 Y26.7954
G1 X18.4177 Y26.7903
G1 X18.4091 Y26.7852
G1 X18.4005 Y26.7801
G1 X18.3919 Y26.7750
G1 X18.3833 Y26.7699
G1 X18.3747 Y26.7648
G1 X18.3662 Y26.7596
G1 X18.3576 Y26.7545
G1 X18.3490 Y26.7494
G1 X18.3405 Y26.7442
G1 X18.3319 Y26.7390
G1 X18.3234 Y26.7338
G1 X18.3148 Y26.7286
G1 X18.3063 Y26.7234
G1 X18.2978 Y26.7182
G1 X18.2892 Y26.7130
G1 X18.2807 Y26.7078
G1 X18.2722 Y26.7025
G1 X18.2637 Y26.6973
G1 X18.2552 Y26.6920
G1 X18.2467 Y26.6868
G1 X18.2382 Y26.6815
G1 X18.2297 Y26.6762
G1 X18.2213 Y26.6709
G1 X18.2128 Y26.6656
G1 X18.2043 Y26.6602
G1 X18.1959 Y26.6549
G1 X18.1874 Y26.6496
G1 X18.1790 Y26.6442
G1 X18.1705 Y26.6389
G1 X18.1621 Y26.6335
G1 X18.1537 Y26.6281
G1 X18.1453 Y26.6227
G1 X18.1369 Y26.6173
G1 X18.1285 Y26.6119
G1 X18.1201 Y26.6065
G1 X18.1117 Y26.6010
G1 X18.1033 Y26.5956
G1 X18.0949 Y26.5902
G1 X18.0865 Y26.5847
G1 X18.0782 Y26.5792
G1 X18.0698 Y26.5737
G1 X18.0615 Y26.5683
G1 X18.0531 Y26.5628
G1 X18.0448 Y26.5572
G1 X18.0364 Y26.5517
G1 X18.0281 Y26.5462
G1 X18.0198 Y26.5407
G1 X18.0115 Y26.5351
G1 X18.0032 Y26.5295
G1 X17.9949 Y26.5240
G1 X17.9866 Y26.5184
G1 X17.9783 Y26.5128
G1 X17.9700 Y26.5072
G1 X17.9617 Y26.5016
G1 X17.9535 Y26.4960
G1 X17.9452 Y26.4904
G1 X17.9369 Y26.4847
G1 X17.9287 Y26.4791
G1 X17.9204 Y26.4734
G1 X17.9122 Y26.4677
G1 X17.9040 Y26.4621
G1 X17.8958 Y26.4564
G1 X17.8875 Y26.4507
G1 X17.8793 Y26.4450
G1 X17.8711 Y26.4393
G1 X17.8629 Y26.4335
G1 X17.8548 Y26.4278
G1 X17.8466 Y26.4221
G1 X17.8384 Y26.4163
G1 X17.8302 Y26.4106
G1 X17.8221 Y26.4048
G1 X17.8139 Y26.3990
G1 X17.8058 Y26.3932
G1 X17.7976 Y26.3874
G1 X17.7895 Y26.3816
G1 X17.7814 Y26.3758
G1 X17.7732 Y26.3699
G1 X17.7651 Y26.3641
G1 X17.7570 Y26.3583
G1 X17.7489 Y26.3524
G1 X17.7408 Y26.3465
G1 X17.7328 Y26.3406
G1 X17.7247 Y26.3348
G1 X17.7166 Y26.3289
G1 X17.7085 Y26.3230
G1 X17.7005 Y26.3170
G1 X17.6924 Y26.3111
G1 X17.6844 Y26.3052
G1 X17.6763 Y26.2992
G1 X17.6683 Y26.2933
G1 X17.6603 Y26.2873
G1 X17.6523 Y26.2813
G1 X17.6443 Y26.2754
G1 X17.6363 Y26.2694
G1 X17.6283 Y26.2634
G1 X17.6203 Y26.2574
G1 X17.6123 Y26.2513
G1 X17.6043 Y26.2453
G1 X17.5964 Y26.2393
G1 X17.5884 Y26.2332
G1 X17.5805 Y26.2272
G1 X17.5725 Y26.2211
G1 X17.5646 Y26.2150
G1 X17.5566 Y26.2089
G1 X17.5487 Y26.2028
G1 X17.5408 Y26.1967
G1 X17.5329 Y26.1906
G1 X17.5250 Y26.1845
G1 X17.5171 Y26.1784
G1 X17.5092 Y26.1722
G1 X17.5013 Y26.1661
G1 X17.4935 Y26.1599
G1 X17.4856 Y26.1537
G1 X17.4777 Y26.1476
G1 X17.4699 Y26.1414
G1 X17.4620 Y26.1352
G1 X17.4542 Y26.1290
G1 X17.4464 Y26.1228
G1 X17.4386 Y26.1165
G1 X17.4307 Y26.1103
G1 X17.4229 Y26.1041
G1 X17.4151 Y26.0978
G1 X17.4073 Y26.0915
G1 X17.3996 Y26.0853
G1 X17.3918 Y26.0790
G1 X17.3840 Y26.0727
G1 X17.3763 Y26.0664
G1 X17.3685 Y26.0601
G1 X17.3607 Y26.0538
G1 X17.3530 Y26.0475
G1 X17.3453 Y26.0411
G1 X17.3376 Y26.0348
G1 X17.3298 Y26.0284
G1 X17.3221 Y26.0221
G1 X17.3144 Y26.0157
G1 X17.3067 Y26.0093
G1 X17.2990 Y26.0029
G1 X17.2914 Y25.9965
G1 X17.2837 Y25.9901
G1 X17.2760 Y25.9837
G1 X17.2684 Y25.9773
G1 X17.2607 Y25.9708
G1 X17.2531 Y25.9644
G1 X17.2454 Y25.9579
G1 X17.2378 Y25.9515
G1 X17.2302 Y25.9450
G1 X17.2226 Y25.9385
G1 X17.2150 Y25.9320
G1 X17.2074 Y25.9255
G1 X17.1998 Y25.9190
G1 X17.1922 Y25.9125
G1 X17.1846 Y25.9060
G1 X17.1771 Y25.8995
G1 X17.1695 Y25.8929
G1 X17.1620 Y25.8864
G1 X17.1544 Y25.8798
G1 X17.1469 Y25.8732
G1 X17.1394 Y25.8667
G1 X17.1318 Y25.8601
G1 X17.1243 Y25.8535
G1 X17.1168 Y25.8469
G1 X17.1093 Y25.8403
G1 X17.1018 Y25.8336
G1 X17.0944 Y25.8270
G1 X17.0869 Y25.8204
G1 X17.0794 Y25.8137
G1 X17.0720 Y25.8071
G1 X17.0645 Y25.8004
G1 X17.0571 Y25.7937
G1 X17.0496 Y25.7870
G1 X17.0422 Y25.7804
G1 X17.0348 Y25.7737
G1 X17.0274 Y25.7669
G1 X17.0200 Y25.7602
G1 X17.0126 Y25.7535
G1 X17.0052 Y25.7468
G1 X16.9978 Y25.7400
G1 X16.9905 Y25.7333
G1 X16.9831 Y25.7265
G1 X16.9757 Y25.7197
G1 X16.9684 Y25.7130
G1 X16.9610 Y25.7062
G1 X16.9537 Y25.6994
G1 X16.9464 Y25.6926
G1 X16.9391 Y25.6858
G1 X16.9318 Y25.6789
G1 X16.9245 Y25.6721
G1 X16.9172 Y25.6653
G1 X16.9099 Y25.6584
G1 X16.9026 Y25.6516
G1 X16.8954 Y25.6447
G1 X16.8881 Y25.6378
G1 X16.8809 Y25.6309
G1 X16.8736 Y25.6240
G1 X16.8664 Y25.6171
G1 X16.8592 Y25.6102
G1 X16.8519 Y25.6033
G1 X16.8447 Y25.5964
G1 X16.8375 Y25.5895
G1 X16.8303 Y25.5825
G1 X16.8232 Y25.5756
G1 X16.8160 Y25.5686
G1 X16.8088 Y25.5616
G1 X16.8017 Y25.5547
G1 X16.7945 Y25.5477
G1 X16.7874 Y25.5407
G1 X16.7802 Y25.5337
G1 X16.7731 Y25.5267
G1 X16.7660 Y25.5197
G1 X16.7589 Y25.5126
G1 X16.7518 Y25.5056
G1 X16.7447 Y25.4986
G1 X16.7376 Y25.4915
G1 X16.7305 Y25.4844
G1 X16.7234 Y25.4774
G1 X16.7164 Y25.4703
G1 X16.7093 Y25.4632
G1 X16.7023 Y25.4561
G1 X16.6952 Y25.4490
G1 X16.6882 Y25.4419
G1 X16.6812 Y25.4348
G1 X16.6742 Y25.4277
G1 X16.6672 Y25.4205
G1 X16.6602 Y25.4134
G1 X16.6532 Y25.4062
G1 X16.6462 Y25.3991
G1 X16.6393 Y25.3919
G1 X16.6323 Y25.3847
G1 X16.6254 Y25.3776
G1 X16.6184 Y25.3704
G1 X16.6115 Y25.3632
G1 X16.6046 Y25.3560
G1 X16.5976 Y25.3487
G1 X16.5907 Y25.3415
G1 X16.5838 Y25.3343
G1 X16.5769 Y25.3270
G1 X16.5701 Y25.3198
G1 X16.5632 Y25.3125
G1 X16.5563 Y25.3053
G1 X16.5495 Y25.2980
G1 X16.5426 Y25.2907
G1 X16.5358 Y25.2834
G1 X16.5289 Y25.2761
G1 X16.5221 Y25.2688
G1 X16.5153 Y25.2615
G1 X16.5085 Y25.2542
G1 X16.5017 Y25.2469
G1 X16.4949 Y25.2395
G1 X16.4881 Y25.2322
G1 X16.4814 Y25.2248
G1 X16.4746 Y25.2175
G1 X16.4678 Y25.2101
G1 X16.4611 Y25.2027
G1 X16.4544 Y25.1953
G1 X16.4476 Y25.1879
G1 X16.4409 Y25.1805
G1 X16.4342 Y25.1731
G1 X16.4275 Y25.1657
G1 X16.4208 Y25.1583
G1 X16.4141 Y25.1509
G1 X16.4074 Y25.1434
G1 X16.4008 Y25.1360
G1 X16.3941 Y25.1285
G1 X16.3875 Y25.1210
G1 X16.3808 Y25.1136
G1 X16.3742 Y25.1061
G1 X16.3676 Y25.0986
G1 X16.3610 Y25.0911
G1 X16.3544 Y25.0836
G1 X16.3478 Y25.0761
G1 X16.3412 Y25.0686
G1 X16.3346 Y25.0610
G1 X16.3280 Y25.0535
G1 X16.3215 Y25.0460
G1 X16.3149 Y25.0384
G1 X16.3084 Y25.0309
G1 X16.3018 Y25.0233
G1 X16.2953 Y25.0157
G1 X16.2888 Y25.0081
G1 X16.2823 Y25.0006
G1 X16.2758 Y24.9930
G1 X16.2693 Y24.9854
G1 X16.2628 Y24.9777
G1 X16.2563 Y24.9701
G1 X16.2499 Y24.9625
G1 X16.2434 Y24.9549
G1 X16.2370 Y24.9472
G1 X16.2306 Y24.9396
G1 X16.2241 Y24.9319
G1 X16.2177 Y24.9243
G1 X16.2113 Y24.9166
G1 X16.2049 Y24.9089
G1 X16.1985 Y24.9012
G1 X16.1921 Y24.8935
G1 X16.1858 Y24.8858
G1 X16.1794 Y24.8781
G1 X16.1730 Y24.8704
G1 X16.1667 Y24.8627
G1 X16.1604 Y24.8549
G1 X16.1540 Y24.8472
G1 X16.1477 Y24.8394
G1 X16.1414 Y24.8317
G1 X16.1351 Y24.8239
G1 X16.1288 Y24.8162
G1 X16.1225 Y24.8084
G1 X16.1163 Y24.8006
G1 X16.1100 Y24.7928
G1 X16.1038 Y24.7850
G1 X16.0975 Y24.7772
G1 X16.0913 Y24.7694
G1 X16.0850 Y24.7616
G1 X16.0788 Y24.7537
G1 X16.0726 Y24.7459
G1 X16.0664 Y24.7381
G1 X16.0602 Y24.7302
G1 X16.0541 Y24.7224
G1 X16.0479 Y24.7145
G1 X16.0417 Y24.7066
G1 X16.0356 Y24.6987
G1 X16.0294 Y24.6909
G1 X16.0233 Y24.6830
G1 X16.0172 Y24.6751
G1 X16.0111 Y24.6672
G1 X16.0050 Y24.6592
G1 X15.9989 Y24.6513
G1 X15.9928 Y24.6434
G1 X15.9867 Y24.6355
G1 X15.9806 Y24.6275
G1 X15.9746 Y24.6196
G1 X15.9685 Y24.6116
G1 X15.9625 Y24.6036
G1 X15.9565 Y24.5957
G1 X15.9504 Y24.5877
G1 X15.9444 Y24.5797
G1 X15.9384 Y24.5717
G1 X15.9324 Y24.5637
G1 X15.9264 Y24.5557
G1 X15.9205 Y24.5477
G1 X15.9145 Y24.5397
G1 X15.9085 Y24.5316
G1 X15.9026 Y24.5236
G1 X15.8967 Y24.5155
G1 X15.8907 Y24.5075
G1 X15.8848 Y24.4994
G1 X15.8789 Y24.4914
G1 X15.8730 Y24.4833
G1 X15.8671 Y24.4752
G1 X15.8613 Y24.4671
G1 X15.8554 Y24.4590
G1 X15.8495 Y24.4510
G1 X15.8437 Y24.4428
G1 X15.8378 Y24.4347
G1 X15.8320 Y24.4266
G1 X15.8262 Y24.4185
G1 X15.8204 Y24.4104
G1 X15.8146 Y24.4022
G1 X15.8088 Y24.3941
G1 X15.8030 Y24.3859
G1 X15.7972 Y24.3778
G1 X15.7915 Y24.3696
G1 X15.7857 Y24.3614
G1 X15.7800 Y24.3532
G1 X15.7742 Y24.3450
G1 X15.7685 Y24.3369
G1 X15.7628 Y24.3287
G1 X15.7571 Y24.3204
G1 X15.7514 Y24.3122
G1 X15.7457 Y24.3040
G1 X15.7400 Y24.2958
G1 X15.7343 Y24.2875
G1 X15.7287 Y24.2793
G1 X15.7230 Y24.2711
G1 X15.7174 Y24.2628
G1 X15.7118 Y24.2545
G1 X15.7062 Y24.2463
G1 X15.7005 Y24.2380
G1 X15.6949 Y24.2297
G1 X15.6894 Y24.2214
G1 X15.6838 Y24.2131
G1 X15.6782 Y24.2048
G1 X15.6726 Y24.1965
G1 X15.6671 Y24.1882
G1 X15.6616 Y24.1799
G1 X15.6560 Y24.1716
G1 X15.6505 Y24.1632
G1 X15.6450 Y24.1549
G1 X15.6395 Y24.1465
G1 X15.6340 Y24.1382
G1 X15.6285 Y24.1298
G1 X15.6230 Y24.1215
G1 X15.6176 Y24.1131
G1 X15.6121 Y24.1047
G1 X15.6067 Y24.0963
G1 X15.6013 Y24.0879
G1 X15.5958 Y24.0795
G1 X15.5904 Y24.0711
G1 X15.5850 Y24.0627
G1 X15.5796 Y24.0543
G1 X15.5742 Y24.0459
G1 X15.5689 Y24.0375
G1 X15.5635 Y24.0290
G1 X15.5582 Y24.0206
G1 X15.5528 Y24.0121
G1 X15.5475 Y24.0037
G1 X15.5422 Y23.9952
G1 X15.5368 Y23.9868
G1 X15.5315 Y23.9783
G1 X15.5263 Y23.9698
G1 X15.5210 Y23.9613
G1 X15.5157 Y23.9528
G1 X15.5104 Y23.9443
G1 X15.5052 Y23.9358
G1 X15.4999 Y23.9273
G1 X15.4947 Y23.9188
G1 X15.4895 Y23.9103
G1 X15.4843 Y23.9017
G1 X15.4791 Y23.8932
G1 X15.4739 Y23.8847
G1 X15.4687 Y23.8761
G1 X15.4635 Y23.8676
G1 X15.4584 Y23.8590
G1 X15.4532 Y23.8504
G1 X15.4481 Y23.8419
G1 X15.4429 Y23.8333
G1 X15.4378 Y23.8247
G1 X15.4327 Y23.8161
G1 X15.4276 Y23.8075
G1 X15.4225 Y23.7989
G1 X15.4174 Y23.7903
G1 X15.4123 Y23.7817
G1 X15.4073 Y23.7731
G1 X15.4022 Y23.7644
G1 X15.3972 Y23.7558
G1 X15.3922 Y23.7472
G1 X15.3871 Y23.7385
G1 X15.3821 Y23.7299
G1 X15.3771 Y23.7212
G1 X15.3721 Y23.7126
G1 X15.3672 Y23.7039
G1 X15.3622 Y23.6952
G1 X15.3572 Y23.6865
G1 X15.3523 Y23.6778
G1 X15.3473 Y23.6692
G1 X15.3424 Y23.6605
G1 X15.3375 Y23.6518
G1 X15.3326 Y23.6431
G1 X15.3277 Y23.6343
G1 X15.3228 Y23.6256
G1 X15.3179 Y23.6169
G1 X15.3131 Y23.6082
G1 X15.3082 Y23.5994
G1 X15.3034 Y23.5907
G1 X15.2985 Y23.5819
G1 X15.2937 Y23.5732
G1 X15.2889 Y23.5644
G1 X15.2841 Y23.5557
G1 X15.2793 Y23.5469
G1 X15.2745 Y23.5381
G1 X15.2697 Y23.5293
G1 X15.2650 Y23.5205
G1 X15.2602 Y23.5117
G1 X15.2555 Y23.5029
G1 X15.2507 Y23.4941
G1 X15.2460 Y23.4853
G1 X15.2413 Y23.4765
G1 X15.2366 Y23.4677
G1 X15.2319 Y23.4589
G1 X15.2272 Y23.4500
G1 X15.2226 Y23.4412
G1 X15.2179 Y23.4323
G1 X15.2132 Y23.4235
G1 X15.2086 Y23.4146
G1 X15.2040 Y23.4058
G1 X15.1994 Y23.3969
G1 X15.1948 Y23.3880
G1 X15.1902 Y23.3792
G1 X15.1856 Y23.3703
G1 X15.1810 Y23.3614
G1 X15.1764 Y23.3525
G1 X15.1719 Y23.3436
G1 X15.1673 Y23.3347
G1 X15.1628 Y23.3258
G1 X15.1583 Y23.3169
G1 X15.1538 Y23.3080
G1 X15.1493 Y23.2990
G1 X15.1448 Y23.2901
G1 X15.1403 Y23.2812
G1 X15.1358 Y23.2722
G1 X15.1313 Y23.2633
G1 X15.1269 Y23.2543
G1 X15.1225 Y23.2454
G1 X15.1180 Y23.2364
G1 X15.1136 Y23.2275
G1 X15.1092 Y23.2185
G1 X15.1048 Y23.2095
G1 X15.1004 Y23.2005
G1 X15.0960 Y23.1915
G1 X15.0917 Y23.1825
G1 X15.0873 Y23.1735
G1 X15.0830 Y23.1645
G1 X15.0786 Y23.1555
G1 X15.0743 Y23.1465
G1 X15.0700 Y23.1375
G1 X15.0657 Y23.1285
G1 X15.0614 Y23.1194
G1 X15.0571 Y23.1104
G1 X15.0529 Y23.1014
G1 X15.0486 Y23.0923
G1 X15.0444 Y23.0833
G1 X15.0401 Y23.0742
G1 X15.0359 Y23.0652
G1 X15.0317 Y23.0561
G1 X15.0275 Y23.0470
G1 X15.0233 Y23.0380
G1 X15.0191 Y23.0289
G1 X15.0149 Y23.0198
G1 X15.0108 Y23.0107
G1 X15.0066 Y23.0016
G1 X15.0025 Y22.9925
G1 X14.9983 Y22.9834
G1 X14.9942 Y22.9743
G1 X14.9901 Y22.9652
G1 X14.9860 Y22.9561
G1 X14.9819 Y22.9470
G1 X14.9778 Y22.9378
G1 X14.9738 Y22.9287
G1 X14.9697 Y22.9196
G1 X14.9657 Y22.9104
G1 X14.9616 Y22.9013
G1 X14.9576 Y22.8921
G1 X14.9536 Y22.8830
G1 X14.9496 Y22.8738
G1 X14.9456 Y22.8647
G1 X14.9416 Y22.8555
G1 X14.9377 Y22.8463
G1 X14.9337 Y22.8371
G1 X14.9297 Y22.8279
G1 X14.9258 Y22.8188
G1 X14.9219 Y22.8096
G1 X14.9180 Y22.8004
G1 X14.9141 Y22.7912
G1 X14.9102 Y22.7820
G1 X14.9063 Y22.7727
G1 X14.9024 Y22.7635
G1 X14.8986 Y22.7543
G1 X14.8947 Y22.7451
G1 X14.8909 Y22.7359
G1 X14.8870 Y22.7266
G1 X14.8832 Y22.7174
G1 X14.8794 Y22.7081
G1 X14.8756 Y22.6989
G1 X14.8718 Y22.6896
G1 X14.8681 Y22.6804
G1 X14.8643 Y22.6711
G1 X14.8605 Y22.6619
G1 X14.8568 Y22.6526
G1 X14.8531 Y22.6433
G1 X14.8494 Y22.6340
G1 X14.8456 Y22.6248
G1 X14.8419 Y22.6155
G1 X14.8383 Y22.6062
G1 X14.8346 Y22.5969
G1 X14.8309 Y22.5876
G1 X14.8273 Y22.5783
G1 X14.8236 Y22.5690
G1 X14.8200 Y22.5597
G1 X14.8164 Y22.5503
G1 X14.8128 Y22.5410
G1 X14.8092 Y22.5317
G1 X14.8056 Y22.5224
G1 X14.8020 Y22.5130
G1 X14.7984 Y22.5037
G1 X14.7949 Y22.4943
G1 X14.7913 Y22.4850
G1 X14.7878 Y22.4756
G1 X14.7843 Y22.4663
G1 X14.7808 Y22.4569
G1 X14.7773 Y22.4476
G1 X14.7738 Y22.4382
G1 X14.7703 Y22.4288
G1 X14.7668 Y22.4194
G1 X14.7634 Y22.4101
G1 X14.7599 Y22.4007
G1 X14.7565 Y22.3913
G1 X14.7531 Y22.3819
G1 X14.7497 Y22.3725
G1 X14.7463 Y22.3631
G1 X14.7429 Y22.3537
G1 X14.7395 Y22.3443
G1 X14.7361 Y22.3349
G1 X14.7328 Y22.3255
G1 X14.7294 Y22.3160
G1 X14.7261 Y22.3066
G1 X14.7228 Y22.2972
G1 X14.7195 Y22.2878
G1 X14.7162 Y22.2783
G1 X14.7129 Y22.2689
G1 X14.7096 Y22.2594
G1 X14.7063 Y22.2500
G1 X14.7031 Y22.2405
G1 X14.6998 Y22.2311
G1 X14.6966 Y22.2216
G1 X14.6934 Y22.2122
G1 X14.6902 Y22.2027
G1 X14.6870 Y22.1932
G1 X14.6838 Y22.1838
G1 X14.6806 Y22.1743
G1 X14.6774 Y22.1648
G1 X14.6743 Y22.1553
G1 X14.6711 Y22.1458
G1 X14.6680 Y22.1363
G1 X14.6649 Y22.1268
G1 X14.6618 Y22.1173
G1 X14.6587 Y22.1078
G1 X14.6556 Y22.0983
G1 X14.6525 Y22.0888
G1 X14.6494 Y22.0793
G1 X14.6464 Y22.0698
G1 X14.6433 Y22.0603
G1 X14.6403 Y22.0507
G1 X14.6373 Y22.0412
G1 X14.6343 Y22.0317
G1 X14.6313 Y22.0221
G1 X14.6283 Y22.0126
G1 X14.6253 Y22.0031
G1 X14.6224 Y21.9935
G1 X14.6194 Y21.9840
G1 X14.6165 Y21.9744
G1 X14.6135 Y21.9648
G1 X14.6106 Y21.9553
G1 X14.6077 Y21.9457
G1 X14.6048 Y21.9362
G1 X14.6019 Y21.9266
G1 X14.5990 Y21.9170
G1 X14.5962 Y21.9074
G1 X14.5933 Y21.8979
