%
(Header)
(Generated by gcodetools from Inkscape.)
(Using default header. To add your own header create file "header" in the output dir.)
M3
(Header end.)
G21 (All units in mm)

(Start cutting path id: text1)
(Change tool to Default tool)

G00 Z5.000000
G00 X15.714219 Y34.650670

G01 Z-1.000000 F100.0(Penetrate)
G01 X21.090219 Y34.650670 Z-1.000000 F400.000000
G1 X21.1621 Y35.1275
G1 X21.2724 Y35.5969
G1 X21.4205 Y36.0558
G1 X21.6054 Y36.5012
G1 X21.8259 Y36.9300
G1 X22.0804 Y37.3396
G1 X22.3673 Y37.7271
G1 X22.6848 Y38.0901
G1 X23.0307 Y38.4261
G1 X23.4028 Y38.7328
G1 X23.8071 Y39.0226
G1 X24.2265 Y39.2901
G1 X24.6597 Y39.5345
G1 X25.1054 Y39.7551
G1 X25.5625 Y39.9514
G1 X26.0295 Y40.1226
G1 X26.5051 Y40.2684
G1 X26.9878 Y40.3883
G1 X27.4764 Y40.4818
G1 X27.9692 Y40.5489
G1 X28.4650 Y40.5892
G1 X28.9622 Y40.6026
G1 X29.4307 Y40.5920
G1 X29.8983 Y40.5602
G1 X30.3639 Y40.5074
G1 X30.8267 Y40.4335
G1 X31.2857 Y40.3387
G1 X31.7399 Y40.2234
G1 X32.1884 Y40.0876
G1 X32.6303 Y39.9316
G1 X33.0647 Y39.7558
G1 X33.4908 Y39.5606
G1 X33.9075 Y39.3463
G1 X34.3142 Y39.1134
G1 X34.7099 Y38.8623
G1 X35.0920 Y38.5722
G1 X35.4357 Y38.2374
G1 X35.7358 Y37.8630
G1 X35.9877 Y37.4547
G1 X36.1877 Y37.0186
G1 X36.3328 Y36.5612
G1 X36.4207 Y36.0896
G1 X36.4502 Y35.6107
G01 X36.450219 Y34.202670 Z-1.000000
G1 X36.4038 Y33.7277
G1 X36.2662 Y33.2708
G1 X36.0428 Y32.8491
G1 X35.7419 Y32.4787
G1 X35.3750 Y32.1736
G1 X34.9679 Y31.9113
G1 X34.5488 Y31.6686
G1 X34.1187 Y31.4462
G1 X33.6785 Y31.2444
G1 X33.2291 Y31.0638
G1 X32.7717 Y30.9047
G1 X32.3073 Y30.7676
G1 X31.8368 Y30.6527
G1 X31.3615 Y30.5603
G1 X30.8822 Y30.4906
G1 X30.4033 Y30.4252
G1 X29.9253 Y30.3543
G1 X29.4480 Y30.2779
G1 X28.9717 Y30.1961
G1 X28.4963 Y30.1088
G1 X28.0220 Y30.0160
G1 X27.5488 Y29.9178
G1 X27.0767 Y29.8142
G1 X26.6059 Y29.7051
G1 X26.1363 Y29.5907
G1 X25.6681 Y29.4708
G1 X25.2013 Y29.3456
G1 X24.7359 Y29.2151
G1 X24.2721 Y29.0792
G1 X23.8099 Y28.9380
G1 X23.3494 Y28.7915
G1 X22.8905 Y28.6397
G1 X22.4334 Y28.4826
G1 X21.9782 Y28.3203
G1 X21.5248 Y28.1528
G1 X21.0734 Y27.9801
G1 X20.6240 Y27.8023
G1 X20.1767 Y27.6193
G1 X19.7315 Y27.4311
G1 X19.2885 Y27.2379
G1 X18.8471 Y27.0269
G1 X18.4186 Y26.7908
G1 X18.0044 Y26.5304
G1 X17.6059 Y26.2465
G1 X17.2245 Y25.9402
G1 X16.8613 Y25.6123
G1 X16.5177 Y25.2641
G1 X16.1947 Y24.8966
G1 X15.8934 Y24.5111
G1 X15.6149 Y24.1089
G1 X15.3600 Y23.6913
G1 X15.1296 Y23.2597
G1 X14.9244 Y22.8155
G1 X14.7453 Y22.3603
G1 X14.5926 Y21.8955
G1 X14.4670 Y21.4226
G1 X14.3689 Y20.9433
G1 X14.2986 Y20.4591
G1 X14.2563 Y19.9717
G1 X14.2422 Y19.4827
G1 X14.2548 Y19.0006
G1 X14.2925 Y18.5197
G1 X14.3553 Y18.0415
G1 X14.4430 Y17.5673
G1 X14.5552 Y17.0982
G1 X14.6918 Y16.6357
G1 X14.8524 Y16.1809
G1 X15.0365 Y15.7351
G1 X15.2436 Y15.2995
G1 X15.4731 Y14.8753
G1 X15.7245 Y14.4637
G1 X15.9970 Y14.0658
G1 X16.2899 Y13.6826
G1 X16.6024 Y13.3152
G1 X16.9337 Y12.9647
G1 X17.2828 Y12.6319
G1 X17.6492 Y12.3138
G1 X18.0282 Y12.0110
G1 X18.4193 Y11.7239
G1 X18.8218 Y11.4530
G1 X19.2350 Y11.1988
G1 X19.6583 Y10.9616
G1 X20.0909 Y10.7420
G1 X20.5321 Y10.5402
G1 X20.9812 Y10.3566
G1 X21.4374 Y10.1914
G1 X21.8999 Y10.0451
G1 X22.3681 Y9.9178
G1 X22.8411 Y9.8097
G1 X23.3180 Y9.7210
G1 X23.7983 Y9.6518
G1 X24.2809 Y9.6023
G1 X24.7652 Y9.5726
G1 X25.2502 Y9.5627
G1 X25.7273 Y9.5708
G1 X26.2038 Y9.5952
G1 X26.6792 Y9.6358
G1 X27.1529 Y9.6925
G1 X27.6245 Y9.7654
G1 X28.0933 Y9.8542
G1 X28.5587 Y9.9590
G1 X29.0204 Y10.0796
G1 X29.4777 Y10.2158
G1 X29.9300 Y10.3675
G1 X30.3770 Y10.5345
G1 X30.8180 Y10.7167
G1 X31.2726 Y10.9200
G1 X31.7222 Y11.1341
G1 X32.1667 Y11.3588
G1 X32.6056 Y11.5940
G1 X33.0389 Y11.8395
G1 X33.4662 Y12.0953
G1 X33.8873 Y12.3611
G1 X34.3020 Y12.6369
G1 X34.7100 Y12.9224
G1 X35.1111 Y13.2175
G1 X35.5051 Y13.5221
G1 X35.8918 Y13.8359
G1 X36.2709 Y14.1588
G1 X36.6422 Y14.4907
G1 X36.7102 Y14.0493
G1 X36.8134 Y13.6147
G1 X36.9512 Y13.1898
G1 X37.1226 Y12.7773
G1 X37.3265 Y12.3800
G1 X37.5617 Y12.0002
G1 X37.8265 Y11.6406
G1 X38.1194 Y11.3033
G1 X38.4384 Y10.9907
G1 X38.7853 Y10.7018
G1 X39.1546 Y10.4422
G1 X39.5439 Y10.2136
G1 X39.9506 Y10.0175
G1 X40.3719 Y9.8552
G1 X40.8050 Y9.7279
G1 X41.2471 Y9.6363
G1 X41.6951 Y9.5811
G1 X42.1462 Y9.5627
G1 X42.6130 Y9.5748
G1 X43.0786 Y9.6111
G1 X43.5416 Y9.6714
G1 X43.9956 Y9.7471
G1 X44.4481 Y9.8318
G1 X44.8988 Y9.9253
G1 X45.3475 Y10.0276
G1 X45.7942 Y10.1387
G01 X45.794220 Y14.170670 Z-1.000000
G1 X45.4243 Y14.1019
G1 X45.0505 Y14.0589
G1 X44.6422 Y14.0426
G1 X44.1852 Y14.0767
G1 X43.7384 Y14.1782
G1 X43.3116 Y14.3449
G1 X42.9142 Y14.5730
G1 X42.5551 Y14.8576
G1 X42.2802 Y15.1565
G1 X42.0583 Y15.4965
G1 X41.8953 Y15.8684
G1 X41.7957 Y16.2620
G1 X41.7622 Y16.6667
G01 X41.762220 Y36.378670 Z-1.000000
G1 X41.7475 Y36.8474
G1 X41.7035 Y37.3144
G1 X41.6303 Y37.7776
G1 X41.5281 Y38.2353
G1 X41.3976 Y38.6858
G1 X41.2390 Y39.1272
G1 X41.0531 Y39.5577
G1 X40.8406 Y39.9758
G1 X40.6023 Y40.3798
G1 X40.3391 Y40.7680
G1 X40.0522 Y41.1389
G1 X39.7425 Y41.4912
G1 X39.4114 Y41.8234
G1 X39.0602 Y42.1341
G1 X38.6901 Y42.4222
G1 X38.2935 Y42.7024
G1 X37.8888 Y42.9707
G1 X37.4761 Y43.2266
G1 X37.0560 Y43.4701
G1 X36.6287 Y43.7008
G1 X36.1947 Y43.9186
G1 X35.7544 Y44.1233
G1 X35.3081 Y44.3147
G1 X34.8563 Y44.4927
G1 X34.3994 Y44.6569
G1 X33.9377 Y44.8074
G1 X33.4717 Y44.9440
G1 X33.0018 Y45.0665
G1 X32.5285 Y45.1749
G1 X32.0521 Y45.2690
G1 X31.5731 Y45.3488
G1 X31.0920 Y45.4142
G1 X30.6091 Y45.4651
G1 X30.1248 Y45.5015
G1 X29.6397 Y45.5233
G1 X29.1542 Y45.5306
G1 X28.6822 Y45.5240
G1 X28.2106 Y45.5042
G1 X27.7397 Y45.4712
G1 X27.2699 Y45.4251
G1 X26.8016 Y45.3658
G1 X26.3351 Y45.2935
G1 X25.8709 Y45.2082
G1 X25.4092 Y45.1099
G1 X24.9504 Y44.9987
G1 X24.4950 Y44.8748
G1 X24.0431 Y44.7382
G1 X23.5953 Y44.5889
G1 X23.1518 Y44.4273
G1 X22.7130 Y44.2533
G1 X22.2792 Y44.0670
G1 X21.8509 Y43.8688
G1 X21.4282 Y43.6586
G1 X21.0012 Y43.4261
G1 X20.5853 Y43.1743
G1 X20.1815 Y42.9035
G1 X19.7905 Y42.6144
G1 X19.4134 Y42.3076
G1 X19.0507 Y41.9837
G1 X18.7034 Y41.6435
G1 X18.3721 Y41.2876
G1 X18.0575 Y40.9169
G1 X17.7604 Y40.5320
G1 X17.4813 Y40.1339
G1 X17.2209 Y39.7233
G1 X16.9796 Y39.3012
G1 X16.7581 Y38.8684
G1 X16.5567 Y38.4258
G1 X16.3760 Y37.9744
G1 X16.2162 Y37.5152
G1 X16.0778 Y37.0491
G1 X15.9610 Y36.5772
G1 X15.8660 Y36.1003
G1 X15.7932 Y35.6196
G1 X15.7425 Y35.1361
G1 X15.7142 Y34.6507
G01 X15.714219 Y34.650670 Z-1.000000
G00 Z5.000000

(End cutting path id: text1)


(Start cutting path id: text1)
(Change tool to Default tool)

G00 Z5.000000
G00 X15.714219 Y34.650670

G01 Z-2.000000 F100.0(Penetrate)
G01 X21.090219 Y34.650670 Z-2.000000 F400.000000
G1 X21.1621 Y35.1275
G1 X21.2724 Y35.5969
G1 X21.4205 Y36.0558
G1 X21.6054 Y36.5012
G1 X21.8259 Y36.9300
G1 X22.0804 Y37.3396
G1 X22.3673 Y37.7271
G1 X22.6848 Y38.0901
G1 X23.0307 Y38.4261
G1 X23.4028 Y38.7328
G1 X23.8071 Y39.0226
G1 X24.2265 Y39.2901
G1 X24.6597 Y39.5345
G1 X25.1054 Y39.7551
G1 X25.5625 Y39.9514
G1 X26.0295 Y40.1226
G1 X26.5051 Y40.2684
G1 X26.9878 Y40.3883
G1 X27.4764 Y40.4818
G1 X27.9692 Y40.5489
G1 X28.4650 Y40.5892
G1 X28.9622 Y40.6026
G1 X29.4307 Y40.5920
G1 X29.8983 Y40.5602
G1 X30.3639 Y40.5074
G1 X30.8267 Y40.4335
G1 X31.2857 Y40.3387
G1 X31.7399 Y40.2234
G1 X32.1884 Y40.0876
G1 X32.6303 Y39.9316
G1 X33.0647 Y39.7558
G1 X33.4908 Y39.5606
G1 X33.9075 Y39.3463
G1 X34.3142 Y39.1134
G1 X34.7099 Y38.8623
G1 X35.0920 Y38.5722
G1 X35.4357 Y38.2374
G1 X35.7358 Y37.8630
G1 X35.9877 Y37.4547
G1 X36.1877 Y37.0186
G1 X36.3328 Y36.5612
G1 X36.4207 Y36.0896
G1 X36.4502 Y35.6107
G01 X36.450219 Y34.202670 Z-2.000000
G1 X36.4038 Y33.7277
G1 X36.2662 Y33.2708
G1 X36.0428 Y32.8491
G1 X35.7419 Y32.4787
G1 X35.3750 Y32.1736
G1 X34.9679 Y31.9113
G1 X34.5488 Y31.6686
G1 X34.1187 Y31.4462
G1 X33.6785 Y31.2444
G1 X33.2291 Y31.0638
G1 X32.7717 Y30.9047
G1 X32.3073 Y30.7676
G1 X31.8368 Y30.6527
G1 X31.3615 Y30.5603
G1 X30.8822 Y30.4906
G1 X30.4033 Y30.4252
G1 X29.9253 Y30.3543
G1 X29.4480 Y30.2779
G1 X28.9717 Y30.1961
G1 X28.4963 Y30.1088
G1 X28.0220 Y30.0160
G1 X27.5488 Y29.9178
G1 X27.0767 Y29.8142
G1 X26.6059 Y29.7051
G1 X26.1363 Y29.5907
G1 X25.6681 Y29.4708
G1 X25.2013 Y29.3456
G1 X24.7359 Y29.2151
G1 X24.2721 Y29.0792
G1 X23.8099 Y28.9380
G1 X23.3494 Y28.7915
G1 X22.8905 Y28.6397
G1 X22.4334 Y28.4826
G1 X21.9782 Y28.3203
G1 X21.5248 Y28.1528
G1 X21.0734 Y27.9801
G1 X20.6240 Y27.8023
G1 X20.1767 Y27.6193
G1 X19.7315 Y27.4311
G1 X19.2885 Y27.2379
G1 X18.8471 Y27.0269
G1 X18.4186 Y26.7908
G1 X18.0044 Y26.5304
G1 X17.6059 Y26.2465
G1 X17.2245 Y25.9402
G1 X16.8613 Y25.6123
G1 X16.5177 Y25.2641
G1 X16.1947 Y24.8966
G1 X15.8934 Y24.5111
G1 X15.6149 Y24.1089
G1 X15.3600 Y23.6913
G1 X15.1296 Y23.2597
G1 X14.9244 Y22.8155
G1 X14.7453 Y22.3603
G1 X14.5926 Y21.8955
G1 X14.4670 Y21.4226
G1 X14.3689 Y20.9433
G1 X14.2986 Y20.4591
G1 X14.2563 Y19.9717
G1 X14.2422 Y19.4827
G1 X14.2548 Y19.0006
G1 X14.2925 Y18.5197
G1 X14.3553 Y18.0415
G1 X14.4430 Y17.5673
G1 X14.5552 Y17.0982
G1 X14.6918 Y16.6357
G1 X14.8524 Y16.1809
G1 X15.0365 Y15.7351
G1 X15.2436 Y15.2995
G1 X15.4731 Y14.8753
G1 X15.7245 Y14.4637
G1 X15.9970 Y14.0658
G1 X16.2899 Y13.6826
G1 X16.6024 Y13.3152
G1 X16.9337 Y12.9647
G1 X17.2828 Y12.6319
G1 X17.6492 Y12.3138
G1 X18.0282 Y12.0110
G1 X18.4193 Y11.7239
G1 X18.8218 Y11.4530
G1 X19.2350 Y11.1988
G1 X19.6583 Y10.9616
G1 X20.0909 Y10.7420
G1 X20.5321 Y10.5402
G1 X20.9812 Y10.3566
G1 X21.4374 Y10.1914
G1 X21.8999 Y10.0451
G1 X22.3681 Y9.9178
G1 X22.8411 Y9.8097
G1 X23.3180 Y9.7210
G1 X23.7983 Y9.6518
G1 X24.2809 Y9.6023
G1 X24.7652 Y9.5726
G1 X25.2502 Y9.5627
G1 X25.7273 Y9.5708
G1 X26.2038 Y9.5952
G1 X26.6792 Y9.6358
G1 X27.1529 Y9.6925
G1 X27.6245 Y9.7654
G1 X28.0933 Y9.8542
G1 X28.5587 Y9.9590
G1 X29.0204 Y10.0796
G1 X29.4777 Y10.2158
G1 X29.9300 Y10.3675
G1 X30.3770 Y10.5345
G1 X30.8180 Y10.7167
G1 X31.2726 Y10.9200
G1 X31.7222 Y11.1341
G1 X32.1667 Y11.3588
G1 X32.6056 Y11.5940
G1 X33.0389 Y11.8395
G1 X33.4662 Y12.0953
G1 X33.8873 Y12.3611
G1 X34.3020 Y12.6369
G1 X34.7100 Y12.9224
G1 X35.1111 Y13.2175
G1 X35.5051 Y13.5221
G1 X35.8918 Y13.8359
G1 X36.2709 Y14.1588
G1 X36.6422 Y14.4907
G1 X36.7102 Y14.0493
G1 X36.8134 Y13.6147
G1 X36.9512 Y13.1898
G1 X37.1226 Y12.7773
G1 X37.3265 Y12.3800
G1 X37.5617 Y12.0002
G1 X37.8265 Y11.6406
G1 X38.1194 Y11.3033
G1 X38.4384 Y10.9907
G1 X38.7853 Y10.7018
G1 X39.1546 Y10.4422
G1 X39.5439 Y10.2136
G1 X39.9506 Y10.0175
G1 X40.3719 Y9.8552
G1 X40.8050 Y9.7279
G1 X41.2471 Y9.6363
G1 X41.6951 Y9.5811
G1 X42.1462 Y9.5627
G1 X42.6130 Y9.5748
G1 X43.0786 Y9.6111
G1 X43.5416 Y9.6714
G1 X43.9956 Y9.7471
G1 X44.4481 Y9.8318
G1 X44.8988 Y9.9253
G1 X45.3475 Y10.0276
G1 X45.7942 Y10.1387
G01 X45.794220 Y14.170670 Z-2.000000
G1 X45.4243 Y14.1019
G1 X45.0505 Y14.0589
G1 X44.6422 Y14.0426
G1 X44.1852 Y14.0767
G1 X43.7384 Y14.1782
G1 X43.3116 Y14.3449
G1 X42.9142 Y14.5730
G1 X42.5551 Y14.8576
G1 X42.2802 Y15.1565
G1 X42.0583 Y15.4965
G1 X41.8953 Y15.8684
G1 X41.7957 Y16.2620
G1 X41.7622 Y16.6667
G01 X41.762220 Y36.378670 Z-2.000000
G1 X41.7475 Y36.8474
G1 X41.7035 Y37.3144
G1 X41.6303 Y37.7776
G1 X41.5281 Y38.2353
G1 X41.3976 Y38.6858
G1 X41.2390 Y39.1272
G1 X41.0531 Y39.5577
G1 X40.8406 Y39.9758
G1 X40.6023 Y40.3798
G1 X40.3391 Y40.7680
G1 X40.0522 Y41.1389
G1 X39.7425 Y41.4912
G1 X39.4114 Y41.8234
G1 X39.0602 Y42.1341
G1 X38.6901 Y42.4222
G1 X38.2935 Y42.7024
G1 X37.8888 Y42.9707
G1 X37.4761 Y43.2266
G1 X37.0560 Y43.4701
G1 X36.6287 Y43.7008
G1 X36.1947 Y43.9186
G1 X35.7544 Y44.1233
G1 X35.3081 Y44.3147
G1 X34.8563 Y44.4927
G1 X34.3994 Y44.6569
G1 X33.9377 Y44.8074
G1 X33.4717 Y44.9440
G1 X33.0018 Y45.0665
G1 X32.5285 Y45.1749
G1 X32.0521 Y45.2690
G1 X31.5731 Y45.3488
G1 X31.0920 Y45.4142
G1 X30.6091 Y45.4651
G1 X30.1248 Y45.5015
G1 X29.6397 Y45.5233
G1 X29.1542 Y45.5306
G1 X28.6822 Y45.5240
G1 X28.2106 Y45.5042
G1 X27.7397 Y45.4712
G1 X27.2699 Y45.4251
G1 X26.8016 Y45.3658
G1 X26.3351 Y45.2935
G1 X25.8709 Y45.2082
G1 X25.4092 Y45.1099
G1 X24.9504 Y44.9987
G1 X24.4950 Y44.8748
G1 X24.0431 Y44.7382
G1 X23.5953 Y44.5889
G1 X23.1518 Y44.4273
G1 X22.7130 Y44.2533
G1 X22.2792 Y44.0670
G1 X21.8509 Y43.8688
G1 X21.4282 Y43.6586
G1 X21.0012 Y43.4261
G1 X20.5853 Y43.1743
G1 X20.1815 Y42.9035
G1 X19.7905 Y42.6144
G1 X19.4134 Y42.3076
G1 X19.0507 Y41.9837
G1 X18.7034 Y41.6435
G1 X18.3721 Y41.2876
G1 X18.0575 Y40.9169
G1 X17.7604 Y40.5320
G1 X17.4813 Y40.1339
G1 X17.2209 Y39.7233
G1 X16.9796 Y39.3012
G1 X16.7581 Y38.8684
G1 X16.5567 Y38.4258
G1 X16.3760 Y37.9744
G1 X16.2162 Y37.5152
G1 X16.0778 Y37.0491
G1 X15.9610 Y36.5772
G1 X15.8660 Y36.1003
G1 X15.7932 Y35.6196
G1 X15.7425 Y35.1361
G1 X15.7142 Y34.6507
G01 X15.714219 Y34.650670 Z-2.000000
G00 Z5.000000

(End cutting path id: text1)


(Start cutting path id: text1)
(Change tool to Default tool)

G00 Z5.000000
G00 X15.714219 Y34.650670

G01 Z-3.000000 F100.0(Penetrate)
G01 X21.090219 Y34.650670 Z-3.000000 F400.000000
G1 X21.1621 Y35.1275
G1 X21.2724 Y35.5969
G1 X21.4205 Y36.0558
G1 X21.6054 Y36.5012
G1 X21.8259 Y36.9300
G1 X22.0804 Y37.3396
G1 X22.3673 Y37.7271
G1 X22.6848 Y38.0901
G1 X23.0307 Y38.4261
G1 X23.4028 Y38.7328
G1 X23.8071 Y39.0226
G1 X24.2265 Y39.2901
G1 X24.6597 Y39.5345
G1 X25.1054 Y39.7551
G1 X25.5625 Y39.9514
G1 X26.0295 Y40.1226
G1 X26.5051 Y40.2684
G1 X26.9878 Y40.3883
G1 X27.4764 Y40.4818
G1 X27.9692 Y40.5489
G1 X28.4650 Y40.5892
G1 X28.9622 Y40.6026
G1 X29.4307 Y40.5920
G1 X29.8983 Y40.5602
G1 X30.3639 Y40.5074
G1 X30.8267 Y40.4335
G1 X31.2857 Y40.3387
G1 X31.7399 Y40.2234
G1 X32.1884 Y40.0876
G1 X32.6303 Y39.9316
G1 X33.0647 Y39.7558
G1 X33.4908 Y39.5606
G1 X33.9075 Y39.3463
G1 X34.3142 Y39.1134
G1 X34.7099 Y38.8623
G1 X35.0920 Y38.5722
G1 X35.4357 Y38.2374
G1 X35.7358 Y37.8630
G1 X35.9877 Y37.4547
G1 X36.1877 Y37.0186
G1 X36.3328 Y36.5612
G1 X36.4207 Y36.0896
G1 X36.4502 Y35.6107
G01 X36.450219 Y34.202670 Z-3.000000
G1 X36.4038 Y33.7277
G1 X36.2662 Y33.2708
G1 X36.0428 Y32.8491
G1 X35.7419 Y32.4787
G1 X35.3750 Y32.1736
G1 X34.9679 Y31.9113
G1 X34.5488 Y31.6686
G1 X34.1187 Y31.4462
G1 X33.6785 Y31.2444
G1 X33.2291 Y31.0638
G1 X32.7717 Y30.9047
G1 X32.3073 Y30.7676
G1 X31.8368 Y30.6527
G1 X31.3615 Y30.5603
G1 X30.8822 Y30.4906
G1 X30.4033 Y30.4252
G1 X29.9253 Y30.3543
G1 X29.4480 Y30.2779
G1 X28.9717 Y30.1961
G1 X28.4963 Y30.1088
G1 X28.0220 Y30.0160
G1 X27.5488 Y29.9178
G1 X27.0767 Y29.8142
G1 X26.6059 Y29.7051
G1 X26.1363 Y29.5907
G1 X25.6681 Y29.4708
G1 X25.2013 Y29.3456
G1 X24.7359 Y29.2151
G1 X24.2721 Y29.0792
G1 X23.8099 Y28.9380
G1 X23.3494 Y28.7915
G1 X22.8905 Y28.6397
G1 X22.4334 Y28.4826
G1 X21.9782 Y28.3203
G1 X21.5248 Y28.1528
G1 X21.0734 Y27.9801
G1 X20.6240 Y27.8023
G1 X20.1767 Y27.6193
G1 X19.7315 Y27.4311
G1 X19.2885 Y27.2379
G1 X18.8471 Y27.0269
G1 X18.4186 Y26.7908
G1 X18.0044 Y26.5304
G1 X17.6059 Y26.2465
G1 X17.2245 Y25.9402
G1 X16.8613 Y25.6123
G1 X16.5177 Y25.2641
G1 X16.1947 Y24.8966
G1 X15.8934 Y24.5111
G1 X15.6149 Y24.1089
G1 X15.3600 Y23.6913
G1 X15.1296 Y23.2597
G1 X14.9244 Y22.8155
G1 X14.7453 Y22.3603
G1 X14.5926 Y21.8955
G1 X14.4670 Y21.4226
G1 X14.3689 Y20.9433
G1 X14.2986 Y20.4591
G1 X14.2563 Y19.9717
G1 X14.2422 Y19.4827
G1 X14.2548 Y19.0006
G1 X14.2925 Y18.5197
G1 X14.3553 Y18.0415
G1 X14.4430 Y17.5673
G1 X14.5552 Y17.0982
G1 X14.6918 Y16.6357
G1 X14.8524 Y16.1809
G1 X15.0365 Y15.7351
G1 X15.2436 Y15.2995
G1 X15.4731 Y14.8753
G1 X15.7245 Y14.4637
G1 X15.9970 Y14.0658
G1 X16.2899 Y13.6826
G1 X16.6024 Y13.3152
G1 X16.9337 Y12.9647
G1 X17.2828 Y12.6319
G1 X17.6492 Y12.3138
G1 X18.0282 Y12.0110
G1 X18.4193 Y11.7239
G1 X18.8218 Y11.4530
G1 X19.2350 Y11.1988
G1 X19.6583 Y10.9616
G1 X20.0909 Y10.7420
G1 X20.5321 Y10.5402
G1 X20.9812 Y10.3566
G1 X21.4374 Y10.1914
G1 X21.8999 Y10.0451
G1 X22.3681 Y9.9178
G1 X22.8411 Y9.8097
G1 X23.3180 Y9.7210
G1 X23.7983 Y9.6518
G1 X24.2809 Y9.6023
G1 X24.7652 Y9.5726
G1 X25.2502 Y9.5627
G1 X25.7273 Y9.5708
G1 X26.2038 Y9.5952
G1 X26.6792 Y9.6358
G1 X27.1529 Y9.6925
G1 X27.6245 Y9.7654
G1 X28.0933 Y9.8542
G1 X28.5587 Y9.9590
G1 X29.0204 Y10.0796
G1 X29.4777 Y10.2158
G1 X29.9300 Y10.3675
G1 X30.3770 Y10.5345
G1 X30.8180 Y10.7167
G1 X31.2726 Y10.9200
G1 X31.7222 Y11.1341
G1 X32.1667 Y11.3588
G1 X32.6056 Y11.5940
G1 X33.0389 Y11.8395
G1 X33.4662 Y12.0953
G1 X33.8873 Y12.3611
G1 X34.3020 Y12.6369
G1 X34.7100 Y12.9224
G1 X35.1111 Y13.2175
G1 X35.5051 Y13.5221
G1 X35.8918 Y13.8359
G1 X36.2709 Y14.1588
G1 X36.6422 Y14.4907
G1 X36.7102 Y14.0493
G1 X36.8134 Y13.6147
G1 X36.9512 Y13.1898
G1 X37.1226 Y12.7773
G1 X37.3265 Y12.3800
G1 X37.5617 Y12.0002
G1 X37.8265 Y11.6406
G1 X38.1194 Y11.3033
G1 X38.4384 Y10.9907
G1 X38.7853 Y10.7018
G1 X39.1546 Y10.4422
G1 X39.5439 Y10.2136
G1 X39.9506 Y10.0175
G1 X40.3719 Y9.8552
G1 X40.8050 Y9.7279
G1 X41.2471 Y9.6363
G1 X41.6951 Y9.5811
G1 X42.1462 Y9.5627
G1 X42.6130 Y9.5748
G1 X43.0786 Y9.6111
G1 X43.5416 Y9.6714
G1 X43.9956 Y9.7471
G1 X44.4481 Y9.8318
G1 X44.8988 Y9.9253
G1 X45.3475 Y10.0276
G1 X45.7942 Y10.1387
G01 X45.794220 Y14.170670 Z-3.000000
G1 X45.4243 Y14.1019
G1 X45.0505 Y14.0589
G1 X44.6422 Y14.0426
G1 X44.1852 Y14.0767
G1 X43.7384 Y14.1782
G1 X43.3116 Y14.3449
G1 X42.9142 Y14.5730
G1 X42.5551 Y14.8576
G1 X42.2802 Y15.1565
G1 X42.0583 Y15.4965
G1 X41.8953 Y15.8684
G1 X41.7957 Y16.2620
G1 X41.7622 Y16.6667
G01 X41.762220 Y36.378670 Z-3.000000
G1 X41.7475 Y36.8474
G1 X41.7035 Y37.3144
G1 X41.6303 Y37.7776
G1 X41.5281 Y38.2353
G1 X41.3976 Y38.6858
G1 X41.2390 Y39.1272
G1 X41.0531 Y39.5577
G1 X40.8406 Y39.9758
G1 X40.6023 Y40.3798
G1 X40.3391 Y40.7680
G1 X40.0522 Y41.1389
G1 X39.7425 Y41.4912
G1 X39.4114 Y41.8234
G1 X39.0602 Y42.1341
G1 X38.6901 Y42.4222
G1 X38.2935 Y42.7024
G1 X37.8888 Y42.9707
G1 X37.4761 Y43.2266
G1 X37.0560 Y43.4701
G1 X36.6287 Y43.7008
G1 X36.1947 Y43.9186
G1 X35.7544 Y44.1233
G1 X35.3081 Y44.3147
G1 X34.8563 Y44.4927
G1 X34.3994 Y44.6569
G1 X33.9377 Y44.8074
G1 X33.4717 Y44.9440
G1 X33.0018 Y45.0665
G1 X32.5285 Y45.1749
G1 X32.0521 Y45.2690
G1 X31.5731 Y45.3488
G1 X31.0920 Y45.4142
G1 X30.6091 Y45.4651
G1 X30.1248 Y45.5015
G1 X29.6397 Y45.5233
G1 X29.1542 Y45.5306
G1 X28.6822 Y45.5240
G1 X28.2106 Y45.5042
G1 X27.7397 Y45.4712
G1 X27.2699 Y45.4251
G1 X26.8016 Y45.3658
G1 X26.3351 Y45.2935
G1 X25.8709 Y45.2082
G1 X25.4092 Y45.1099
G1 X24.9504 Y44.9987
G1 X24.4950 Y44.8748
G1 X24.0431 Y44.7382
G1 X23.5953 Y44.5889
G1 X23.1518 Y44.4273
G1 X22.7130 Y44.2533
G1 X22.2792 Y44.0670
G1 X21.8509 Y43.8688
G1 X21.4282 Y43.6586
G1 X21.0012 Y43.4261
G1 X20.5853 Y43.1743
G1 X20.1815 Y42.9035
G1 X19.7905 Y42.6144
G1 X19.4134 Y42.3076
G1 X19.0507 Y41.9837
G1 X18.7034 Y41.6435
G1 X18.3721 Y41.2876
G1 X18.0575 Y40.9169
G1 X17.7604 Y40.5320
G1 X17.4813 Y40.1339
G1 X17.2209 Y39.7233
G1 X16.9796 Y39.3012
G1 X16.7581 Y38.8684
G1 X16.5567 Y38.4258
G1 X16.3760 Y37.9744
G1 X16.2162 Y37.5152
G1 X16.0778 Y37.0491
G1 X15.9610 Y36.5772
G1 X15.8660 Y36.1003
G1 X15.7932 Y35.6196
G1 X15.7425 Y35.1361
G1 X15.7142 Y34.6507
G01 X15.714219 Y34.650670 Z-3.000000
G00 Z5.000000

(End cutting path id: text1)


(Start cutting path id: text1)
(Change tool to Default tool)

G00 Z5.000000
G00 X26.402219 Y14.234670

G01 Z-1.000000 F100.0(Penetrate)
G1 X25.9241 Y14.2495
G1 X25.4479 Y14.2941
G1 X24.9753 Y14.3682
G1 X24.5083 Y14.4715
G1 X24.0486 Y14.6036
G1 X23.5980 Y14.7641
G1 X23.1582 Y14.9523
G1 X22.7310 Y15.1674
G1 X22.3179 Y15.4087
G1 X21.9207 Y15.6752
G1 X21.5408 Y15.9658
G1 X21.1967 Y16.2759
G1 X20.8848 Y16.6183
G1 X20.6081 Y16.9897
G1 X20.3693 Y17.3865
G1 X20.1706 Y17.8049
G1 X20.0141 Y18.2408
G1 X19.9012 Y18.6900
G1 X19.8330 Y19.1481
G1 X19.8102 Y19.6107
G1 X19.8287 Y20.0872
G1 X19.8843 Y20.5607
G1 X19.9764 Y21.0286
G1 X20.1046 Y21.4878
G1 X20.2681 Y21.9357
G1 X20.4660 Y22.3695
G1 X20.6969 Y22.7867
G1 X20.9596 Y23.1846
G1 X21.2524 Y23.5610
G1 X21.5736 Y23.9134
G1 X21.9211 Y24.2398
G1 X22.2930 Y24.5382
G1 X22.6870 Y24.8068
G1 X23.1006 Y25.0440
G1 X23.5314 Y25.2483
G1 X23.9768 Y25.4186
G1 X24.4341 Y25.5537
G1 X24.9005 Y25.6528
G1 X25.3732 Y25.7154
G1 X25.8493 Y25.7411
G1 X26.3260 Y25.7297
G1 X26.8207 Y25.7044
G1 X27.3159 Y25.6908
G1 X27.8112 Y25.6887
G1 X28.3064 Y25.6983
G1 X28.8013 Y25.7196
G1 X29.2956 Y25.7524
G1 X29.7889 Y25.7968
G1 X30.2811 Y25.8528
G1 X30.7718 Y25.9203
G1 X31.2608 Y25.9994
G1 X31.7478 Y26.0898
G1 X32.2326 Y26.1917
G1 X32.7148 Y26.3050
G1 X33.1943 Y26.4295
G1 X33.6706 Y26.5652
G1 X34.1437 Y26.7121
G1 X34.6132 Y26.8701
G1 X35.0788 Y27.0390
G1 X35.5404 Y27.2188
G1 X35.9976 Y27.4094
G1 X36.4502 Y27.6107
G01 X36.450219 Y21.594670 Z-1.000000
G1 X36.4316 Y21.1383
G1 X36.3758 Y20.6850
G1 X36.2832 Y20.2377
G1 X36.1545 Y19.7995
G1 X35.9904 Y19.3732
G1 X35.7921 Y18.9617
G1 X35.5610 Y18.5678
G1 X35.2985 Y18.1940
G1 X35.0063 Y17.8428
G1 X34.6866 Y17.5167
G1 X34.3302 Y17.1948
G1 X33.9613 Y16.8873
G1 X33.5804 Y16.5947
G1 X33.1883 Y16.3174
G1 X32.7854 Y16.0559
G1 X32.3725 Y15.8106
G1 X31.9502 Y15.5819
G1 X31.5191 Y15.3702
G1 X31.0800 Y15.1757
G1 X30.6335 Y14.9988
G1 X30.1803 Y14.8398
G1 X29.7212 Y14.6989
G1 X29.2568 Y14.5763
G1 X28.7880 Y14.4722
G1 X28.3154 Y14.3869
G1 X27.8397 Y14.3204
G1 X27.3618 Y14.2728
G1 X26.8824 Y14.2442
G1 X26.4022 Y14.2347
G01 X26.402219 Y14.234670 Z-1.000000
G00 Z5.000000

(End cutting path id: text1)


(Start cutting path id: text1)
(Change tool to Default tool)

G00 Z5.000000
G00 X26.402219 Y14.234670

G01 Z-2.000000 F100.0(Penetrate)
G1 X25.9241 Y14.2495
G1 X25.4479 Y14.2941
G1 X24.9753 Y14.3682
G1 X24.5083 Y14.4715
G1 X24.0486 Y14.6036
G1 X23.5980 Y14.7641
G1 X23.1582 Y14.9523
G1 X22.7310 Y15.1674
G1 X22.3179 Y15.4087
G1 X21.9207 Y15.6752
G1 X21.5408 Y15.9658
G1 X21.1967 Y16.2759
G1 X20.8848 Y16.6183
G1 X20.6081 Y16.9897
G1 X20.3693 Y17.3865
G1 X20.1706 Y17.8049
G1 X20.0141 Y18.2408
G1 X19.9012 Y18.6900
G1 X19.8330 Y19.1481
G1 X19.8102 Y19.6107
G1 X19.8287 Y20.0872
G1 X19.8843 Y20.5607
G1 X19.9764 Y21.0286
G1 X20.1046 Y21.4878
G1 X20.2681 Y21.9357
G1 X20.4660 Y22.3695
G1 X20.6969 Y22.7867
G1 X20.9596 Y23.1846
G1 X21.2524 Y23.5610
G1 X21.5736 Y23.9134
G1 X21.9211 Y24.2398
G1 X22.2930 Y24.5382
G1 X22.6870 Y24.8068
G1 X23.1006 Y25.0440
G1 X23.5314 Y25.2483
G1 X23.9768 Y25.4186
G1 X24.4341 Y25.5537
G1 X24.9005 Y25.6528
G1 X25.3732 Y25.7154
G1 X25.8493 Y25.7411
G1 X26.3260 Y25.7297
G1 X26.8207 Y25.7044
G1 X27.3159 Y25.6908
G1 X27.8112 Y25.6887
G1 X28.3064 Y25.6983
G1 X28.8013 Y25.7196
G1 X29.2956 Y25.7524
G1 X29.7889 Y25.7968
G1 X30.2811 Y25.8528
G1 X30.7718 Y25.9203
G1 X31.2608 Y25.9994
G1 X31.7478 Y26.0898
G1 X32.2326 Y26.1917
G1 X32.7148 Y26.3050
G1 X33.1943 Y26.4295
G1 X33.6706 Y26.5652
G1 X34.1437 Y26.7121
G1 X34.6132 Y26.8701
G1 X35.0788 Y27.0390
G1 X35.5404 Y27.2188
G1 X35.9976 Y27.4094
G1 X36.4502 Y27.6107
G01 X36.450219 Y21.594670 Z-2.000000
G1 X36.4316 Y21.1383
G1 X36.3758 Y20.6850
G1 X36.2832 Y20.2377
G1 X36.1545 Y19.7995
G1 X35.9904 Y19.3732
G1 X35.7921 Y18.9617
G1 X35.5610 Y18.5678
G1 X35.2985 Y18.1940
G1 X35.0063 Y17.8428
G1 X34.6866 Y17.5167
G1 X34.3302 Y17.1948
G1 X33.9613 Y16.8873
G1 X33.5804 Y16.5947
G1 X33.1883 Y16.3174
G1 X32.7854 Y16.0559
G1 X32.3725 Y15.8106
G1 X31.9502 Y15.5819
G1 X31.5191 Y15.3702
G1 X31.0800 Y15.1757
G1 X30.6335 Y14.9988
G1 X30.1803 Y14.8398
G1 X29.7212 Y14.6989
G1 X29.2568 Y14.5763
G1 X28.7880 Y14.4722
G1 X28.3154 Y14.3869
G1 X27.8397 Y14.3204
G1 X27.3618 Y14.2728
G1 X26.8824 Y14.2442
G1 X26.4022 Y14.2347
G01 X26.402219 Y14.234670 Z-2.000000
G00 Z5.000000

(End cutting path id: text1)


(Start cutting path id: text1)
(Change tool to Default tool)

G00 Z5.000000
G00 X26.402219 Y14.234670

G01 Z-3.000000 F100.0(Penetrate)
G1 X25.9241 Y14.2495
G1 X25.4479 Y14.2941
G1 X24.9753 Y14.3682
G1 X24.5083 Y14.4715
G1 X24.0486 Y14.6036
G1 X23.5980 Y14.7641
G1 X23.1582 Y14.9523
G1 X22.7310 Y15.1674
G1 X22.3179 Y15.4087
G1 X21.9207 Y15.6752
G1 X21.5408 Y15.9658
G1 X21.1967 Y16.2759
G1 X20.8848 Y16.6183
G1 X20.6081 Y16.9897
G1 X20.3693 Y17.3865
G1 X20.1706 Y17.8049
G1 X20.0141 Y18.2408
G1 X19.9012 Y18.6900
G1 X19.8330 Y19.1481
G1 X19.8102 Y19.6107
G1 X19.8287 Y20.0872
G1 X19.8843 Y20.5607
G1 X19.9764 Y21.0286
G1 X20.1046 Y21.4878
G1 X20.2681 Y21.9357
G1 X20.4660 Y22.3695
G1 X20.6969 Y22.7867
G1 X20.9596 Y23.1846
G1 X21.2524 Y23.5610
G1 X21.5736 Y23.9134
G1 X21.9211 Y24.2398
G1 X22.2930 Y24.5382
G1 X22.6870 Y24.8068
G1 X23.1006 Y25.0440
G1 X23.5314 Y25.2483
G1 X23.9768 Y25.4186
G1 X24.4341 Y25.5537
G1 X24.9005 Y25.6528
G1 X25.3732 Y25.7154
G1 X25.8493 Y25.7411
G1 X26.3260 Y25.7297
G1 X26.8207 Y25.7044
G1 X27.3159 Y25.6908
G1 X27.8112 Y25.6887
G1 X28.3064 Y25.6983
G1 X28.8013 Y25.7196
G1 X29.2956 Y25.7524
G1 X29.7889 Y25.7968
G1 X30.2811 Y25.8528
G1 X30.7718 Y25.9203
G1 X31.2608 Y25.9994
G1 X31.7478 Y26.0898
G1 X32.2326 Y26.1917
G1 X32.7148 Y26.3050
G1 X33.1943 Y26.4295
G1 X33.6706 Y26.5652
G1 X34.1437 Y26.7121
G1 X34.6132 Y26.8701
G1 X35.0788 Y27.0390
G1 X35.5404 Y27.2188
G1 X35.9976 Y27.4094
G1 X36.4502 Y27.6107
G01 X36.450219 Y21.594670 Z-3.000000
G1 X36.4316 Y21.1383
G1 X36.3758 Y20.6850
G1 X36.2832 Y20.2377
G1 X36.1545 Y19.7995
G1 X35.9904 Y19.3732
G1 X35.7921 Y18.9617
G1 X35.5610 Y18.5678
G1 X35.2985 Y18.1940
G1 X35.0063 Y17.8428
G1 X34.6866 Y17.5167
G1 X34.3302 Y17.1948
G1 X33.9613 Y16.8873
G1 X33.5804 Y16.5947
G1 X33.1883 Y16.3174
G1 X32.7854 Y16.0559
G1 X32.3725 Y15.8106
G1 X31.9502 Y15.5819
G1 X31.5191 Y15.3702
G1 X31.0800 Y15.1757
G1 X30.6335 Y14.9988
G1 X30.1803 Y14.8398
G1 X29.7212 Y14.6989
G1 X29.2568 Y14.5763
G1 X28.7880 Y14.4722
G1 X28.3154 Y14.3869
G1 X27.8397 Y14.3204
G1 X27.3618 Y14.2728
G1 X26.8824 Y14.2442
G1 X26.4022 Y14.2347
G01 X26.402219 Y14.234670 Z-3.000000
G00 Z5.000000

(End cutting path id: text1)


(Start cutting path id: text1)
(Change tool to Default tool)

G00 Z5.000000
G00 X63.714170 Y44.570670

G01 Z-1.000000 F100.0(Penetrate)
G01 X58.146170 Y44.570670 Z-1.000000 F400.000000
G01 X58.146170 Y49.818670 Z-1.000000
G1 X58.1769 Y50.2603
G1 X58.2684 Y50.6934
G1 X58.4190 Y51.1097
G1 X58.6258 Y51.5011
G1 X58.8848 Y51.8601
G1 X59.1910 Y52.1799
G1 X59.5710 Y52.4848
G1 X59.9856 Y52.7408
G1 X60.4285 Y52.9440
G1 X60.8929 Y53.0914
G1 X61.3718 Y53.1808
G1 X61.8582 Y53.2107
G1 X62.3576 Y53.2031
G1 X62.8099 Y53.1876
G1 X63.2621 Y53.1688
G1 X63.7142 Y53.1467
G01 X63.714170 Y57.562670 Z-1.000000
G1 X63.3179 Y57.6406
G1 X62.9196 Y57.7080
G1 X62.5197 Y57.7649
G1 X62.1185 Y57.8111
G1 X61.6486 Y57.8509
G1 X61.1777 Y57.8748
G1 X60.7062 Y57.8827
G1 X60.2312 Y57.8687
G1 X59.7578 Y57.8267
G1 X59.2877 Y57.7569
G1 X58.8225 Y57.6595
G1 X58.3639 Y57.5349
G1 X57.9134 Y57.3835
G1 X57.4727 Y57.2058
G1 X57.0431 Y57.0024
G1 X56.6263 Y56.7741
G1 X56.2237 Y56.5216
G1 X55.8367 Y56.2458
G1 X55.4666 Y55.9477
G1 X55.1147 Y55.6283
G1 X54.7672 Y55.2705
G1 X54.4444 Y54.8902
G1 X54.1479 Y54.4892
G1 X53.8788 Y54.0692
G1 X53.6385 Y53.6321
G1 X53.4280 Y53.1799
G1 X53.2483 Y52.7146
G1 X53.1001 Y52.2384
G1 X52.9842 Y51.7532
G1 X52.9010 Y51.2614
G1 X52.8509 Y50.7652
G1 X52.8342 Y50.2667
G01 X52.834170 Y44.570670 Z-1.000000
G01 X48.354170 Y44.570670 Z-1.000000
G01 X48.354170 Y40.218670 Z-1.000000
G01 X52.834170 Y40.218670 Z-1.000000
G01 X52.834170 Y11.034670 Z-1.000000
G01 X58.146170 Y11.034670 Z-1.000000
G01 X58.146170 Y40.218670 Z-1.000000
G01 X63.714170 Y40.218670 Z-1.000000
G01 X63.714170 Y44.570670 Z-1.000000
G00 Z5.000000

(End cutting path id: text1)


(Start cutting path id: text1)
(Change tool to Default tool)

G00 Z5.000000
G00 X63.714170 Y44.570670

G01 Z-2.000000 F100.0(Penetrate)
G01 X58.146170 Y44.570670 Z-2.000000 F400.000000
G01 X58.146170 Y49.818670 Z-2.000000
G1 X58.1769 Y50.2603
G1 X58.2684 Y50.6934
G1 X58.4190 Y51.1097
G1 X58.6258 Y51.5011
G1 X58.8848 Y51.8601
G1 X59.1910 Y52.1799
G1 X59.5710 Y52.4848
G1 X59.9856 Y52.7408
G1 X60.4285 Y52.9440
G1 X60.8929 Y53.0914
G1 X61.3718 Y53.1808
G1 X61.8582 Y53.2107
G1 X62.3576 Y53.2031
G1 X62.8099 Y53.1876
G1 X63.2621 Y53.1688
G1 X63.7142 Y53.1467
G01 X63.714170 Y57.562670 Z-2.000000
G1 X63.3179 Y57.6406
G1 X62.9196 Y57.7080
G1 X62.5197 Y57.7649
G1 X62.1185 Y57.8111
G1 X61.6486 Y57.8509
G1 X61.1777 Y57.8748
G1 X60.7062 Y57.8827
G1 X60.2312 Y57.8687
G1 X59.7578 Y57.8267
G1 X59.2877 Y57.7569
G1 X58.8225 Y57.6595
G1 X58.3639 Y57.5349
G1 X57.9134 Y57.3835
G1 X57.4727 Y57.2058
G1 X57.0431 Y57.0024
G1 X56.6263 Y56.7741
G1 X56.2237 Y56.5216
G1 X55.8367 Y56.2458
G1 X55.4666 Y55.9477
G1 X55.1147 Y55.6283
G1 X54.7672 Y55.2705
G1 X54.4444 Y54.8902
G1 X54.1479 Y54.4892
G1 X53.8788 Y54.0692
G1 X53.6385 Y53.6321
G1 X53.4280 Y53.1799
G1 X53.2483 Y52.7146
G1 X53.1001 Y52.2384
G1 X52.9842 Y51.7532
G1 X52.9010 Y51.2614
G1 X52.8509 Y50.7652
G1 X52.8342 Y50.2667
G01 X52.834170 Y44.570670 Z-2.000000
G01 X48.354170 Y44.570670 Z-2.000000
G01 X48.354170 Y40.218670 Z-2.000000
G01 X52.834170 Y40.218670 Z-2.000000
G01 X52.834170 Y11.034670 Z-2.000000
G01 X58.146170 Y11.034670 Z-2.000000
G01 X58.146170 Y40.218670 Z-2.000000
G01 X63.714170 Y40.218670 Z-2.000000
G01 X63.714170 Y44.570670 Z-2.000000
G00 Z5.000000

(End cutting path id: text1)


(Start cutting path id: text1)
(Change tool to Default tool)

G00 Z5.000000
G00 X63.714170 Y44.570670

G01 Z-3.000000 F100.0(Penetrate)
G01 X58.146170 Y44.570670 Z-3.000000 F400.000000
G01 X58.146170 Y49.818670 Z-3.000000
G1 X58.1769 Y50.2603
G1 X58.2684 Y50.6934
G1 X58.4190 Y51.1097
G1 X58.6258 Y51.5011
G1 X58.8848 Y51.8601
G1 X59.1910 Y52.1799
G1 X59.5710 Y52.4848
G1 X59.9856 Y52.7408
G1 X60.4285 Y52.9440
G1 X60.8929 Y53.0914
G1 X61.3718 Y53.1808
G1 X61.8582 Y53.2107
G1 X62.3576 Y53.2031
G1 X62.8099 Y53.1876
G1 X63.2621 Y53.1688
G1 X63.7142 Y53.1467
G01 X63.714170 Y57.562670 Z-3.000000
G1 X63.3179 Y57.6406
G1 X62.9196 Y57.7080
G1 X62.5197 Y57.7649
G1 X62.1185 Y57.8111
G1 X61.6486 Y57.8509
G1 X61.1777 Y57.8748
G1 X60.7062 Y57.8827
G1 X60.2312 Y57.8687
G1 X59.7578 Y57.8267
G1 X59.2877 Y57.7569
G1 X58.8225 Y57.6595
G1 X58.3639 Y57.5349
G1 X57.9134 Y57.3835
G1 X57.4727 Y57.2058
G1 X57.0431 Y57.0024
G1 X56.6263 Y56.7741
G1 X56.2237 Y56.5216
G1 X55.8367 Y56.2458
G1 X55.4666 Y55.9477
G1 X55.1147 Y55.6283
G1 X54.7672 Y55.2705
G1 X54.4444 Y54.8902
G1 X54.1479 Y54.4892
G1 X53.8788 Y54.0692
G1 X53.6385 Y53.6321
G1 X53.4280 Y53.1799
G1 X53.2483 Y52.7146
G1 X53.1001 Y52.2384
G1 X52.9842 Y51.7532
G1 X52.9010 Y51.2614
G1 X52.8509 Y50.7652
G1 X52.8342 Y50.2667
G01 X52.834170 Y44.570670 Z-3.000000
G01 X48.354170 Y44.570670 Z-3.000000
G01 X48.354170 Y40.218670 Z-3.000000
G01 X52.834170 Y40.218670 Z-3.000000
G01 X52.834170 Y11.034670 Z-3.000000
G01 X58.146170 Y11.034670 Z-3.000000
G01 X58.146170 Y40.218670 Z-3.000000
G01 X63.714170 Y40.218670 Z-3.000000
G01 X63.714170 Y44.570670 Z-3.000000
G00 Z5.000000

(End cutting path id: text1)


(Start cutting path id: text1)
(Change tool to Default tool)

G00 Z5.000000
G00 X84.962220 Y39.898670

G01 Z-1.000000 F100.0(Penetrate)
G01 X84.962220 Y45.338670 Z-1.000000 F400.000000
G1 X84.5796 Y45.3911
G1 X84.1965 Y45.4390
G1 X83.8128 Y45.4825
G1 X83.3642 Y45.5186
G1 X82.9142 Y45.5307
G1 X82.4273 Y45.5129
G1 X81.9430 Y45.4595
G1 X81.4640 Y45.3710
G1 X80.9926 Y45.2476
G1 X80.5316 Y45.0902
G1 X80.0833 Y44.8994
G1 X79.6501 Y44.6764
G1 X79.2344 Y44.4224
G1 X78.8383 Y44.1387
G1 X78.4641 Y43.8426
G1 X78.0967 Y43.5381
G1 X77.7363 Y43.2253
G1 X77.3830 Y42.9046
G1 X77.0370 Y42.5759
G1 X76.6985 Y42.2396
G1 X76.3677 Y41.8956
G1 X76.0447 Y41.5443
G1 X75.7298 Y41.1858
G1 X75.4230 Y40.8203
G1 X75.1245 Y40.4480
G1 X74.8345 Y40.0690
G1 X74.5532 Y39.6836
G1 X74.2806 Y39.2920
G1 X74.0168 Y38.8942
G1 X73.7622 Y38.4907
G01 X73.762220 Y44.570670 Z-1.000000
G01 X68.834220 Y44.570670 Z-1.000000
G01 X68.834220 Y11.034670 Z-1.000000
G01 X74.210220 Y11.034670 Z-1.000000
G01 X74.210220 Y28.442670 Z-1.000000
G1 X74.2203 Y28.9281
G1 X74.2503 Y29.4127
G1 X74.3004 Y29.8957
G1 X74.3705 Y30.3762
G1 X74.4603 Y30.8533
G1 X74.5697 Y31.3264
G1 X74.6986 Y31.7945
G1 X74.8468 Y32.2569
G1 X75.0139 Y32.7128
G1 X75.1997 Y33.1614
G1 X75.4039 Y33.6019
G1 X75.6262 Y34.0336
G1 X75.8661 Y34.4558
G1 X76.1232 Y34.8676
G1 X76.3972 Y35.2685
G1 X76.6874 Y35.6578
G1 X76.9935 Y36.0347
G1 X77.3150 Y36.3986
G1 X77.6512 Y36.7489
G1 X78.0015 Y37.0851
G1 X78.3655 Y37.4065
G1 X78.7383 Y37.7079
G1 X79.1243 Y37.9919
G1 X79.5230 Y38.2582
G1 X79.9333 Y38.5060
G1 X80.3544 Y38.7348
G1 X80.7856 Y38.9443
G1 X81.2258 Y39.1340
G1 X81.6742 Y39.3034
G1 X82.1299 Y39.4522
G1 X82.5918 Y39.5801
G1 X83.0591 Y39.6869
G1 X83.5308 Y39.7723
G1 X84.0058 Y39.8362
G1 X84.4833 Y39.8783
G1 X84.9622 Y39.8987
G01 X84.962220 Y39.898670 Z-1.000000
G00 Z5.000000

(End cutting path id: text1)


(Start cutting path id: text1)
(Change tool to Default tool)

G00 Z5.000000
G00 X84.962220 Y39.898670

G01 Z-2.000000 F100.0(Penetrate)
G01 X84.962220 Y45.338670 Z-2.000000 F400.000000
G1 X84.5796 Y45.3911
G1 X84.1965 Y45.4390
G1 X83.8128 Y45.4825
G1 X83.3642 Y45.5186
G1 X82.9142 Y45.5307
G1 X82.4273 Y45.5129
G1 X81.9430 Y45.4595
G1 X81.4640 Y45.3710
G1 X80.9926 Y45.2476
G1 X80.5316 Y45.0902
G1 X80.0833 Y44.8994
G1 X79.6501 Y44.6764
G1 X79.2344 Y44.4224
G1 X78.8383 Y44.1387
G1 X78.4641 Y43.8426
G1 X78.0967 Y43.5381
G1 X77.7363 Y43.2253
G1 X77.3830 Y42.9046
G1 X77.0370 Y42.5759
G1 X76.6985 Y42.2396
G1 X76.3677 Y41.8956
G1 X76.0447 Y41.5443
G1 X75.7298 Y41.1858
G1 X75.4230 Y40.8203
G1 X75.1245 Y40.4480
G1 X74.8345 Y40.0690
G1 X74.5532 Y39.6836
G1 X74.2806 Y39.2920
G1 X74.0168 Y38.8942
G1 X73.7622 Y38.4907
G01 X73.762220 Y44.570670 Z-2.000000
G01 X68.834220 Y44.570670 Z-2.000000
G01 X68.834220 Y11.034670 Z-2.000000
G01 X74.210220 Y11.034670 Z-2.000000
G01 X74.210220 Y28.442670 Z-2.000000
G1 X74.2203 Y28.9281
G1 X74.2503 Y29.4127
G1 X74.3004 Y29.8957
G1 X74.3705 Y30.3762
G1 X74.4603 Y30.8533
G1 X74.5697 Y31.3264
G1 X74.6986 Y31.7945
G1 X74.8468 Y32.2569
G1 X75.0139 Y32.7128
G1 X75.1997 Y33.1614
G1 X75.4039 Y33.6019
G1 X75.6262 Y34.0336
G1 X75.8661 Y34.4558
G1 X76.1232 Y34.8676
G1 X76.3972 Y35.2685
G1 X76.6874 Y35.6578
G1 X76.9935 Y36.0347
G1 X77.3150 Y36.3986
G1 X77.6512 Y36.7489
G1 X78.0015 Y37.0851
G1 X78.3655 Y37.4065
G1 X78.7383 Y37.7079
G1 X79.1243 Y37.9919
G1 X79.5230 Y38.2582
G1 X79.9333 Y38.5060
G1 X80.3544 Y38.7348
G1 X80.7856 Y38.9443
G1 X81.2258 Y39.1340
G1 X81.6742 Y39.3034
G1 X82.1299 Y39.4522
G1 X82.5918 Y39.5801
G1 X83.0591 Y39.6869
G1 X83.5308 Y39.7723
G1 X84.0058 Y39.8362
G1 X84.4833 Y39.8783
G1 X84.9622 Y39.8987
G01 X84.962220 Y39.898670 Z-2.000000
G00 Z5.000000

(End cutting path id: text1)


(Start cutting path id: text1)
(Change tool to Default tool)

G00 Z5.000000
G00 X84.962220 Y39.898670

G01 Z-3.000000 F100.0(Penetrate)
G01 X84.962220 Y45.338670 Z-3.000000 F400.000000
G1 X84.5796 Y45.3911
G1 X84.1965 Y45.4390
G1 X83.8128 Y45.4825
G1 X83.3642 Y45.5186
G1 X82.9142 Y45.5307
G1 X82.4273 Y45.5129
G1 X81.9430 Y45.4595
G1 X81.4640 Y45.3710
G1 X80.9926 Y45.2476
G1 X80.5316 Y45.0902
G1 X80.0833 Y44.8994
G1 X79.6501 Y44.6764
G1 X79.2344 Y44.4224
G1 X78.8383 Y44.1387
G1 X78.4641 Y43.8426
G1 X78.0967 Y43.5381
G1 X77.7363 Y43.2253
G1 X77.3830 Y42.9046
G1 X77.0370 Y42.5759
G1 X76.6985 Y42.2396
G1 X76.3677 Y41.8956
G1 X76.0447 Y41.5443
G1 X75.7298 Y41.1858
G1 X75.4230 Y40.8203
G1 X75.1245 Y40.4480
G1 X74.8345 Y40.0690
G1 X74.5532 Y39.6836
G1 X74.2806 Y39.2920
G1 X74.0168 Y38.8942
G1 X73.7622 Y38.4907
G01 X73.762220 Y44.570670 Z-3.000000
G01 X68.834220 Y44.570670 Z-3.000000
G01 X68.834220 Y11.034670 Z-3.000000
G01 X74.210220 Y11.034670 Z-3.000000
G01 X74.210220 Y28.442670 Z-3.000000
G1 X74.2203 Y28.9281
G1 X74.2503 Y29.4127
G1 X74.3004 Y29.8957
G1 X74.3705 Y30.3762
G1 X74.4603 Y30.8533
G1 X74.5697 Y31.3264
G1 X74.6986 Y31.7945
G1 X74.8468 Y32.2569
G1 X75.0139 Y32.7128
G1 X75.1997 Y33.1614
G1 X75.4039 Y33.6019
G1 X75.6262 Y34.0336
G1 X75.8661 Y34.4558
G1 X76.1232 Y34.8676
G1 X76.3972 Y35.2685
G1 X76.6874 Y35.6578
G1 X76.9935 Y36.0347
G1 X77.3150 Y36.3986
G1 X77.6512 Y36.7489
G1 X78.0015 Y37.0851
G1 X78.3655 Y37.4065
G1 X78.7383 Y37.7079
G1 X79.1243 Y37.9919
G1 X79.5230 Y38.2582
G1 X79.9333 Y38.5060
G1 X80.3544 Y38.7348
G1 X80.7856 Y38.9443
G1 X81.2258 Y39.1340
G1 X81.6742 Y39.3034
G1 X82.1299 Y39.4522
G1 X82.5918 Y39.5801
G1 X83.0591 Y39.6869
G1 X83.5308 Y39.7723
G1 X84.0058 Y39.8362
G1 X84.4833 Y39.8783
G1 X84.9622 Y39.8987
G01 X84.962220 Y39.898670 Z-3.000000
G00 Z5.000000

(End cutting path id: text1)


(Start cutting path id: text1)
(Change tool to Default tool)

G00 Z5.000000
G00 X89.634260 Y34.650670

G01 Z-1.000000 F100.0(Penetrate)
G01 X95.010260 Y34.650670 Z-1.000000 F400.000000
G1 X95.0821 Y35.1275
G1 X95.1925 Y35.5969
G1 X95.3406 Y36.0558
G1 X95.5255 Y36.5012
G1 X95.7459 Y36.9300
G1 X96.0004 Y37.3396
G1 X96.2874 Y37.7271
G1 X96.6049 Y38.0901
G1 X96.9508 Y38.4261
G1 X97.3228 Y38.7328
G1 X97.7271 Y39.0226
G1 X98.1465 Y39.2901
G1 X98.5797 Y39.5345
G1 X99.0255 Y39.7552
G1 X99.4825 Y39.9514
G1 X99.9495 Y40.1226
G1 X100.4251 Y40.2684
G1 X100.9079 Y40.3883
G1 X101.3964 Y40.4818
G1 X101.8893 Y40.5489
G1 X102.3850 Y40.5892
G1 X102.8823 Y40.6026
G1 X103.3508 Y40.5920
G1 X103.8184 Y40.5602
G1 X104.2840 Y40.5074
G1 X104.7468 Y40.4335
G1 X105.2057 Y40.3387
G1 X105.6599 Y40.2234
G1 X106.1085 Y40.0876
G1 X106.5504 Y39.9316
G1 X106.9848 Y39.7559
G1 X107.4108 Y39.5606
G1 X107.8276 Y39.3463
G1 X108.2343 Y39.1134
G1 X108.6300 Y38.8624
G1 X109.0121 Y38.5722
G1 X109.3558 Y38.2375
G1 X109.6559 Y37.8631
G1 X109.9078 Y37.4547
G1 X110.1079 Y37.0186
G1 X110.2529 Y36.5613
G1 X110.3408 Y36.0896
G1 X110.3703 Y35.6107
G01 X110.370260 Y34.202670 Z-1.000000
G1 X110.3238 Y33.7277
G1 X110.1863 Y33.2708
G1 X109.9628 Y32.8491
G1 X109.6620 Y32.4787
G1 X109.2950 Y32.1736
G1 X108.8879 Y31.9113
G1 X108.4689 Y31.6686
G1 X108.0387 Y31.4462
G1 X107.5985 Y31.2444
G1 X107.1492 Y31.0638
G1 X106.6917 Y30.9047
G1 X106.2273 Y30.7676
G1 X105.7569 Y30.6527
G1 X105.2815 Y30.5603
G1 X104.8023 Y30.4907
G1 X104.3234 Y30.4253
G1 X103.8453 Y30.3544
G1 X103.3681 Y30.2780
G1 X102.8918 Y30.1962
G1 X102.4164 Y30.1089
G1 X101.9421 Y30.0161
G1 X101.4689 Y29.9179
G1 X100.9968 Y29.8143
G1 X100.5259 Y29.7052
G1 X100.0564 Y29.5908
G1 X99.5882 Y29.4709
G1 X99.1213 Y29.3457
G1 X98.6560 Y29.2152
G1 X98.1922 Y29.0793
G1 X97.7300 Y28.9381
G1 X97.2694 Y28.7915
G1 X96.8105 Y28.6398
G1 X96.3534 Y28.4827
G1 X95.8982 Y28.3204
G1 X95.4448 Y28.1529
G1 X94.9934 Y27.9802
G1 X94.5440 Y27.8024
G1 X94.0967 Y27.6193
G1 X93.6515 Y27.4312
G1 X93.2085 Y27.2379
G1 X92.7671 Y27.0269
G1 X92.3386 Y26.7908
G1 X91.9244 Y26.5304
G1 X91.5259 Y26.2465
G1 X91.1445 Y25.9402
G1 X90.7813 Y25.6123
G1 X90.4377 Y25.2641
G1 X90.1147 Y24.8966
G1 X89.8134 Y24.5111
G1 X89.5349 Y24.1089
G1 X89.2800 Y23.6913
G1 X89.0496 Y23.2597
G1 X88.8444 Y22.8155
G1 X88.6653 Y22.3603
G1 X88.5126 Y21.8955
G1 X88.3870 Y21.4226
G1 X88.2889 Y20.9433
G1 X88.2186 Y20.4591
G1 X88.1763 Y19.9717
G1 X88.1622 Y19.4827
G1 X88.1748 Y19.0006
G1 X88.2125 Y18.5197
G1 X88.2753 Y18.0415
G1 X88.3630 Y17.5673
G1 X88.4752 Y17.0982
G1 X88.6118 Y16.6356
G1 X88.7724 Y16.1809
G1 X88.9565 Y15.7351
G1 X89.1636 Y15.2995
G1 X89.3931 Y14.8753
G1 X89.6445 Y14.4637
G1 X89.9170 Y14.0657
G1 X90.2099 Y13.6826
G1 X90.5224 Y13.3152
G1 X90.8537 Y12.9646
G1 X91.2028 Y12.6318
G1 X91.5692 Y12.3137
G1 X91.9482 Y12.0109
G1 X92.3393 Y11.7238
G1 X92.7418 Y11.4529
G1 X93.1550 Y11.1987
G1 X93.5783 Y10.9615
G1 X94.0109 Y10.7419
G1 X94.4521 Y10.5401
G1 X94.9012 Y10.3564
G1 X95.3574 Y10.1913
G1 X95.8200 Y10.0450
G1 X96.2881 Y9.9176
G1 X96.7611 Y9.8095
G1 X97.2381 Y9.7208
G1 X97.7183 Y9.6517
G1 X98.2009 Y9.6022
G1 X98.6852 Y9.5725
G1 X99.1703 Y9.5626
G1 X99.6474 Y9.5707
G1 X100.1239 Y9.5951
G1 X100.5993 Y9.6357
G1 X101.0730 Y9.6924
G1 X101.5446 Y9.7653
G1 X102.0133 Y9.8541
G1 X102.4788 Y9.9589
G1 X102.9405 Y10.0795
G1 X103.3978 Y10.2157
G1 X103.8501 Y10.3674
G1 X104.2971 Y10.5344
G1 X104.7381 Y10.7166
G1 X105.1927 Y10.9199
G1 X105.6423 Y11.1340
G1 X106.0868 Y11.3587
G1 X106.5257 Y11.5939
G1 X106.9590 Y11.8394
G1 X107.3863 Y12.0952
G1 X107.8074 Y12.3610
G1 X108.2221 Y12.6368
G1 X108.6301 Y12.9223
G1 X109.0312 Y13.2174
G1 X109.4252 Y13.5220
G1 X109.8119 Y13.8358
G1 X110.1910 Y14.1588
G1 X110.5623 Y14.4906
G1 X110.6303 Y14.0492
G1 X110.7335 Y13.6146
G1 X110.8713 Y13.1897
G1 X111.0427 Y12.7773
G1 X111.2466 Y12.3799
G1 X111.4817 Y12.0002
G1 X111.7466 Y11.6405
G1 X112.0394 Y11.3033
G1 X112.3584 Y10.9907
G1 X112.7053 Y10.7018
G1 X113.0747 Y10.4422
G1 X113.4639 Y10.2136
G1 X113.8706 Y10.0175
G1 X114.2919 Y9.8552
G1 X114.7250 Y9.7279
G1 X115.1671 Y9.6363
G1 X115.6152 Y9.5811
G1 X116.0663 Y9.5627
G1 X116.5331 Y9.5748
G1 X116.9986 Y9.6110
G1 X117.4616 Y9.6714
G1 X117.9156 Y9.7471
G1 X118.3681 Y9.8318
G1 X118.8188 Y9.9253
G1 X119.2676 Y10.0276
G1 X119.7142 Y10.1387
G01 X119.714260 Y14.170670 Z-1.000000
G1 X119.3443 Y14.1019
G1 X118.9705 Y14.0589
G1 X118.5623 Y14.0426
G1 X118.1053 Y14.0767
G1 X117.6585 Y14.1782
G1 X117.2317 Y14.3449
G1 X116.8343 Y14.5731
G1 X116.4752 Y14.8577
G1 X116.2004 Y15.1566
G1 X115.9784 Y15.4965
G1 X115.8154 Y15.8684
G1 X115.7158 Y16.2620
G1 X115.6823 Y16.6667
G01 X115.682260 Y36.378670 Z-1.000000
G1 X115.6676 Y36.8474
G1 X115.6235 Y37.3144
G1 X115.5503 Y37.7776
G1 X115.4482 Y38.2353
G1 X115.3176 Y38.6858
G1 X115.1590 Y39.1272
G1 X114.9731 Y39.5577
G1 X114.7606 Y39.9758
G1 X114.5223 Y40.3798
G1 X114.2592 Y40.7680
G1 X113.9722 Y41.1389
G1 X113.6626 Y41.4912
G1 X113.3315 Y41.8234
G1 X112.9802 Y42.1341
G1 X112.6102 Y42.4222
G1 X112.2136 Y42.7024
G1 X111.8089 Y42.9707
G1 X111.3962 Y43.2266
G1 X110.9761 Y43.4701
G1 X110.5488 Y43.7008
G1 X110.1148 Y43.9187
G1 X109.6745 Y44.1234
G1 X109.2282 Y44.3147
G1 X108.7764 Y44.4927
G1 X108.3194 Y44.6569
G1 X107.8577 Y44.8074
G1 X107.3918 Y44.9440
G1 X106.9219 Y45.0665
G1 X106.4486 Y45.1749
G1 X105.9722 Y45.2690
G1 X105.4932 Y45.3488
G1 X105.0120 Y45.4142
G1 X104.5291 Y45.4651
G1 X104.0449 Y45.5015
G1 X103.5598 Y45.5233
G1 X103.0743 Y45.5306
G1 X102.6023 Y45.5240
G1 X102.1307 Y45.5042
G1 X101.6598 Y45.4712
G1 X101.1900 Y45.4251
G1 X100.7217 Y45.3658
G1 X100.2552 Y45.2935
G1 X99.7910 Y45.2082
G1 X99.3293 Y45.1099
G1 X98.8705 Y44.9987
G1 X98.4150 Y44.8748
G1 X97.9632 Y44.7382
G1 X97.5153 Y44.5889
G1 X97.0719 Y44.4273
G1 X96.6331 Y44.2532
G1 X96.1993 Y44.0670
G1 X95.7709 Y43.8687
G1 X95.3483 Y43.6586
G1 X94.9213 Y43.4261
G1 X94.5054 Y43.1743
G1 X94.1016 Y42.9035
G1 X93.7106 Y42.6144
G1 X93.3335 Y42.3076
G1 X92.9708 Y41.9837
G1 X92.6235 Y41.6435
G1 X92.2922 Y41.2876
G1 X91.9776 Y40.9169
G1 X91.6805 Y40.5320
G1 X91.4014 Y40.1339
G1 X91.1410 Y39.7233
G1 X90.8997 Y39.3012
G1 X90.6782 Y38.8684
G1 X90.4768 Y38.4258
G1 X90.2961 Y37.9744
G1 X90.1363 Y37.5152
G1 X89.9979 Y37.0491
G1 X89.8811 Y36.5772
G1 X89.7861 Y36.1003
G1 X89.7133 Y35.6196
G1 X89.6626 Y35.1361
G1 X89.6343 Y34.6507
G01 X89.634260 Y34.650670 Z-1.000000
G00 Z5.000000

(End cutting path id: text1)


(Start cutting path id: text1)
(Change tool to Default tool)

G00 Z5.000000
G00 X89.634260 Y34.650670

G01 Z-2.000000 F100.0(Penetrate)
G01 X95.010260 Y34.650670 Z-2.000000 F400.000000
G1 X95.0821 Y35.1275
G1 X95.1925 Y35.5969
G1 X95.3406 Y36.0558
G1 X95.5255 Y36.5012
G1 X95.7459 Y36.9300
G1 X96.0004 Y37.3396
G1 X96.2874 Y37.7271
G1 X96.6049 Y38.0901
G1 X96.9508 Y38.4261
G1 X97.3228 Y38.7328
G1 X97.7271 Y39.0226
G1 X98.1465 Y39.2901
G1 X98.5797 Y39.5345
G1 X99.0255 Y39.7552
G1 X99.4825 Y39.9514
G1 X99.9495 Y40.1226
G1 X100.4251 Y40.2684
G1 X100.9079 Y40.3883
G1 X101.3964 Y40.4818
G1 X101.8893 Y40.5489
G1 X102.3850 Y40.5892
G1 X102.8823 Y40.6026
G1 X103.3508 Y40.5920
G1 X103.8184 Y40.5602
G1 X104.2840 Y40.5074
G1 X104.7468 Y40.4335
G1 X105.2057 Y40.3387
G1 X105.6599 Y40.2234
G1 X106.1085 Y40.0876
G1 X106.5504 Y39.9316
G1 X106.9848 Y39.7559
G1 X107.4108 Y39.5606
G1 X107.8276 Y39.3463
G1 X108.2343 Y39.1134
G1 X108.6300 Y38.8624
G1 X109.0121 Y38.5722
G1 X109.3558 Y38.2375
G1 X109.6559 Y37.8631
G1 X109.9078 Y37.4547
G1 X110.1079 Y37.0186
G1 X110.2529 Y36.5613
G1 X110.3408 Y36.0896
G1 X110.3703 Y35.6107
G01 X110.370260 Y34.202670 Z-2.000000
G1 X110.3238 Y33.7277
G1 X110.1863 Y33.2708
G1 X109.9628 Y32.8491
G1 X109.6620 Y32.4787
G1 X109.2950 Y32.1736
G1 X108.8879 Y31.9113
G1 X108.4689 Y31.6686
G1 X108.0387 Y31.4462
G1 X107.5985 Y31.2444
G1 X107.1492 Y31.0638
G1 X106.6917 Y30.9047
G1 X106.2273 Y30.7676
G1 X105.7569 Y30.6527
G1 X105.2815 Y30.5603
G1 X104.8023 Y30.4907
G1 X104.3234 Y30.4253
G1 X103.8453 Y30.3544
G1 X103.3681 Y30.2780
G1 X102.8918 Y30.1962
G1 X102.4164 Y30.1089
G1 X101.9421 Y30.0161
G1 X101.4689 Y29.9179
G1 X100.9968 Y29.8143
G1 X100.5259 Y29.7052
G1 X100.0564 Y29.5908
G1 X99.5882 Y29.4709
G1 X99.1213 Y29.3457
G1 X98.6560 Y29.2152
G1 X98.1922 Y29.0793
G1 X97.7300 Y28.9381
G1 X97.2694 Y28.7915
G1 X96.8105 Y28.6398
G1 X96.3534 Y28.4827
G1 X95.8982 Y28.3204
G1 X95.4448 Y28.1529
G1 X94.9934 Y27.9802
G1 X94.5440 Y27.8024
G1 X94.0967 Y27.6193
G1 X93.6515 Y27.4312
G1 X93.2085 Y27.2379
G1 X92.7671 Y27.0269
G1 X92.3386 Y26.7908
G1 X91.9244 Y26.5304
G1 X91.5259 Y26.2465
G1 X91.1445 Y25.9402
G1 X90.7813 Y25.6123
G1 X90.4377 Y25.2641
G1 X90.1147 Y24.8966
G1 X89.8134 Y24.5111
G1 X89.5349 Y24.1089
G1 X89.2800 Y23.6913
G1 X89.0496 Y23.2597
G1 X88.8444 Y22.8155
G1 X88.6653 Y22.3603
G1 X88.5126 Y21.8955
G1 X88.3870 Y21.4226
G1 X88.2889 Y20.9433
G1 X88.2186 Y20.4591
G1 X88.1763 Y19.9717
G1 X88.1622 Y19.4827
G1 X88.1748 Y19.0006
G1 X88.2125 Y18.5197
G1 X88.2753 Y18.0415
G1 X88.3630 Y17.5673
G1 X88.4752 Y17.0982
G1 X88.6118 Y16.6356
G1 X88.7724 Y16.1809
G1 X88.9565 Y15.7351
G1 X89.1636 Y15.2995
G1 X89.3931 Y14.8753
G1 X89.6445 Y14.4637
G1 X89.9170 Y14.0657
G1 X90.2099 Y13.6826
G1 X90.5224 Y13.3152
G1 X90.8537 Y12.9646
G1 X91.2028 Y12.6318
G1 X91.5692 Y12.3137
G1 X91.9482 Y12.0109
G1 X92.3393 Y11.7238
G1 X92.7418 Y11.4529
G1 X93.1550 Y11.1987
G1 X93.5783 Y10.9615
G1 X94.0109 Y10.7419
G1 X94.4521 Y10.5401
G1 X94.9012 Y10.3564
G1 X95.3574 Y10.1913
G1 X95.8200 Y10.0450
G1 X96.2881 Y9.9176
G1 X96.7611 Y9.8095
G1 X97.2381 Y9.7208
G1 X97.7183 Y9.6517
G1 X98.2009 Y9.6022
G1 X98.6852 Y9.5725
G1 X99.1703 Y9.5626
G1 X99.6474 Y9.5707
G1 X100.1239 Y9.5951
G1 X100.5993 Y9.6357
G1 X101.0730 Y9.6924
G1 X101.5446 Y9.7653
G1 X102.0133 Y9.8541
G1 X102.4788 Y9.9589
G1 X102.9405 Y10.0795
G1 X103.3978 Y10.2157
G1 X103.8501 Y10.3674
G1 X104.2971 Y10.5344
G1 X104.7381 Y10.7166
G1 X105.1927 Y10.9199
G1 X105.6423 Y11.1340
G1 X106.0868 Y11.3587
G1 X106.5257 Y11.5939
G1 X106.9590 Y11.8394
G1 X107.3863 Y12.0952
G1 X107.8074 Y12.3610
G1 X108.2221 Y12.6368
G1 X108.6301 Y12.9223
G1 X109.0312 Y13.2174
G1 X109.4252 Y13.5220
G1 X109.8119 Y13.8358
G1 X110.1910 Y14.1588
G1 X110.5623 Y14.4906
G1 X110.6303 Y14.0492
G1 X110.7335 Y13.6146
G1 X110.8713 Y13.1897
G1 X111.0427 Y12.7773
G1 X111.2466 Y12.3799
G1 X111.4817 Y12.0002
G1 X111.7466 Y11.6405
G1 X112.0394 Y11.3033
G1 X112.3584 Y10.9907
G1 X112.7053 Y10.7018
G1 X113.0747 Y10.4422
G1 X113.4639 Y10.2136
G1 X113.8706 Y10.0175
G1 X114.2919 Y9.8552
G1 X114.7250 Y9.7279
G1 X115.1671 Y9.6363
G1 X115.6152 Y9.5811
G1 X116.0663 Y9.5627
G1 X116.5331 Y9.5748
G1 X116.9986 Y9.6110
G1 X117.4616 Y9.6714
G1 X117.9156 Y9.7471
G1 X118.3681 Y9.8318
G1 X118.8188 Y9.9253
G1 X119.2676 Y10.0276
G1 X119.7142 Y10.1387
G01 X119.714260 Y14.170670 Z-2.000000
G1 X119.3443 Y14.1019
G1 X118.9705 Y14.0589
G1 X118.5623 Y14.0426
G1 X118.1053 Y14.0767
G1 X117.6585 Y14.1782
G1 X117.2317 Y14.3449
G1 X116.8343 Y14.5731
G1 X116.4752 Y14.8577
G1 X116.2004 Y15.1566
G1 X115.9784 Y15.4965
G1 X115.8154 Y15.8684
G1 X115.7158 Y16.2620
G1 X115.6823 Y16.6667
G01 X115.682260 Y36.378670 Z-2.000000
G1 X115.6676 Y36.8474
G1 X115.6235 Y37.3144
G1 X115.5503 Y37.7776
G1 X115.4482 Y38.2353
G1 X115.3176 Y38.6858
G1 X115.1590 Y39.1272
G1 X114.9731 Y39.5577
G1 X114.7606 Y39.9758
G1 X114.5223 Y40.3798
G1 X114.2592 Y40.7680
G1 X113.9722 Y41.1389
G1 X113.6626 Y41.4912
G1 X113.3315 Y41.8234
G1 X112.9802 Y42.1341
G1 X112.6102 Y42.4222
G1 X112.2136 Y42.7024
G1 X111.8089 Y42.9707
G1 X111.3962 Y43.2266
G1 X110.9761 Y43.4701
G1 X110.5488 Y43.7008
G1 X110.1148 Y43.9187
G1 X109.6745 Y44.1234
G1 X109.2282 Y44.3147
G1 X108.7764 Y44.4927
G1 X108.3194 Y44.6569
G1 X107.8577 Y44.8074
G1 X107.3918 Y44.9440
G1 X106.9219 Y45.0665
G1 X106.4486 Y45.1749
G1 X105.9722 Y45.2690
G1 X105.4932 Y45.3488
G1 X105.0120 Y45.4142
G1 X104.5291 Y45.4651
G1 X104.0449 Y45.5015
G1 X103.5598 Y45.5233
G1 X103.0743 Y45.5306
G1 X102.6023 Y45.5240
G1 X102.1307 Y45.5042
G1 X101.6598 Y45.4712
G1 X101.1900 Y45.4251
G1 X100.7217 Y45.3658
G1 X100.2552 Y45.2935
G1 X99.7910 Y45.2082
G1 X99.3293 Y45.1099
G1 X98.8705 Y44.9987
G1 X98.4150 Y44.8748
G1 X97.9632 Y44.7382
G1 X97.5153 Y44.5889
G1 X97.0719 Y44.4273
G1 X96.6331 Y44.2532
G1 X96.1993 Y44.0670
G1 X95.7709 Y43.8687
G1 X95.3483 Y43.6586
G1 X94.9213 Y43.4261
G1 X94.5054 Y43.1743
G1 X94.1016 Y42.9035
G1 X93.7106 Y42.6144
G1 X93.3335 Y42.3076
G1 X92.9708 Y41.9837
G1 X92.6235 Y41.6435
G1 X92.2922 Y41.2876
G1 X91.9776 Y40.9169
G1 X91.6805 Y40.5320
G1 X91.4014 Y40.1339
G1 X91.1410 Y39.7233
G1 X90.8997 Y39.3012
G1 X90.6782 Y38.8684
G1 X90.4768 Y38.4258
G1 X90.2961 Y37.9744
G1 X90.1363 Y37.5152
G1 X89.9979 Y37.0491
G1 X89.8811 Y36.5772
G1 X89.7861 Y36.1003
G1 X89.7133 Y35.6196
G1 X89.6626 Y35.1361
G1 X89.6343 Y34.6507
G01 X89.634260 Y34.650670 Z-2.000000
G00 Z5.000000

(End cutting path id: text1)


(Start cutting path id: text1)
(Change tool to Default tool)

G00 Z5.000000
G00 X89.634260 Y34.650670

G01 Z-3.000000 F100.0(Penetrate)
G01 X95.010260 Y34.650670 Z-3.000000 F400.000000
G1 X95.0821 Y35.1275
G1 X95.1925 Y35.5969
G1 X95.3406 Y36.0558
G1 X95.5255 Y36.5012
G1 X95.7459 Y36.9300
G1 X96.0004 Y37.3396
G1 X96.2874 Y37.7271
G1 X96.6049 Y38.0901
G1 X96.9508 Y38.4261
G1 X97.3228 Y38.7328
G1 X97.7271 Y39.0226
G1 X98.1465 Y39.2901
G1 X98.5797 Y39.5345
G1 X99.0255 Y39.7552
G1 X99.4825 Y39.9514
G1 X99.9495 Y40.1226
G1 X100.4251 Y40.2684
G1 X100.9079 Y40.3883
G1 X101.3964 Y40.4818
G1 X101.8893 Y40.5489
G1 X102.3850 Y40.5892
G1 X102.8823 Y40.6026
G1 X103.3508 Y40.5920
G1 X103.8184 Y40.5602
G1 X104.2840 Y40.5074
G1 X104.7468 Y40.4335
G1 X105.2057 Y40.3387
G1 X105.6599 Y40.2234
G1 X106.1085 Y40.0876
G1 X106.5504 Y39.9316
G1 X106.9848 Y39.7559
G1 X107.4108 Y39.5606
G1 X107.8276 Y39.3463
G1 X108.2343 Y39.1134
G1 X108.6300 Y38.8624
G1 X109.0121 Y38.5722
G1 X109.3558 Y38.2375
G1 X109.6559 Y37.8631
G1 X109.9078 Y37.4547
G1 X110.1079 Y37.0186
G1 X110.2529 Y36.5613
G1 X110.3408 Y36.0896
G1 X110.3703 Y35.6107
G01 X110.370260 Y34.202670 Z-3.000000
G1 X110.3238 Y33.7277
G1 X110.1863 Y33.2708
G1 X109.9628 Y32.8491
G1 X109.6620 Y32.4787
G1 X109.2950 Y32.1736
G1 X108.8879 Y31.9113
G1 X108.4689 Y31.6686
G1 X108.0387 Y31.4462
G1 X107.5985 Y31.2444
G1 X107.1492 Y31.0638
G1 X106.6917 Y30.9047
G1 X106.2273 Y30.7676
G1 X105.7569 Y30.6527
G1 X105.2815 Y30.5603
G1 X104.8023 Y30.4907
G1 X104.3234 Y30.4253
G1 X103.8453 Y30.3544
G1 X103.3681 Y30.2780
G1 X102.8918 Y30.1962
G1 X102.4164 Y30.1089
G1 X101.9421 Y30.0161
G1 X101.4689 Y29.9179
G1 X100.9968 Y29.8143
G1 X100.5259 Y29.7052
G1 X100.0564 Y29.5908
G1 X99.5882 Y29.4709
G1 X99.1213 Y29.3457
G1 X98.6560 Y29.2152
G1 X98.1922 Y29.0793
G1 X97.7300 Y28.9381
G1 X97.2694 Y28.7915
G1 X96.8105 Y28.6398
G1 X96.3534 Y28.4827
G1 X95.8982 Y28.3204
G1 X95.4448 Y28.1529
G1 X94.9934 Y27.9802
G1 X94.5440 Y27.8024
G1 X94.0967 Y27.6193
G1 X93.6515 Y27.4312
G1 X93.2085 Y27.2379
G1 X92.7671 Y27.0269
G1 X92.3386 Y26.7908
G1 X91.9244 Y26.5304
G1 X91.5259 Y26.2465
G1 X91.1445 Y25.9402
G1 X90.7813 Y25.6123
G1 X90.4377 Y25.2641
G1 X90.1147 Y24.8966
G1 X89.8134 Y24.5111
G1 X89.5349 Y24.1089
G1 X89.2800 Y23.6913
G1 X89.0496 Y23.2597
G1 X88.8444 Y22.8155
G1 X88.6653 Y22.3603
G1 X88.5126 Y21.8955
G1 X88.3870 Y21.4226
G1 X88.2889 Y20.9433
G1 X88.2186 Y20.4591
G1 X88.1763 Y19.9717
G1 X88.1622 Y19.4827
G1 X88.1748 Y19.0006
G1 X88.2125 Y18.5197
G1 X88.2753 Y18.0415
G1 X88.3630 Y17.5673
G1 X88.4752 Y17.0982
G1 X88.6118 Y16.6356
G1 X88.7724 Y16.1809
G1 X88.9565 Y15.7351
G1 X89.1636 Y15.2995
G1 X89.3931 Y14.8753
G1 X89.6445 Y14.4637
G1 X89.9170 Y14.0657
G1 X90.2099 Y13.6826
G1 X90.5224 Y13.3152
G1 X90.8537 Y12.9646
G1 X91.2028 Y12.6318
G1 X91.5692 Y12.3137
G1 X91.9482 Y12.0109
G1 X92.3393 Y11.7238
G1 X92.7418 Y11.4529
G1 X93.1550 Y11.1987
G1 X93.5783 Y10.9615
G1 X94.0109 Y10.7419
G1 X94.4521 Y10.5401
G1 X94.9012 Y10.3564
G1 X95.3574 Y10.1913
G1 X95.8200 Y10.0450
G1 X96.2881 Y9.9176
G1 X96.7611 Y9.8095
G1 X97.2381 Y9.7208
G1 X97.7183 Y9.6517
G1 X98.2009 Y9.6022
G1 X98.6852 Y9.5725
G1 X99.1703 Y9.5626
G1 X99.6474 Y9.5707
G1 X100.1239 Y9.5951
G1 X100.5993 Y9.6357
G1 X101.0730 Y9.6924
G1 X101.5446 Y9.7653
G1 X102.0133 Y9.8541
G1 X102.4788 Y9.9589
G1 X102.9405 Y10.0795
G1 X103.3978 Y10.2157
G1 X103.8501 Y10.3674
G1 X104.2971 Y10.5344
G1 X104.7381 Y10.7166
G1 X105.1927 Y10.9199
G1 X105.6423 Y11.1340
G1 X106.0868 Y11.3587
G1 X106.5257 Y11.5939
G1 X106.9590 Y11.8394
G1 X107.3863 Y12.0952
G1 X107.8074 Y12.3610
G1 X108.2221 Y12.6368
G1 X108.6301 Y12.9223
G1 X109.0312 Y13.2174
G1 X109.4252 Y13.5220
G1 X109.8119 Y13.8358
G1 X110.1910 Y14.1588
G1 X110.5623 Y14.4906
G1 X110.6303 Y14.0492
G1 X110.7335 Y13.6146
G1 X110.8713 Y13.1897
G1 X111.0427 Y12.7773
G1 X111.2466 Y12.3799
G1 X111.4817 Y12.0002
G1 X111.7466 Y11.6405
G1 X112.0394 Y11.3033
G1 X112.3584 Y10.9907
G1 X112.7053 Y10.7018
G1 X113.0747 Y10.4422
G1 X113.4639 Y10.2136
G1 X113.8706 Y10.0175
G1 X114.2919 Y9.8552
G1 X114.7250 Y9.7279
G1 X115.1671 Y9.6363
G1 X115.6152 Y9.5811
G1 X116.0663 Y9.5627
G1 X116.5331 Y9.5748
G1 X116.9986 Y9.6110
G1 X117.4616 Y9.6714
G1 X117.9156 Y9.7471
G1 X118.3681 Y9.8318
G1 X118.8188 Y9.9253
G1 X119.2676 Y10.0276
G1 X119.7142 Y10.1387
G01 X119.714260 Y14.170670 Z-3.000000
G1 X119.3443 Y14.1019
G1 X118.9705 Y14.0589
G1 X118.5623 Y14.0426
G1 X118.1053 Y14.0767
G1 X117.6585 Y14.1782
G1 X117.2317 Y14.3449
G1 X116.8343 Y14.5731
G1 X116.4752 Y14.8577
G1 X116.2004 Y15.1566
G1 X115.9784 Y15.4965
G1 X115.8154 Y15.8684
G1 X115.7158 Y16.2620
G1 X115.6823 Y16.6667
G01 X115.682260 Y36.378670 Z-3.000000
G1 X115.6676 Y36.8474
G1 X115.6235 Y37.3144
G1 X115.5503 Y37.7776
G1 X115.4482 Y38.2353
G1 X115.3176 Y38.6858
G1 X115.1590 Y39.1272
G1 X114.9731 Y39.5577
G1 X114.7606 Y39.9758
G1 X114.5223 Y40.3798
G1 X114.2592 Y40.7680
G1 X113.9722 Y41.1389
G1 X113.6626 Y41.4912
G1 X113.3315 Y41.8234
G1 X112.9802 Y42.1341
G1 X112.6102 Y42.4222
G1 X112.2136 Y42.7024
G1 X111.8089 Y42.9707
G1 X111.3962 Y43.2266
G1 X110.9761 Y43.4701
G1 X110.5488 Y43.7008
G1 X110.1148 Y43.9187
G1 X109.6745 Y44.1234
G1 X109.2282 Y44.3147
G1 X108.7764 Y44.4927
G1 X108.3194 Y44.6569
G1 X107.8577 Y44.8074
G1 X107.3918 Y44.9440
G1 X106.9219 Y45.0665
G1 X106.4486 Y45.1749
G1 X105.9722 Y45.2690
G1 X105.4932 Y45.3488
G1 X105.0120 Y45.4142
G1 X104.5291 Y45.4651
G1 X104.0449 Y45.5015
G1 X103.5598 Y45.5233
G1 X103.0743 Y45.5306
G1 X102.6023 Y45.5240
G1 X102.1307 Y45.5042
G1 X101.6598 Y45.4712
G1 X101.1900 Y45.4251
G1 X100.7217 Y45.3658
G1 X100.2552 Y45.2935
G1 X99.7910 Y45.2082
G1 X99.3293 Y45.1099
G1 X98.8705 Y44.9987
G1 X98.4150 Y44.8748
G1 X97.9632 Y44.7382
G1 X97.5153 Y44.5889
G1 X97.0719 Y44.4273
G1 X96.6331 Y44.2532
G1 X96.1993 Y44.0670
G1 X95.7709 Y43.8687
G1 X95.3483 Y43.6586
G1 X94.9213 Y43.4261
G1 X94.5054 Y43.1743
G1 X94.1016 Y42.9035
G1 X93.7106 Y42.6144
G1 X93.3335 Y42.3076
G1 X92.9708 Y41.9837
G1 X92.6235 Y41.6435
G1 X92.2922 Y41.2876
G1 X91.9776 Y40.9169
G1 X91.6805 Y40.5320
G1 X91.4014 Y40.1339
G1 X91.1410 Y39.7233
G1 X90.8997 Y39.3012
G1 X90.6782 Y38.8684
G1 X90.4768 Y38.4258
G1 X90.2961 Y37.9744
G1 X90.1363 Y37.5152
G1 X89.9979 Y37.0491
G1 X89.8811 Y36.5772
G1 X89.7861 Y36.1003
G1 X89.7133 Y35.6196
G1 X89.6626 Y35.1361
G1 X89.6343 Y34.6507
G01 X89.634260 Y34.650670 Z-3.000000
G00 Z5.000000

(End cutting path id: text1)


(Start cutting path id: text1)
(Change tool to Default tool)

G00 Z5.000000
G00 X100.322260 Y14.234670

G01 Z-1.000000 F100.0(Penetrate)
G1 X99.8442 Y14.2495
G1 X99.3679 Y14.2941
G1 X98.8954 Y14.3682
G1 X98.4283 Y14.4715
G1 X97.9686 Y14.6036
G1 X97.5180 Y14.7641
G1 X97.0782 Y14.9523
G1 X96.6510 Y15.1674
G1 X96.2380 Y15.4087
G1 X95.8408 Y15.6752
G1 X95.4609 Y15.9658
G1 X95.1168 Y16.2759
G1 X94.8049 Y16.6183
G1 X94.5282 Y16.9897
G1 X94.2894 Y17.3865
G1 X94.0907 Y17.8049
G1 X93.9342 Y18.2408
G1 X93.8213 Y18.6900
G1 X93.7531 Y19.1481
G1 X93.7303 Y19.6107
G1 X93.7488 Y20.0872
G1 X93.8044 Y20.5607
G1 X93.8965 Y21.0285
G1 X94.0247 Y21.4878
G1 X94.1882 Y21.9357
G1 X94.3861 Y22.3695
G1 X94.6170 Y22.7867
G1 X94.8797 Y23.1846
G1 X95.1725 Y23.5609
G1 X95.4936 Y23.9134
G1 X95.8412 Y24.2398
G1 X96.2131 Y24.5382
G1 X96.6070 Y24.8068
G1 X97.0207 Y25.0440
G1 X97.4515 Y25.2483
G1 X97.8969 Y25.4186
G1 X98.3542 Y25.5537
G1 X98.8205 Y25.6528
G1 X99.2932 Y25.7154
G1 X99.7693 Y25.7411
G1 X100.2460 Y25.7297
G1 X100.7407 Y25.7044
G1 X101.2359 Y25.6908
G1 X101.7312 Y25.6887
G1 X102.2265 Y25.6983
G1 X102.7213 Y25.7196
G1 X103.2156 Y25.7524
G1 X103.7090 Y25.7968
G1 X104.2011 Y25.8528
G1 X104.6918 Y25.9203
G1 X105.1808 Y25.9994
G1 X105.6679 Y26.0898
G1 X106.1526 Y26.1917
G1 X106.6348 Y26.3050
G1 X107.1143 Y26.4295
G1 X107.5907 Y26.5652
G1 X108.0637 Y26.7121
G1 X108.5332 Y26.8701
G1 X108.9989 Y27.0390
G1 X109.4604 Y27.2188
G1 X109.9176 Y27.4094
G1 X110.3703 Y27.6107
G01 X110.370260 Y21.594670 Z-1.000000
G1 X110.3516 Y21.1383
G1 X110.2958 Y20.6850
G1 X110.2033 Y20.2377
G1 X110.0745 Y19.7995
G1 X109.9105 Y19.3732
G1 X109.7122 Y18.9617
G1 X109.4810 Y18.5678
G1 X109.2185 Y18.1940
G1 X108.9264 Y17.8428
G1 X108.6066 Y17.5167
G1 X108.2502 Y17.1948
G1 X107.8813 Y16.8873
G1 X107.5004 Y16.5947
G1 X107.1083 Y16.3174
G1 X106.7054 Y16.0559
G1 X106.2925 Y15.8107
G1 X105.8702 Y15.5820
G1 X105.4392 Y15.3702
G1 X105.0000 Y15.1757
G1 X104.5535 Y14.9988
G1 X104.1004 Y14.8398
G1 X103.6412 Y14.6989
G1 X103.1769 Y14.5763
G1 X102.7080 Y14.4723
G1 X102.2354 Y14.3869
G1 X101.7597 Y14.3204
G1 X101.2818 Y14.2728
G1 X100.8024 Y14.2442
G1 X100.3223 Y14.2347
G01 X100.322260 Y14.234670 Z-1.000000
G00 Z5.000000

(End cutting path id: text1)


(Start cutting path id: text1)
(Change tool to Default tool)

G00 Z5.000000
G00 X100.322260 Y14.234670

G01 Z-2.000000 F100.0(Penetrate)
G1 X99.8442 Y14.2495
G1 X99.3679 Y14.2941
G1 X98.8954 Y14.3682
G1 X98.4283 Y14.4715
G1 X97.9686 Y14.6036
G1 X97.5180 Y14.7641
G1 X97.0782 Y14.9523
G1 X96.6510 Y15.1674
G1 X96.2380 Y15.4087
G1 X95.8408 Y15.6752
G1 X95.4609 Y15.9658
G1 X95.1168 Y16.2759
G1 X94.8049 Y16.6183
G1 X94.5282 Y16.9897
G1 X94.2894 Y17.3865
G1 X94.0907 Y17.8049
G1 X93.9342 Y18.2408
G1 X93.8213 Y18.6900
G1 X93.7531 Y19.1481
G1 X93.7303 Y19.6107
G1 X93.7488 Y20.0872
G1 X93.8044 Y20.5607
G1 X93.8965 Y21.0285
G1 X94.0247 Y21.4878
G1 X94.1882 Y21.9357
G1 X94.3861 Y22.3695
G1 X94.6170 Y22.7867
G1 X94.8797 Y23.1846
G1 X95.1725 Y23.5609
G1 X95.4936 Y23.9134
G1 X95.8412 Y24.2398
G1 X96.2131 Y24.5382
G1 X96.6070 Y24.8068
G1 X97.0207 Y25.0440
G1 X97.4515 Y25.2483
G1 X97.8969 Y25.4186
G1 X98.3542 Y25.5537
G1 X98.8205 Y25.6528
G1 X99.2932 Y25.7154
G1 X99.7693 Y25.7411
G1 X100.2460 Y25.7297
G1 X100.7407 Y25.7044
G1 X101.2359 Y25.6908
G1 X101.7312 Y25.6887
G1 X102.2265 Y25.6983
G1 X102.7213 Y25.7196
G1 X103.2156 Y25.7524
G1 X103.7090 Y25.7968
G1 X104.2011 Y25.8528
G1 X104.6918 Y25.9203
G1 X105.1808 Y25.9994
G1 X105.6679 Y26.0898
G1 X106.1526 Y26.1917
G1 X106.6348 Y26.3050
G1 X107.1143 Y26.4295
G1 X107.5907 Y26.5652
G1 X108.0637 Y26.7121
G1 X108.5332 Y26.8701
G1 X108.9989 Y27.0390
G1 X109.4604 Y27.2188
G1 X109.9176 Y27.4094
G1 X110.3703 Y27.6107
G01 X110.370260 Y21.594670 Z-2.000000
G1 X110.3516 Y21.1383
G1 X110.2958 Y20.6850
G1 X110.2033 Y20.2377
G1 X110.0745 Y19.7995
G1 X109.9105 Y19.3732
G1 X109.7122 Y18.9617
G1 X109.4810 Y18.5678
G1 X109.2185 Y18.1940
G1 X108.9264 Y17.8428
G1 X108.6066 Y17.5167
G1 X108.2502 Y17.1948
G1 X107.8813 Y16.8873
G1 X107.5004 Y16.5947
G1 X107.1083 Y16.3174
G1 X106.7054 Y16.0559
G1 X106.2925 Y15.8107
G1 X105.8702 Y15.5820
G1 X105.4392 Y15.3702
G1 X105.0000 Y15.1757
G1 X104.5535 Y14.9988
G1 X104.1004 Y14.8398
G1 X103.6412 Y14.6989
G1 X103.1769 Y14.5763
G1 X102.7080 Y14.4723
G1 X102.2354 Y14.3869
G1 X101.7597 Y14.3204
G1 X101.2818 Y14.2728
G1 X100.8024 Y14.2442
G1 X100.3223 Y14.2347
G01 X100.322260 Y14.234670 Z-2.000000
G00 Z5.000000

(End cutting path id: text1)


(Start cutting path id: text1)
(Change tool to Default tool)

G00 Z5.000000
G00 X100.322260 Y14.234670

G01 Z-3.000000 F100.0(Penetrate)
G1 X99.8442 Y14.2495
G1 X99.3679 Y14.2941
G1 X98.8954 Y14.3682
G1 X98.4283 Y14.4715
G1 X97.9686 Y14.6036
G1 X97.5180 Y14.7641
G1 X97.0782 Y14.9523
G1 X96.6510 Y15.1674
G1 X96.2380 Y15.4087
G1 X95.8408 Y15.6752
G1 X95.4609 Y15.9658
G1 X95.1168 Y16.2759
G1 X94.8049 Y16.6183
G1 X94.5282 Y16.9897
G1 X94.2894 Y17.3865
G1 X94.0907 Y17.8049
G1 X93.9342 Y18.2408
G1 X93.8213 Y18.6900
G1 X93.7531 Y19.1481
G1 X93.7303 Y19.6107
G1 X93.7488 Y20.0872
G1 X93.8044 Y20.5607
G1 X93.8965 Y21.0285
G1 X94.0247 Y21.4878
G1 X94.1882 Y21.9357
G1 X94.3861 Y22.3695
G1 X94.6170 Y22.7867
G1 X94.8797 Y23.1846
G1 X95.1725 Y23.5609
G1 X95.4936 Y23.9134
G1 X95.8412 Y24.2398
G1 X96.2131 Y24.5382
G1 X96.6070 Y24.8068
G1 X97.0207 Y25.0440
G1 X97.4515 Y25.2483
G1 X97.8969 Y25.4186
G1 X98.3542 Y25.5537
G1 X98.8205 Y25.6528
G1 X99.2932 Y25.7154
G1 X99.7693 Y25.7411
G1 X100.2460 Y25.7297
G1 X100.7407 Y25.7044
G1 X101.2359 Y25.6908
G1 X101.7312 Y25.6887
G1 X102.2265 Y25.6983
G1 X102.7213 Y25.7196
G1 X103.2156 Y25.7524
G1 X103.7090 Y25.7968
G1 X104.2011 Y25.8528
G1 X104.6918 Y25.9203
G1 X105.1808 Y25.9994
G1 X105.6679 Y26.0898
G1 X106.1526 Y26.1917
G1 X106.6348 Y26.3050
G1 X107.1143 Y26.4295
G1 X107.5907 Y26.5652
G1 X108.0637 Y26.7121
G1 X108.5332 Y26.8701
G1 X108.9989 Y27.0390
G1 X109.4604 Y27.2188
G1 X109.9176 Y27.4094
G1 X110.3703 Y27.6107
G01 X110.370260 Y21.594670 Z-3.000000
G1 X110.3516 Y21.1383
G1 X110.2958 Y20.6850
G1 X110.2033 Y20.2377
G1 X110.0745 Y19.7995
G1 X109.9105 Y19.3732
G1 X109.7122 Y18.9617
G1 X109.4810 Y18.5678
G1 X109.2185 Y18.1940
G1 X108.9264 Y17.8428
G1 X108.6066 Y17.5167
G1 X108.2502 Y17.1948
G1 X107.8813 Y16.8873
G1 X107.5004 Y16.5947
G1 X107.1083 Y16.3174
G1 X106.7054 Y16.0559
G1 X106.2925 Y15.8107
G1 X105.8702 Y15.5820
G1 X105.4392 Y15.3702
G1 X105.0000 Y15.1757
G1 X104.5535 Y14.9988
G1 X104.1004 Y14.8398
G1 X103.6412 Y14.6989
G1 X103.1769 Y14.5763
G1 X102.7080 Y14.4723
G1 X102.2354 Y14.3869
G1 X101.7597 Y14.3204
G1 X101.2818 Y14.2728
G1 X100.8024 Y14.2442
G1 X100.3223 Y14.2347
G01 X100.322260 Y14.234670 Z-3.000000
G00 Z5.000000

(End cutting path id: text1)


(Footer)
M5
G00 X0.0000 Y0.0000
M2
(Using default footer. To add your own footer create file "footer" in the output dir.)
(end)
%
